cjunkin/reinforcement-learning/metaracer/data/td3_agent_single_v7/td3/progress.csv
,log_dir,frame_per_second,episode_reward,total_steps,total_episodes,total_time,target_q,actor_loss,critic_loss,success_rate,current_q1,current_q2,reward
0,/Users/cjpark/Desktop/ucla_courses/cs260r/assignment4/data/td3_agent_single_v7/td3,1179,-571.0240697860718,2999,1,2.541766881942749,,,,0.0,,,
1,/Users/cjpark/Desktop/ucla_courses/cs260r/assignment4/data/td3_agent_single_v7/td3,1257,-1797.0333609580994,5999,2,4.771263122558594,,,,0.0,,,
2,/Users/cjpark/Desktop/ucla_courses/cs260r/assignment4/data/td3_agent_single_v7/td3,1289,-3172.039528528849,8999,3,6.9780590534210205,,,,0.0,,,
3,/Users/cjpark/Desktop/ucla_courses/cs260r/assignment4/data/td3_agent_single_v7/td3,561,-4275.2282083034515,11999,4,21.371389865875244,-3.6200692653656006,2.164896249771118,137.82763671875,0.0,-3.6849749088287354,-3.494534969329834,-1.554046392440796
4,/Users/cjpark/Desktop/ucla_courses/cs260r/assignment4/data/td3_agent_single_v7/td3,355,-6550.062139320374,14999,5,42.185818910598755,-5.967521667480469,4.994505882263184,143.36050415039062,0.0,-5.876072406768799,-6.131779670715332,-1.9452487230300903
5,/Users/cjpark/Desktop/ucla_courses/cs260r/assignment4/data/td3_agent_single_v7/td3,302,-7275.145206769307,17012,6,56.18877100944519,-13.800005912780762,,123.86569213867188,0.0,-13.778579711914062,-14.003849983215332,-1.7531510591506958
6,/Users/cjpark/Desktop/ucla_courses/cs260r/assignment4/data/td3_agent_single_v7/td3,259,-9092.87714958191,20012,7,77.08724093437195,-30.868770599365234,,232.77029418945312,0.0,-29.32373046875,-29.956193923950195,-3.7056796550750732
7,/Users/cjpark/Desktop/ucla_courses/cs260r/assignment4/data/td3_agent_single_v7/td3,234,-10762.395067453384,23012,8,97.95817613601685,-54.90681457519531,,218.4295654296875,0.0,-55.75635528564453,-55.78529739379883,-3.315023899078369
8,/Users/cjpark/Desktop/ucla_courses/cs260r/assignment4/data/td3_agent_single_v7/td3,218,-11727.638860066732,26012,9,119.09335207939148,-77.6576919555664,,190.90301513671875,0.0,-78.08899688720703,-78.06474304199219,-3.1203112602233887
9,/Users/cjpark/Desktop/ucla_courses/cs260r/assignment4/data/td3_agent_single_v7/td3,207,-12359.819431877137,29012,10,139.8169300556183,-116.08306884765625,,336.8142395019531,0.0,-114.23912048339844,-114.80290222167969,-4.682226181030273
10,/Users/cjpark/Desktop/ucla_courses/cs260r/assignment4/data/td3_agent_single_v7/td3,199,-13386.110046473417,32012,11,160.5925099849701,-126.69526672363281,,296.70257568359375,0.0,-126.39727783203125,-127.39263916015625,-4.293604850769043
11,/Users/cjpark/Desktop/ucla_courses/cs260r/assignment4/data/td3_agent_single_v7/td3,193,-13674.622748454412,34632,12,178.91902899742126,-209.41015625,,674.44580078125,0.0,-209.72503662109375,-210.4824981689453,-5.861483097076416
12,/Users/cjpark/Desktop/ucla_courses/cs260r/assignment4/data/td3_agent_single_v7/td3,188,-13949.596419701209,37632,13,199.31028199195862,-200.46954345703125,,415.0858154296875,0.0,-200.02076721191406,-198.7119598388672,-4.29372501373291
13,/Users/cjpark/Desktop/ucla_courses/cs260r/assignment4/data/td3_agent_single_v7/td3,184,-14199.630320072174,40632,14,220.02657198905945,-229.80958557128906,,603.43798828125,0.0,-230.8310546875,-230.55889892578125,-4.684215068817139
14,/Users/cjpark/Desktop/ucla_courses/cs260r/assignment4/data/td3_agent_single_v7/td3,181,-14399.513876342773,43158,15,237.7938199043274,-290.6366271972656,,524.3858642578125,0.0,-291.42523193359375,-290.31463623046875,-5.271189212799072
15,/Users/cjpark/Desktop/ucla_courses/cs260r/assignment4/data/td3_agent_single_v7/td3,178,-15108.850692272186,46158,16,258.78307700157166,-259.5042419433594,,398.4934997558594,0.0,-263.5370178222656,-263.24365234375,-4.489874362945557
16,/Users/cjpark/Desktop/ucla_courses/cs260r/assignment4/data/td3_agent_single_v7/td3,175,-15937.714220888474,49158,17,279.54829597473145,-213.50827026367188,,298.874755859375,0.0,-212.18421936035156,-212.93394470214844,-3.708669662475586
17,/Users/cjpark/Desktop/ucla_courses/cs260r/assignment4/data/td3_agent_single_v7/td3,173,-16891.085470782386,52158,18,300.2398850917816,-376.64404296875,,751.26318359375,0.0,-376.40985107421875,-376.77032470703125,-5.662507057189941
18,/Users/cjpark/Desktop/ucla_courses/cs260r/assignment4/data/td3_agent_single_v7/td3,171,-16936.266582790173,55158,19,321.20569705963135,-345.2330627441406,,460.86474609375,0.0,-345.59814453125,-344.6626892089844,-5.075247764587402
19,/Users/cjpark/Desktop/ucla_courses/cs260r/assignment4/data/td3_agent_single_v7/td3,170,-17094.421640205383,58158,20,342.00420784950256,-387.45928955078125,,719.3526611328125,0.0,-386.6578063964844,-388.9029235839844,-5.46638298034668
20,/Users/cjpark/Desktop/ucla_courses/cs260r/assignment4/data/td3_agent_single_v7/td3,168,-17266.0486546471,60961,21,362.16150879859924,-463.3042907714844,461.35430908203125,730.2896728515625,0.0,-462.20465087890625,-462.66790771484375,-5.857503890991211
21,/Users/cjpark/Desktop/ucla_courses/cs260r/assignment4/data/td3_agent_single_v7/td3,166,-17890.24872376702,63961,22,383.28529596328735,-514.796630859375,510.1838684082031,923.204345703125,0.0,-509.52886962890625,-511.7693786621094,-7.811036109924316
22,/Users/cjpark/Desktop/ucla_courses/cs260r/assignment4/data/td3_agent_single_v7/td3,165,-18375.40698105356,66961,23,404.92525482177734,-459.5273742675781,456.64080810546875,459.3121032714844,0.0,-457.1739807128906,-456.2828063964844,-6.834084510803223
23,/Users/cjpark/Desktop/ucla_courses/cs260r/assignment4/data/td3_agent_single_v7/td3,164,-18320.16313823064,69961,24,425.23871994018555,-458.3775939941406,462.12738037109375,816.210205078125,0.0,-462.73822021484375,-460.71514892578125,-5.857524871826172
24,/Users/cjpark/Desktop/ucla_courses/cs260r/assignment4/data/td3_agent_single_v7/td3,163,-18709.292177848816,72961,25,445.6038658618927,-459.9820861816406,455.52020263671875,1268.4146728515625,0.0,-457.4567565917969,-457.53131103515625,-5.272052764892578
25,/Users/cjpark/Desktop/ucla_courses/cs260r/assignment4/data/td3_agent_single_v7/td3,162,-18547.37584689947,75961,26,466.4320549964905,-538.4096069335938,535.5658569335938,650.9764404296875,0.0,-537.960693359375,-539.1317138671875,-6.443840026855469
26,/Users/cjpark/Desktop/ucla_courses/cs260r/assignment4/data/td3_agent_single_v7/td3,162,-18554.84833070967,78961,27,486.9691951274872,-572.83154296875,572.6485595703125,1444.7298583984375,0.0,-574.9016723632812,-576.829345703125,-6.248470306396484
27,/Users/cjpark/Desktop/ucla_courses/cs260r/assignment4/data/td3_agent_single_v7/td3,161,-18677.837691647666,81890,28,507.2754249572754,-640.0658569335938,,992.06298828125,0.0,-641.567626953125,-640.992919921875,-7.225665092468262
28,/Users/cjpark/Desktop/ucla_courses/cs260r/assignment4/data/td3_agent_single_v7/td3,160,-18585.4712663519,84890,29,528.4680461883545,-524.7084350585938,,708.0899658203125,0.0,-525.5457153320312,-525.6746215820312,-6.639340400695801
29,/Users/cjpark/Desktop/ucla_courses/cs260r/assignment4/data/td3_agent_single_v7/td3,159,-18737.59806814194,87890,30,549.3838291168213,-563.4213256835938,,563.4981689453125,0.0,-561.4129028320312,-560.1873168945312,-6.443558692932129
30,/Users/cjpark/Desktop/ucla_courses/cs260r/assignment4/data/td3_agent_single_v7/td3,159,-18634.751634474724,90890,31,570.0248019695282,-590.31298828125,,1003.1055297851562,0.0,-591.8403930664062,-592.4099731445312,-5.662412166595459
31,/Users/cjpark/Desktop/ucla_courses/cs260r/assignment4/data/td3_agent_single_v7/td3,159,-18702.380529016256,93890,32,590.4138870239258,-490.73297119140625,,908.745849609375,0.0,-488.26080322265625,-488.8144226074219,-6.638825416564941
32,/Users/cjpark/Desktop/ucla_courses/cs260r/assignment4/data/td3_agent_single_v7/td3,158,-18738.630818627098,96689,33,609.389543056488,-611.2967529296875,610.4677734375,674.6800537109375,0.0,-611.8116455078125,-611.2875366210938,-5.077420234680176
33,/Users/cjpark/Desktop/ucla_courses/cs260r/assignment4/data/td3_agent_single_v7/td3,158,-18706.59864849203,99689,34,629.6404559612274,-640.8834228515625,639.4825439453125,670.1182861328125,0.0,-641.1903076171875,-643.6803588867188,-7.029525279998779
34,/Users/cjpark/Desktop/ucla_courses/cs260r/assignment4/data/td3_agent_single_v7/td3,157,-19079.22989605495,102689,35,650.9324779510498,-540.61865234375,538.1278076171875,687.0590209960938,0.0,-539.3514404296875,-536.6312255859375,-6.248939514160156
35,/Users/cjpark/Desktop/ucla_courses/cs260r/assignment4/data/td3_agent_single_v7/td3,157,-18924.246294524935,105689,36,671.2904689311981,-671.8504638671875,670.50927734375,902.929931640625,0.0,-673.6322021484375,-674.3529052734375,-6.8348069190979
36,/Users/cjpark/Desktop/ucla_courses/cs260r/assignment4/data/td3_agent_single_v7/td3,157,-18935.714812613824,108455,37,690.7413640022278,-735.3612670898438,733.4047241210938,840.5050048828125,0.0,-735.1889038085938,-735.5880737304688,-7.224885940551758
37,/Users/cjpark/Desktop/ucla_courses/cs260r/assignment4/data/td3_agent_single_v7/td3,156,-18849.24189868726,111455,38,711.0031909942627,-639.5115356445312,636.3992919921875,801.9542846679688,0.0,-639.2039794921875,-640.7316284179688,-5.27208948135376
38,/Users/cjpark/Desktop/ucla_courses/cs260r/assignment4/data/td3_agent_single_v7/td3,156,-18815.910430052343,114455,39,731.4754281044006,-671.6524658203125,669.87939453125,931.8116455078125,0.0,-672.153564453125,-670.903076171875,-7.225860118865967
39,/Users/cjpark/Desktop/ucla_courses/cs260r/assignment4/data/td3_agent_single_v7/td3,156,-18765.497389268876,117455,40,752.2401759624481,-608.9889526367188,609.7496948242188,601.1737060546875,0.0,-611.27001953125,-611.1904907226562,-4.686686992645264
40,/Users/cjpark/Desktop/ucla_courses/cs260r/assignment4/data/td3_agent_single_v7/td3,155,-18663.892570891032,120455,41,773.5309519767761,-617.9119262695312,616.2578735351562,1464.7705078125,0.0,-616.014404296875,-615.2080688476562,-6.638986587524414
41,/Users/cjpark/Desktop/ucla_courses/cs260r/assignment4/data/td3_agent_single_v7/td3,155,-18704.01238225755,123455,42,794.1632850170135,-648.7093505859375,646.868408203125,709.8792724609375,0.0,-648.8078002929688,-649.7726440429688,-6.053460121154785
42,/Users/cjpark/Desktop/ucla_courses/cs260r/assignment4/data/td3_agent_single_v7/td3,155,-18702.72547256115,126455,43,815.3589010238647,-573.7056884765625,570.9439697265625,947.5250244140625,0.0,-571.6627197265625,-571.47509765625,-5.076709270477295
43,/Users/cjpark/Desktop/ucla_courses/cs260r/assignment4/data/td3_agent_single_v7/td3,154,-18735.60003061728,129455,44,836.8627460002899,-647.7713012695312,645.842041015625,1078.16796875,0.0,-645.9898681640625,-646.8917236328125,-7.225710868835449
