cjunkin/reinforcement-learning/ppo-td3-cartpole/MetaDrive-Tut-1Env-v0/td3/progress.csv
,log_dir,frame_per_second,episode_reward,total_steps,total_episodes,total_time,target_q,actor_loss,critic_loss,success_rate,current_q1,current_q2,reward
0,MetaDrive-Tut-1Env-v0,761,11.20776427173466,2001,2,2.6261110305786133,,,,0.0,,,
1,MetaDrive-Tut-1Env-v0,731,11.551906566206355,3002,3,4.105976104736328,,,,0.0,,,
2,MetaDrive-Tut-1Env-v0,720,11.957990499117498,4003,4,5.555009126663208,,,,0.0,,,
3,MetaDrive-Tut-1Env-v0,720,12.179532535677305,5004,5,6.9493701457977295,,,,0.0,,,
4,MetaDrive-Tut-1Env-v0,717,11.104996938525417,6751,7,9.40428900718689,,,,0.0,,,
5,MetaDrive-Tut-1Env-v0,720,10.343821191949576,7740,8,10.742704153060913,,,,0.0,,,
6,MetaDrive-Tut-1Env-v0,724,10.488401939453412,8741,9,12.067214250564575,,,,0.0,,,
7,MetaDrive-Tut-1Env-v0,719,10.636581102564596,9742,10,13.53414511680603,,,,0.0,,,
8,MetaDrive-Tut-1Env-v0,707,10.855497686593194,10065,11,14.225669145584106,0.014027263969182968,-0.03184680640697479,0.0023889350704848766,0.0,0.016619252040982246,0.013820205815136433,0.013251655735075474
9,MetaDrive-Tut-1Env-v0,527,-0.17073587759817566,11002,57,20.86267113685608,0.07524192333221436,,0.01650572568178177,0.0,0.03544900193810463,0.03132285922765732,0.025011533871293068
10,MetaDrive-Tut-1Env-v0,437,-0.6098079382562344,12021,67,27.4897940158844,0.05910269170999527,-0.14226436614990234,0.39566951990127563,0.0,0.10660021752119064,0.1306319683790207,-0.020576128736138344
11,MetaDrive-Tut-1Env-v0,389,-1.211151024672654,13010,86,33.43960404396057,0.11948702484369278,,0.21107277274131775,0.0,0.11725166440010071,0.10844412446022034,-0.016304142773151398
12,MetaDrive-Tut-1Env-v0,360,-1.1724186036633035,14011,87,38.84325909614563,0.20043599605560303,-0.27639442682266235,0.25234121084213257,0.0,0.23972982168197632,0.21197959780693054,-0.01500731986016035
13,MetaDrive-Tut-1Env-v0,339,-1.1335210998929415,15012,88,44.212024211883545,0.18474629521369934,,0.12280172854661942,0.0,0.1612292230129242,0.1704864352941513,-0.024485858157277107
14,MetaDrive-Tut-1Env-v0,322,-1.0974513751857942,16013,89,49.642691135406494,0.21932484209537506,-0.25545239448547363,0.06831015646457672,0.0,0.19364428520202637,0.17369917035102844,-0.038195978850126266
15,MetaDrive-Tut-1Env-v0,308,-1.064225481279018,17014,90,55.102452993392944,0.2613431513309479,,0.022495640441775322,0.0,0.23992320895195007,0.24253487586975098,0.016045384109020233
16,MetaDrive-Tut-1Env-v0,296,-1.0303196716682355,18015,91,60.77429509162903,0.3251774311065674,-0.3598201870918274,0.006842656992375851,0.0,0.3520665168762207,0.3385169804096222,0.019991038367152214
17,MetaDrive-Tut-1Env-v0,287,-0.9980531981467501,19016,92,66.14059019088745,0.2231450229883194,,0.013770765624940395,0.0,0.20573332905769348,0.2019706666469574,0.016965074464678764
18,MetaDrive-Tut-1Env-v0,279,-0.9671950399020812,20017,93,71.52971315383911,0.31342148780822754,-0.33536332845687866,0.008306046947836876,0.0,0.2951749563217163,0.312997043132782,-0.0027655228041112423
19,MetaDrive-Tut-1Env-v0,273,-0.9383890771768414,21018,94,76.94411325454712,0.3391467034816742,,0.012107926420867443,0.0,0.2957637906074524,0.29883885383605957,0.014270291663706303
20,MetaDrive-Tut-1Env-v0,266,-0.9081474728058297,22019,95,82.52096724510193,0.13256289064884186,-0.1551821231842041,0.007066919002681971,0.0,0.11370484530925751,0.12848971784114838,0.012722883373498917
21,MetaDrive-Tut-1Env-v0,261,-0.8786498782221418,23020,96,87.93456411361694,0.10153913497924805,,0.30012941360473633,0.0,0.08153997361660004,0.08713696897029877,-0.06272289156913757
22,MetaDrive-Tut-1Env-v0,257,-0.8534112334331325,24021,97,93.39284205436707,0.05711090937256813,-0.07157242298126221,0.004787222016602755,0.0,0.09051842242479324,0.05391760915517807,0.005826503969728947
23,MetaDrive-Tut-1Env-v0,253,-0.8225016996338201,25022,98,98.76079726219177,0.1177157610654831,,0.022329341620206833,0.0,0.13511745631694794,0.11447569727897644,0.01442792173475027
24,MetaDrive-Tut-1Env-v0,249,-0.793234331060847,26023,99,104.14693713188171,0.14208510518074036,-0.14129425585269928,0.03286075219511986,0.0,0.18699981272220612,0.1393885314464569,-0.008831828832626343
25,MetaDrive-Tut-1Env-v0,246,-0.7626607598533167,27024,100,109.56142616271973,0.12283812463283539,,0.07838413119316101,0.0,0.13514745235443115,0.1439312994480133,-0.007063630037009716
26,MetaDrive-Tut-1Env-v0,243,-0.8506667733481342,28025,101,114.96408605575562,0.13208463788032532,-0.12675416469573975,0.003304337151348591,0.0,0.10737727582454681,0.1113383024930954,0.010509198531508446
27,MetaDrive-Tut-1Env-v0,241,-0.9419608550588039,29026,102,120.36654424667358,0.17204783856868744,,0.324321448802948,0.0,0.20050165057182312,0.19086167216300964,-0.02877398580312729
28,MetaDrive-Tut-1Env-v0,238,-1.0407591865216899,30027,103,125.85909819602966,0.14573875069618225,-0.17535951733589172,0.003875118214637041,0.0,0.14020369946956635,0.15966898202896118,0.009768694639205933
29,MetaDrive-Tut-1Env-v0,236,-1.1495446494029067,31028,104,131.2860221862793,0.27483028173446655,,0.14256298542022705,0.0,0.3053513169288635,0.2851836085319519,-0.013676266185939312
30,MetaDrive-Tut-1Env-v0,232,-1.2298873382298587,32073,146,138.1224730014801,0.21622200310230255,-0.2122909426689148,0.013280214741826057,0.0,0.18518231809139252,0.19192402064800262,0.009395727887749672
31,MetaDrive-Tut-1Env-v0,229,0.35843600260736375,33033,161,144.0901141166687,0.3574517071247101,-0.39688563346862793,0.1829904019832611,0.0,0.33483418822288513,0.36063092947006226,-0.0006204955279827118
32,MetaDrive-Tut-1Env-v0,226,1.9187025697678712,34072,176,150.46169328689575,0.5113260746002197,,0.247952401638031,0.0,0.5078807473182678,0.5105756521224976,-0.012340489774942398
33,MetaDrive-Tut-1Env-v0,223,3.6659142959752034,35042,191,156.68414425849915,0.6252891421318054,,0.2833368182182312,0.0,0.705058217048645,0.7166452407836914,-0.003723232075572014
34,MetaDrive-Tut-1Env-v0,220,5.254121480769803,36075,207,163.24539017677307,0.6938053369522095,-0.8003151416778564,0.8402478694915771,0.0,0.7914718389511108,0.7804310917854309,-0.03324665501713753
35,MetaDrive-Tut-1Env-v0,218,7.726081889583058,37026,222,169.27716517448425,0.786973237991333,,0.07666698843240738,0.0,0.7544032335281372,0.7779434323310852,0.0311367716640234
36,MetaDrive-Tut-1Env-v0,216,9.834389719329874,38008,238,175.66434407234192,0.8520190715789795,,0.0619991309940815,0.0,0.8365858197212219,0.8289085626602173,0.01794365979731083
37,MetaDrive-Tut-1Env-v0,214,11.043847885064377,39049,256,182.38980507850647,1.0094417333602905,-1.0767898559570312,0.8103493452072144,0.0,1.0073596239089966,1.004309892654419,0.0034074531868100166
38,MetaDrive-Tut-1Env-v0,212,12.234238230427064,40030,272,188.73246717453003,1.4356777667999268,,0.0650530755519867,0.0,1.4087975025177002,1.3998162746429443,0.05746575444936752
39,MetaDrive-Tut-1Env-v0,210,13.259251706152027,41012,288,195.13859009742737,1.7273476123809814,,0.3851631283760071,0.0,1.6743354797363281,1.6160659790039062,0.05223920941352844
40,MetaDrive-Tut-1Env-v0,208,14.374597110593347,42065,305,201.92541217803955,2.002591609954834,-2.053971290588379,0.0752672404050827,0.0,1.9475843906402588,1.9714162349700928,0.07382763922214508
41,MetaDrive-Tut-1Env-v0,206,14.941370403537722,43017,320,208.06144905090332,2.2242958545684814,-2.323002338409424,0.48782238364219666,0.0,2.253425121307373,2.205287456512451,0.06698526442050934
42,MetaDrive-Tut-1Env-v0,205,15.51375587850467,44057,336,214.69331812858582,2.4354400634765625,-2.6101696491241455,0.7456989288330078,0.0,2.458777666091919,2.4898524284362793,0.06358266621828079
43,MetaDrive-Tut-1Env-v0,203,16.06257837781823,45013,352,220.83580422401428,2.769296646118164,-2.7933123111724854,0.13351665437221527,0.0,2.7048492431640625,2.670292377471924,0.065263532102108
44,MetaDrive-Tut-1Env-v0,202,17.286591022910333,46061,367,227.6135971546173,2.7643771171569824,-2.9396474361419678,0.2380685657262802,0.0,2.747798442840576,2.73573899269104,0.07575584948062897
45,MetaDrive-Tut-1Env-v0,200,18.810242646794464,47120,382,234.49730110168457,3.468226194381714,,1.0351247787475586,0.0,3.497150182723999,3.452270030975342,0.07403655350208282
46,MetaDrive-Tut-1Env-v0,199,19.136265885438334,48079,399,240.69442105293274,3.428739070892334,-3.6363346576690674,1.3590998649597168,0.0,3.502748489379883,3.529646873474121,0.0451509952545166
47,MetaDrive-Tut-1Env-v0,198,19.79543772152557,49019,413,246.7668421268463,3.642550468444824,-3.761209726333618,1.026705265045166,0.0,3.63157057762146,3.6269047260284424,0.0737658143043518
48,MetaDrive-Tut-1Env-v0,197,20.968378385909045,50085,429,253.61628222465515,4.0309319496154785,-4.253100395202637,1.1787142753601074,0.0,4.0247907638549805,4.103214263916016,0.10586080700159073
49,MetaDrive-Tut-1Env-v0,196,23.221143256904114,51036,441,259.92005920410156,4.151315212249756,,0.2331753373146057,0.0,4.041811943054199,4.15039587020874,0.12852664291858673
50,MetaDrive-Tut-1Env-v0,195,24.83708820471172,52047,450,266.6451201438904,4.465672969818115,-4.6676459312438965,3.874437093734741,0.0,4.508439064025879,4.520890235900879,0.07432138919830322
51,MetaDrive-Tut-1Env-v0,194,25.397351474454613,53048,451,273.30972695350647,4.888369083404541,,1.4302119016647339,0.0,4.979513168334961,4.915251731872559,0.0492437407374382
52,MetaDrive-Tut-1Env-v0,193,25.788404848025912,54049,452,279.96537923812866,4.690918445587158,-4.801279067993164,0.18954576551914215,0.0,4.6373443603515625,4.669277191162109,0.15152622759342194
53,MetaDrive-Tut-1Env-v0,191,26.752246478230255,55358,458,288.6816020011902,5.500328063964844,,0.26053714752197266,0.0,5.517217636108398,5.451956748962402,0.15178488194942474
54,MetaDrive-Tut-1Env-v0,190,28.12119949195527,56859,466,298.6399862766266,5.65740966796875,-5.98544979095459,0.36231690645217896,0.0,5.744890213012695,5.753593444824219,0.12112430483102798
55,MetaDrive-Tut-1Env-v0,190,28.35431659844975,57032,468,299.78871393203735,5.276386737823486,,3.5383200645446777,0.0,5.422015190124512,5.327683925628662,0.007333492860198021
56,MetaDrive-Tut-1Env-v0,189,29.257154100396633,58367,473,308.6388351917267,6.101956367492676,-6.3540120124816895,0.9192337989807129,0.0,6.169208526611328,6.257751941680908,0.1490645408630371
57,MetaDrive-Tut-1Env-v0,188,30.832582218492245,59036,479,313.0843813419342,6.15011739730835,,1.0714917182922363,0.0,6.147139549255371,6.086685657501221,0.14370648562908173
58,MetaDrive-Tut-1Env-v0,187,31.973510206286846,60464,486,322.5766489505768,6.123456954956055,,0.2936587929725647,0.0,6.112271308898926,6.140223503112793,0.12192806601524353
59,MetaDrive-Tut-1Env-v0,186,33.09928356942173,61616,489,330.2912321090698,6.631089687347412,,0.2949982285499573,0.0,6.561378002166748,6.540835857391357,0.11069042980670929
60,MetaDrive-Tut-1Env-v0,186,34.77002821405751,62003,494,332.8318169116974,6.3421950340271,-6.443819999694824,0.39683404564857483,0.0,6.11448335647583,6.193447589874268,0.11251790076494217
61,MetaDrive-Tut-1Env-v0,185,39.32183124021688,63024,506,339.5837981700897,7.021121025085449,,0.2203553020954132,0.0,7.146507263183594,7.060426235198975,0.17244042456150055
62,MetaDrive-Tut-1Env-v0,184,42.33413582262351,64045,519,346.3673551082611,6.738532066345215,-7.069625377655029,2.6090757846832275,0.0,6.836335182189941,6.7292866706848145,0.023029547184705734
63,MetaDrive-Tut-1Env-v0,184,42.92045212982804,65125,521,353.5885181427002,7.074390411376953,-7.225318431854248,0.42957043647766113,0.0,6.933114051818848,6.99055290222168,0.10747279226779938
64,MetaDrive-Tut-1Env-v0,183,46.40260340817852,66080,532,359.930006980896,7.310507774353027,,4.396293640136719,0.0,7.397388935089111,7.536874771118164,0.11255642771720886
65,MetaDrive-Tut-1Env-v0,183,48.450007486877254,67060,543,366.2141330242157,7.91804313659668,,4.261772155761719,0.0,8.079305648803711,7.959981918334961,0.1297248750925064
66,MetaDrive-Tut-1Env-v0,182,50.38689211876123,68079,556,372.96520233154297,8.202844619750977,-8.450102806091309,4.842907905578613,0.0,8.209589004516602,8.13441276550293,0.10900983959436417
67,MetaDrive-Tut-1Env-v0,181,52.20641424411883,69037,568,379.3477201461792,8.829062461853027,-9.002225875854492,2.336479663848877,0.0,8.761935234069824,8.807909965515137,0.18004955351352692
68,MetaDrive-Tut-1Env-v0,181,53.356215500358275,70059,581,386.58683800697327,9.38498306274414,-9.724248886108398,3.072035312652588,0.0,9.405835151672363,9.358948707580566,0.1690910905599594
69,MetaDrive-Tut-1Env-v0,180,54.187938621216375,71054,594,393.4904682636261,8.608983039855957,,3.603567600250244,0.0,8.695802688598633,8.674476623535156,0.16136761009693146
70,MetaDrive-Tut-1Env-v0,179,53.289604291474454,72020,607,400.2313690185547,9.419267654418945,,1.2006747722625732,0.0,9.664525985717773,9.643857955932617,0.10386210680007935
71,MetaDrive-Tut-1Env-v0,179,53.84730519732715,73020,620,407.1491551399231,10.279132843017578,,0.5281265377998352,0.0,10.424378395080566,10.363576889038086,0.1991172879934311
72,MetaDrive-Tut-1Env-v0,178,53.905239886124676,74050,633,413.9867100715637,10.762094497680664,,1.638677716255188,0.0,10.718204498291016,10.693876266479492,0.13652215898036957
73,MetaDrive-Tut-1Env-v0,178,54.7003908510747,75060,646,420.73180317878723,10.671856880187988,,0.9899982810020447,0.0,10.63048267364502,10.59426212310791,0.14016039669513702
74,MetaDrive-Tut-1Env-v0,177,54.99713715989722,76012,658,427.1050250530243,10.693511009216309,,0.8752316236495972,0.0,10.709457397460938,10.61433219909668,0.1779041737318039
75,MetaDrive-Tut-1Env-v0,177,55.02802540871035,77004,671,433.653861284256,11.12453556060791,,7.166373252868652,0.0,11.307149887084961,11.107942581176758,0.1523030698299408
76,MetaDrive-Tut-1Env-v0,177,62.057591066453185,78069,680,440.74874806404114,12.106871604919434,-12.647903442382812,2.032942295074463,0.0,12.308574676513672,12.242266654968262,0.17486965656280518
77,MetaDrive-Tut-1Env-v0,176,70.61896328924699,79027,687,447.1519763469696,13.267936706542969,-13.601099014282227,2.2677197456359863,0.0,12.993717193603516,13.184425354003906,0.2903595268726349
78,MetaDrive-Tut-1Env-v0,176,81.41464768107096,80146,694,454.6740491390228,12.94436264038086,,6.9088969230651855,0.0,12.829463005065918,12.91087532043457,0.2784998416900635
79,MetaDrive-Tut-1Env-v0,175,92.20316345329958,81187,700,461.71803426742554,14.93541431427002,-15.03083324432373,8.73723030090332,0.0,14.674273490905762,14.604745864868164,0.3193015158176422
80,MetaDrive-Tut-1Env-v0,175,99.37765752289026,82032,706,467.3161699771881,12.29682445526123,,2.417220115661621,0.0,11.89813232421875,12.06297492980957,0.24293209612369537
81,MetaDrive-Tut-1Env-v0,175,108.69264437865742,83028,712,474.0268840789795,15.270543098449707,,2.6469130516052246,0.0,15.196744918823242,15.17224407196045,0.3291299045085907
82,MetaDrive-Tut-1Env-v0,175,108.22064056933026,84029,713,479.4365539550781,15.986678123474121,-16.348247528076172,0.9768350124359131,0.0,15.84160327911377,15.939352989196777,0.33107656240463257
83,MetaDrive-Tut-1Env-v0,174,117.15900688011747,85096,720,486.5649321079254,17.50305938720703,,6.046116828918457,0.0,17.711139678955078,17.66980743408203,0.347237229347229
84,MetaDrive-Tut-1Env-v0,174,126.9817603524147,86104,726,493.3708300590515,16.867919921875,,1.4603381156921387,0.0,17.14081382751465,16.886329650878906,0.3139111399650574
85,MetaDrive-Tut-1Env-v0,174,137.4557906114985,87185,732,500.70447516441345,16.832134246826172,-17.347063064575195,5.912607669830322,0.0,17.02030372619629,16.8540096282959,0.28466591238975525
86,MetaDrive-Tut-1Env-v0,173,146.22536050003856,88050,737,506.59567308425903,18.38888168334961,,3.636458396911621,0.0,18.696834564208984,18.871238708496094,0.35403600335121155
87,MetaDrive-Tut-1Env-v0,173,156.83561455938516,89118,743,513.8181970119476,19.478116989135742,,14.29835319519043,0.0,19.6887264251709,19.56153106689453,0.2726249098777771
88,MetaDrive-Tut-1Env-v0,173,166.7256376805222,90134,749,520.6559422016144,21.591466903686523,,7.753972053527832,0.0,21.378332138061523,21.473657608032227,0.3147662878036499
89,MetaDrive-Tut-1Env-v0,172,175.7051435126377,91111,755,527.2363080978394,23.413063049316406,-24.101505279541016,5.41420841217041,0.0,23.563108444213867,23.29993438720703,0.4118361175060272
90,MetaDrive-Tut-1Env-v0,172,186.33299348385003,92153,761,534.2571849822998,22.176965713500977,-23.534008026123047,8.15467357635498,0.0,22.253421783447266,22.3740234375,0.3110903203487396
91,MetaDrive-Tut-1Env-v0,172,196.21615755089135,93160,767,541.0587391853333,24.285707473754883,,1.6710808277130127,0.0,24.06275749206543,24.232650756835938,0.3580082058906555
92,MetaDrive-Tut-1Env-v0,171,203.69484795366748,94137,773,547.6191532611847,28.204212188720703,-29.636764526367188,9.159107208251953,0.0,28.713109970092773,28.588146209716797,0.42303305864334106
93,MetaDrive-Tut-1Env-v0,171,210.85779145250712,95069,778,553.88818526268,28.283567428588867,-29.275718688964844,12.927732467651367,0.0,28.43993377685547,28.30113983154297,0.41130897402763367
94,MetaDrive-Tut-1Env-v0,171,216.3374092766424,96097,784,560.7911972999573,28.885520935058594,-29.91543960571289,6.938813209533691,0.0,28.946651458740234,29.163869857788086,0.42781150341033936
95,MetaDrive-Tut-1Env-v0,171,219.1637659905487,97162,790,567.9689552783966,32.95442199707031,,6.738704681396484,0.0,32.49190139770508,32.97039031982422,0.4794686436653137
96,MetaDrive-Tut-1Env-v0,170,221.0083601668609,98062,795,573.9958362579346,34.20664596557617,,10.713438034057617,0.0,34.27949142456055,34.266639709472656,0.4890329837799072
97,MetaDrive-Tut-1Env-v0,170,223.59512886124512,99104,801,581.0387141704559,35.95476150512695,,21.779159545898438,0.0,36.11283874511719,35.828277587890625,0.48631551861763
98,MetaDrive-Tut-1Env-v0,170,226.8202751145299,100154,807,588.1199531555176,35.82015609741211,,57.05066680908203,0.0,36.008819580078125,36.27138137817383,0.4239036440849304
99,MetaDrive-Tut-1Env-v0,170,231.1500775160856,101160,813,594.9193432331085,39.00715637207031,,12.895914077758789,0.0,39.087989807128906,38.915138244628906,0.5068719387054443
100,MetaDrive-Tut-1Env-v0,169,234.90698376833262,102018,818,600.6686992645264,39.39886474609375,,4.904693126678467,0.0,39.198333740234375,39.373050689697266,0.45990240573883057
101,MetaDrive-Tut-1Env-v0,169,237.77536803946944,103096,824,608.004152059555,39.234615325927734,,23.14043426513672,0.0,39.357513427734375,39.22935104370117,0.45936524868011475
102,MetaDrive-Tut-1Env-v0,169,238.61923923028525,104091,830,614.6950662136078,40.97820281982422,-42.41337966918945,16.038095474243164,0.0,40.97760772705078,40.89414596557617,0.4456033408641815
103,MetaDrive-Tut-1Env-v0,169,240.0707472475898,105180,836,622.0668699741364,45.01553726196289,,2.3498082160949707,0.0,44.98291015625,44.72239685058594,0.5699151754379272
104,MetaDrive-Tut-1Env-v0,168,239.78925710167724,106155,842,628.5627603530884,42.72603225708008,-44.95378494262695,17.67135238647461,0.0,43.02800369262695,43.61735153198242,0.4518115222454071
105,MetaDrive-Tut-1Env-v0,168,240.29160056418598,107157,848,635.3015379905701,45.39232635498047,-46.99285888671875,6.6403045654296875,0.0,45.147056579589844,45.30877685546875,0.5643617510795593
106,MetaDrive-Tut-1Env-v0,168,239.90948004223307,108112,854,641.6729810237885,46.343231201171875,,19.808879852294922,0.0,46.01999282836914,46.7040901184082,0.5433613061904907
107,MetaDrive-Tut-1Env-v0,168,240.1090711201394,109102,860,648.2947010993958,48.358001708984375,,11.668488502502441,0.0,48.732276916503906,48.537803649902344,0.5181244015693665
108,MetaDrive-Tut-1Env-v0,168,239.67548924469173,110063,866,654.6841189861298,50.297943115234375,-51.69419479370117,48.38995361328125,0.0,50.09052658081055,50.418357849121094,0.5058646202087402
109,MetaDrive-Tut-1Env-v0,167,238.460565384425,111026,872,661.0890500545502,50.09107971191406,,52.402854919433594,0.0,50.22806930541992,50.55078125,0.48227304220199585
110,MetaDrive-Tut-1Env-v0,167,235.3092747197275,112133,879,668.454136133194,50.344051361083984,-53.04005432128906,17.065227508544922,0.0,50.67631912231445,50.886474609375,0.556050181388855
111,MetaDrive-Tut-1Env-v0,167,231.93671993655778,113014,885,674.2514791488647,52.45331573486328,,16.94210433959961,0.0,52.461143493652344,52.38361358642578,0.578893780708313
112,MetaDrive-Tut-1Env-v0,167,227.9982046330996,114092,892,681.3993530273438,55.827030181884766,,37.60978698730469,0.0,55.86910629272461,55.70885467529297,0.5676729679107666
113,MetaDrive-Tut-1Env-v0,167,225.3726226757575,115059,898,687.8572371006012,56.52032470703125,-57.827964782714844,7.613286972045898,0.0,56.26024627685547,56.05794906616211,0.6512086987495422
114,MetaDrive-Tut-1Env-v0,167,220.62174675244535,116112,905,694.8100941181183,56.057762145996094,,13.517929077148438,0.0,56.64605712890625,56.30877685546875,0.5434163212776184
115,MetaDrive-Tut-1Env-v0,166,215.56615502955606,117097,912,701.3035461902618,58.833160400390625,-60.61678695678711,53.188987731933594,0.0,59.084373474121094,59.32936096191406,0.5690979957580566
116,MetaDrive-Tut-1Env-v0,166,209.61771377501034,118100,919,707.9233050346375,61.33232879638672,,3.128455638885498,0.0,61.54695129394531,61.536407470703125,0.610203206539154
117,MetaDrive-Tut-1Env-v0,166,202.93012312925518,119128,926,714.7602660655975,60.04253387451172,,22.46042251586914,0.0,60.15365219116211,59.950225830078125,0.5239301323890686
118,MetaDrive-Tut-1Env-v0,166,198.93221427127733,120005,932,720.5211281776428,63.002227783203125,-64.73485565185547,23.976428985595703,0.0,63.565120697021484,63.635719299316406,0.5967879295349121
119,MetaDrive-Tut-1Env-v0,166,196.30935165106322,121038,938,727.4162020683289,64.44184112548828,,30.376354217529297,0.0,64.43414306640625,64.09901428222656,0.6306286454200745
120,MetaDrive-Tut-1Env-v0,166,197.13902591635733,122002,943,733.8590610027313,62.859073638916016,,48.508949279785156,0.0,62.82518005371094,62.702880859375,0.5276519060134888
121,MetaDrive-Tut-1Env-v0,166,199.99451044943726,123216,949,742.152015209198,65.19784545898438,,47.600067138671875,0.0,65.16485595703125,64.99735260009766,0.5629340410232544
122,MetaDrive-Tut-1Env-v0,165,202.3677625702161,124075,953,748.0317120552063,68.00116729736328,-69.49623107910156,6.619795799255371,0.0,67.55001068115234,67.8747787475586,0.6454065442085266
123,MetaDrive-Tut-1Env-v0,165,204.68662756261506,125147,958,755.4501292705536,67.60021209716797,-69.28341674804688,20.021108627319336,0.0,67.60334777832031,67.42500305175781,0.6660793423652649
124,MetaDrive-Tut-1Env-v0,165,208.69999200695204,126028,962,761.4838221073151,68.02783203125,,9.751954078674316,0.0,68.05081176757812,68.50666809082031,0.6252881288528442
125,MetaDrive-Tut-1Env-v0,165,211.52654656763679,127175,967,769.4658341407776,68.24482727050781,-69.48694610595703,27.040538787841797,0.0,68.0020980834961,68.43962097167969,0.6665459871292114
126,MetaDrive-Tut-1Env-v0,165,214.75046764919614,128065,971,775.6521081924438,69.6340560913086,-70.46025085449219,13.142602920532227,0.0,68.98114013671875,69.49017333984375,0.7207106947898865
127,MetaDrive-Tut-1Env-v0,164,218.62235844995058,129201,976,783.4053661823273,66.14239501953125,-67.86237335205078,11.673048973083496,0.0,65.91178131103516,66.7508773803711,0.6083296537399292
128,MetaDrive-Tut-1Env-v0,164,222.08517168927824,130086,980,789.484766960144,71.0056381225586,,59.37543869018555,0.0,71.32079315185547,71.19075775146484,0.6259695291519165
129,MetaDrive-Tut-1Env-v0,164,227.37806567646155,131199,985,797.0972950458527,66.8497085571289,-68.77204895019531,61.50176239013672,0.0,67.15201568603516,67.37908935546875,0.5826893448829651
130,MetaDrive-Tut-1Env-v0,164,230.36504722878638,132079,989,803.2175543308258,70.37490844726562,-71.50048065185547,13.521465301513672,0.0,70.2490463256836,70.38442993164062,0.5564653277397156
131,MetaDrive-Tut-1Env-v0,164,234.1451190783965,133198,994,811.0318582057953,72.15960693359375,,8.746635437011719,0.0,72.18624877929688,72.05351257324219,0.6840898990631104
132,MetaDrive-Tut-1Env-v0,164,238.74151747715783,134077,998,817.0575590133667,72.13766479492188,-73.71072387695312,6.868585586547852,0.0,72.3385238647461,72.42850494384766,0.6771785616874695
133,MetaDrive-Tut-1Env-v0,163,242.78858789655945,135050,1002,823.8331391811371,71.67644500732422,,53.717437744140625,0.0,71.19293975830078,70.88726806640625,0.5736950635910034
134,MetaDrive-Tut-1Env-v0,163,247.68763981474092,136012,1006,830.4206290245056,71.460693359375,,115.58879852294922,0.0,71.5166244506836,71.87635803222656,0.6501979827880859
135,MetaDrive-Tut-1Env-v0,163,254.0237121894447,137217,1011,838.7536451816559,71.43461608886719,-72.64117431640625,38.57483673095703,0.0,71.4916000366211,70.99359130859375,0.7100869417190552
136,MetaDrive-Tut-1Env-v0,163,259.0732229414349,138201,1015,845.55468916893,73.21160125732422,-75.0108871459961,66.65770721435547,0.0,73.39807891845703,73.5073013305664,0.7058233022689819
137,MetaDrive-Tut-1Env-v0,163,264.1238059386193,139130,1019,852.0795171260834,75.21525573730469,,19.236549377441406,0.0,75.13536834716797,75.28877258300781,0.6835412979125977
138,MetaDrive-Tut-1Env-v0,163,268.8303283446469,140101,1023,858.7160971164703,74.64666748046875,-75.5094223022461,16.275468826293945,0.0,74.24766540527344,73.66446685791016,0.7823564410209656
139,MetaDrive-Tut-1Env-v0,163,273.6123827465837,141073,1027,865.3923761844635,73.83484649658203,-75.21553802490234,27.736371994018555,0.0,73.56356811523438,73.37344360351562,0.7630940079689026
140,MetaDrive-Tut-1Env-v0,162,278.18526650463014,142035,1031,872.0009479522705,73.67388916015625,-75.28195190429688,12.312549591064453,0.0,73.98648834228516,73.66485595703125,0.6405856609344482
141,MetaDrive-Tut-1Env-v0,162,281.9697205420203,143229,1036,880.2530732154846,74.93898010253906,-76.46047973632812,13.881567001342773,0.0,74.90879821777344,74.77981567382812,0.659110426902771
142,MetaDrive-Tut-1Env-v0,162,285.58777249161784,144186,1040,886.8510961532593,76.86219024658203,,13.464893341064453,0.0,76.08413696289062,76.22903442382812,0.7083410024642944
143,MetaDrive-Tut-1Env-v0,162,286.0589241980789,145166,1044,893.6079070568085,76.32917785644531,,27.610416412353516,0.0,76.25718688964844,76.00225830078125,0.7312059998512268
144,MetaDrive-Tut-1Env-v0,162,287.2678918133798,146175,1048,900.5264101028442,75.70127868652344,-77.49988555908203,16.36080551147461,0.0,75.74009704589844,75.62576293945312,0.7125723361968994
145,MetaDrive-Tut-1Env-v0,162,287.0270650979124,147123,1052,907.0367231369019,77.28852844238281,-79.28846740722656,37.12413787841797,0.0,77.55963134765625,78.01421356201172,0.7867627739906311
146,MetaDrive-Tut-1Env-v0,162,286.8991711452632,148085,1056,913.6277551651001,77.148681640625,-78.81279754638672,12.967254638671875,0.0,77.3142318725586,77.62678527832031,0.7846968770027161
147,MetaDrive-Tut-1Env-v0,161,286.5528615559925,149041,1060,920.2085912227631,78.14405822753906,-79.31452941894531,5.463481903076172,0.0,77.91229248046875,78.15451049804688,0.7514802813529968
148,MetaDrive-Tut-1Env-v0,161,286.0239826552842,150167,1065,927.8094661235809,75.62684631347656,-78.23228454589844,35.4347038269043,0.0,76.52667999267578,75.9554672241211,0.5912171602249146
149,MetaDrive-Tut-1Env-v0,161,285.5342821774766,151086,1069,934.0812981128693,75.97479248046875,,53.717437744140625,0.0,75.37657165527344,75.27594757080078,0.6058211326599121
150,MetaDrive-Tut-1Env-v0,161,284.8507459140943,152196,1074,941.6109671592712,77.13261413574219,,35.25627899169922,0.0,77.6343765258789,77.5851058959961,0.7147452235221863
151,MetaDrive-Tut-1Env-v0,161,284.5147272981456,153082,1078,947.6645293235779,78.5572280883789,,117.35047912597656,0.0,79.2096176147461,79.07748413085938,0.7171182632446289
152,MetaDrive-Tut-1Env-v0,161,284.00491572830424,154201,1083,955.3663921356201,80.7049331665039,-81.84561157226562,8.38259506225586,0.0,80.43099975585938,80.47645568847656,0.8249850869178772
153,MetaDrive-Tut-1Env-v0,161,283.27446220982745,155077,1087,961.3846180438995,82.934814453125,-84.5368423461914,23.478878021240234,0.0,82.63973999023438,82.65497589111328,0.8678489327430725
154,MetaDrive-Tut-1Env-v0,161,282.708293040195,156190,1092,969.0102772712708,77.76210021972656,,36.71961212158203,0.0,77.73560333251953,77.5682601928711,0.6507112383842468
155,MetaDrive-Tut-1Env-v0,161,282.2662757949299,157098,1096,975.2508039474487,77.32267761230469,,49.652069091796875,0.0,77.66899108886719,78.0179214477539,0.7198185324668884
156,MetaDrive-Tut-1Env-v0,160,281.6889955283449,158214,1101,982.8940050601959,77.05812072753906,,76.85035705566406,0.0,76.41519927978516,77.14302825927734,0.7430923581123352
157,MetaDrive-Tut-1Env-v0,160,280.6320357070055,159097,1105,988.9660563468933,80.45286560058594,-81.07927703857422,13.753059387207031,0.0,80.36824798583984,79.66458129882812,0.7387911677360535
158,MetaDrive-Tut-1Env-v0,160,279.6638035102428,160187,1110,996.416139125824,76.09870910644531,-78.24459075927734,32.789405822753906,0.0,75.83301544189453,75.9325180053711,0.7012130618095398
159,MetaDrive-Tut-1Env-v0,160,279.2534614310377,161046,1114,1002.3450202941895,78.88988494873047,,35.463134765625,0.0,79.853759765625,80.38127899169922,0.6967219114303589
160,MetaDrive-Tut-1Env-v0,160,280.86969923795226,162064,1117,1009.3388202190399,82.25544738769531,,6.309121131896973,0.01,82.12321472167969,82.11993408203125,0.8776164054870605
161,MetaDrive-Tut-1Env-v0,160,280.44079449401966,163149,1122,1016.8607251644135,79.547119140625,-81.64189147949219,17.690343856811523,0.01,79.53423309326172,80.06114959716797,0.8041562438011169
162,MetaDrive-Tut-1Env-v0,160,279.89854032492366,164005,1126,1022.6829800605774,81.54417419433594,-84.7565689086914,70.2984619140625,0.01,82.78092956542969,82.7352066040039,0.6877127885818481
163,MetaDrive-Tut-1Env-v0,160,279.4615400297046,165095,1131,1030.195415019989,80.18760681152344,-81.92191314697266,17.070247650146484,0.01,80.1534652709961,80.53978729248047,0.7440239191055298
164,MetaDrive-Tut-1Env-v0,160,278.93226325113363,166178,1136,1037.6007552146912,82.3543930053711,,9.151638984680176,0.01,82.3567123413086,82.38031768798828,0.7857864499092102
165,MetaDrive-Tut-1Env-v0,160,278.51034952386675,167057,1140,1043.6346502304077,82.81810760498047,-84.22114562988281,40.84603500366211,0.01,82.55770111083984,82.36019897460938,0.7442919015884399
166,MetaDrive-Tut-1Env-v0,159,280.58757603427756,168272,1144,1052.0060591697693,81.68244934082031,,4.832584381103516,0.02,82.370361328125,81.72038269042969,0.7661416530609131
167,MetaDrive-Tut-1Env-v0,159,282.77408703337983,169040,1146,1057.5022511482239,83.2985610961914,,54.12566375732422,0.03,84.05748748779297,83.8956298828125,0.7405758500099182
168,MetaDrive-Tut-1Env-v0,159,282.47798638187163,170135,1151,1064.9657800197601,82.86642456054688,-84.67389678955078,13.71540355682373,0.03,82.75732421875,82.5654296875,0.7724522352218628
169,MetaDrive-Tut-1Env-v0,159,284.7388478524823,171148,1154,1071.9719321727753,80.46522521972656,,16.79738998413086,0.04,80.58572387695312,80.89625549316406,0.7431631088256836
170,MetaDrive-Tut-1Env-v0,159,287.01351627539594,172154,1157,1078.8423390388489,80.72647857666016,,37.14540100097656,0.05,80.53793334960938,80.75508117675781,0.7187671661376953
171,MetaDrive-Tut-1Env-v0,159,289.30097498218976,173209,1160,1086.0902552604675,81.88296508789062,-83.12445831298828,19.42206573486328,0.06,81.19058990478516,81.08302307128906,0.7804422974586487
172,MetaDrive-Tut-1Env-v0,159,294.0643770775231,174337,1162,1093.857253074646,80.18421173095703,-80.82827758789062,37.2239990234375,0.08,79.24853515625,78.88028717041016,0.8180617094039917
173,MetaDrive-Tut-1Env-v0,159,296.4282686739395,175135,1164,1099.3444542884827,83.46401977539062,-84.62519836425781,4.3326263427734375,0.09,83.9507827758789,83.13419342041016,0.784389078617096
174,MetaDrive-Tut-1Env-v0,159,296.43936329914743,176136,1165,1106.0266449451447,79.87422943115234,,16.14291763305664,0.09,79.94876098632812,80.03689575195312,0.8030813932418823
175,MetaDrive-Tut-1Env-v0,159,301.14524815651106,177194,1167,1113.5087852478027,80.59940338134766,,10.00829792022705,0.11,80.8622055053711,80.78437805175781,0.7641763091087341
176,MetaDrive-Tut-1Env-v0,159,303.5289374371821,178988,1170,1125.642825126648,77.6926040649414,,13.199583053588867,0.12,77.70807647705078,77.47579956054688,0.7531243562698364
177,MetaDrive-Tut-1Env-v0,158,303.60062820288044,179989,1171,1132.088058233261,79.76324462890625,-81.33061218261719,75.5864486694336,0.12,80.25538635253906,80.50213623046875,0.6861884593963623
178,MetaDrive-Tut-1Env-v0,158,305.9654791814653,180555,1172,1136.0436520576477,79.81210327148438,-80.94296264648438,39.224365234375,0.13,79.02398681640625,78.80196380615234,0.6886911392211914
179,MetaDrive-Tut-1Env-v0,158,306.1413285156889,181556,1173,1142.677520275116,77.49344635009766,,6.946837902069092,0.13,78.21177673339844,78.12077331542969,0.7458183765411377
180,MetaDrive-Tut-1Env-v0,158,308.49997711214763,182130,1174,1146.6518261432648,78.44688415527344,,78.64492797851562,0.14,79.35602569580078,79.67498016357422,0.8808205723762512
181,MetaDrive-Tut-1Env-v0,158,308.4577225047498,183131,1175,1153.2879569530487,78.89082336425781,-79.9991455078125,6.578950881958008,0.14,78.71675109863281,79.1569595336914,0.779151439666748
182,MetaDrive-Tut-1Env-v0,158,310.93723174046033,184711,1177,1163.8724973201752,74.67837524414062,-76.50434875488281,35.24834060668945,0.15,75.1717529296875,75.15880584716797,0.6677104234695435
183,MetaDrive-Tut-1Env-v0,158,312.266164508145,185156,1178,1167.1505489349365,75.32525634765625,,11.223749160766602,0.15,73.84848022460938,73.76461029052734,0.7834064364433289
184,MetaDrive-Tut-1Env-v0,158,314.56314025987837,186707,1180,1177.5701749324799,79.81153106689453,-81.23657989501953,9.631397247314453,0.16,79.48313903808594,79.61200714111328,0.8560641407966614
185,MetaDrive-Tut-1Env-v0,158,314.5411276654644,187708,1181,1184.1999781131744,78.68030548095703,,41.35149383544922,0.16,78.72624969482422,78.98786926269531,0.7738189697265625
186,MetaDrive-Tut-1Env-v0,158,316.92066355889733,188253,1182,1187.9723241329193,72.14109802246094,-74.2754898071289,46.403724670410156,0.17,72.6437759399414,72.54901123046875,0.6972082257270813
187,MetaDrive-Tut-1Env-v0,158,321.7690270299033,189532,1185,1196.8611299991608,76.19249725341797,,85.13538360595703,0.19,77.16268157958984,76.96540832519531,0.6324142813682556
188,MetaDrive-Tut-1Env-v0,158,324.11791829264445,190064,1186,1200.5628311634064,77.4553451538086,,22.32419204711914,0.2,78.24932861328125,77.61984252929688,0.7517299056053162
189,MetaDrive-Tut-1Env-v0,158,328.79499171685273,191112,1188,1207.913381099701,74.12577819824219,,58.86775207519531,0.22,74.00826263427734,73.55633544921875,0.619195818901062
190,MetaDrive-Tut-1Env-v0,158,333.5777878159557,192404,1191,1216.827700138092,75.5220947265625,,37.683589935302734,0.24,75.839599609375,75.73487854003906,0.7892069220542908
191,MetaDrive-Tut-1Env-v0,158,338.343801933033,193445,1193,1223.9825091362,79.05555725097656,-80.26687622070312,6.197675704956055,0.26,79.4310302734375,79.19346618652344,0.6738811731338501
192,MetaDrive-Tut-1Env-v0,157,343.0629138874231,194494,1195,1231.2778890132904,76.3628921508789,,37.17251205444336,0.28,76.87688446044922,76.75753021240234,0.7429649233818054
193,MetaDrive-Tut-1Env-v0,157,345.5757996071955,195245,1197,1236.4779272079468,80.48910522460938,-82.07132720947266,15.588086128234863,0.29,80.42778015136719,81.00222778320312,0.7337190508842468
194,MetaDrive-Tut-1Env-v0,157,350.22207985637874,196518,1200,1245.246246099472,73.69960021972656,,7.29666805267334,0.31,73.96521759033203,73.96485900878906,0.7762678861618042
195,MetaDrive-Tut-1Env-v0,157,352.65065753277963,197077,1201,1249.19114112854,77.86134338378906,-79.49594116210938,32.96812438964844,0.32,78.05592346191406,78.53224182128906,0.801533043384552
196,MetaDrive-Tut-1Env-v0,157,355.0783775782199,198025,1204,1255.8567433357239,77.69091796875,-78.92427062988281,23.381772994995117,0.33,77.3459701538086,77.4435806274414,0.844822108745575
197,MetaDrive-Tut-1Env-v0,157,359.8620847287187,199494,1208,1266.1167080402374,75.85444641113281,,12.369482040405273,0.35,74.12568664550781,74.20211791992188,0.7921708226203918
198,MetaDrive-Tut-1Env-v0,157,362.26695074424043,200243,1210,1271.3148982524872,76.70419311523438,-78.54473876953125,5.914868354797363,0.36,76.71100616455078,76.43269348144531,0.6985507011413574
199,MetaDrive-Tut-1Env-v0,157,366.94025448952897,201324,1212,1278.8778359889984,76.65345764160156,,15.72963809967041,0.38,77.10127258300781,77.24981689453125,0.8786826729774475
200,MetaDrive-Tut-1Env-v0,157,367.154926509305,202289,1215,1285.6301109790802,74.88014221191406,-77.08649444580078,60.080230712890625,0.38,75.03160858154297,75.21192169189453,0.7169369459152222
201,MetaDrive-Tut-1Env-v0,157,371.85145839741847,203339,1217,1292.9982919692993,79.47502136230469,-80.26775360107422,8.857178688049316,0.4,79.016357421875,79.35859680175781,0.7910525798797607
202,MetaDrive-Tut-1Env-v0,157,376.6321207082789,204443,1219,1300.6737191677094,76.511962890625,-77.71688842773438,17.197845458984375,0.42,76.85547637939453,76.38719177246094,0.7893365621566772
203,MetaDrive-Tut-1Env-v0,157,381.3336305885279,205526,1221,1308.214021205902,78.8875732421875,,8.707160949707031,0.44,78.74844360351562,78.68521881103516,0.7203496098518372
204,MetaDrive-Tut-1Env-v0,157,383.70768783001745,206059,1222,1311.9230389595032,74.76644897460938,-76.8343276977539,19.11524200439453,0.45,74.47941589355469,74.55362701416016,0.7314988374710083
205,MetaDrive-Tut-1Env-v0,156,388.5972452147744,207171,1224,1319.6270670890808,73.10810852050781,-74.518798828125,29.65415382385254,0.47,72.67286682128906,72.68579864501953,0.6895920634269714
206,MetaDrive-Tut-1Env-v0,156,393.323648880743,208264,1226,1327.1869502067566,77.84872436523438,,8.409591674804688,0.49,77.3735122680664,77.0489730834961,0.7216482758522034
207,MetaDrive-Tut-1Env-v0,156,398.00928197453374,209496,1228,1335.6970582008362,76.69245147705078,,7.597640037536621,0.51,75.30897521972656,75.8203125,0.8122609257698059
208,MetaDrive-Tut-1Env-v0,156,400.4149784352922,210090,1229,1339.8315432071686,75.8006591796875,,76.39633178710938,0.52,75.97615051269531,76.2441635131836,0.7690016031265259
209,MetaDrive-Tut-1Env-v0,156,405.2238543357021,211293,1231,1348.1927502155304,75.85691833496094,-77.90216827392578,11.439264297485352,0.54,76.09832763671875,76.01815032958984,0.8111792802810669
210,MetaDrive-Tut-1Env-v0,156,409.9919611812732,212456,1233,1356.2892861366272,77.88880920410156,,8.082798957824707,0.56,77.43163299560547,77.53484344482422,0.8082329034805298
211,MetaDrive-Tut-1Env-v0,156,412.3222299912946,213062,1234,1360.494924068451,78.52849578857422,,11.140703201293945,0.57,79.72909545898438,79.06987762451172,0.8095458149909973
212,MetaDrive-Tut-1Env-v0,156,417.1350976476104,214168,1236,1368.1251010894775,78.52316284179688,,28.298526763916016,0.59,78.06349182128906,78.07711029052734,0.8132362365722656
213,MetaDrive-Tut-1Env-v0,156,421.84911517491,215253,1238,1375.6352813243866,75.99876403808594,-77.25294494628906,4.734672546386719,0.61,76.49980163574219,76.20980834960938,0.8151600956916809
214,MetaDrive-Tut-1Env-v0,156,426.64127470099197,216353,1240,1383.1718919277191,78.14778900146484,-79.2684097290039,94.90196228027344,0.63,78.13439178466797,78.19766998291016,0.8383087515830994
215,MetaDrive-Tut-1Env-v0,156,431.20583637290986,217439,1242,1390.7135128974915,78.58898162841797,-79.01905059814453,7.0039896965026855,0.65,78.20136260986328,77.85403442382812,0.7909817099571228
216,MetaDrive-Tut-1Env-v0,156,432.5042957352925,218413,1244,1397.5971510410309,78.14873504638672,-79.28675842285156,9.845230102539062,0.65,77.59471130371094,77.35025787353516,0.7798171043395996
217,MetaDrive-Tut-1Env-v0,156,431.55591231643797,219097,1246,1402.381468296051,76.18824005126953,-77.50641632080078,7.376235008239746,0.65,76.3166275024414,76.88214874267578,0.8048670291900635
218,MetaDrive-Tut-1Env-v0,156,436.37762282786457,220197,1248,1410.0254881381989,79.51345825195312,-81.01718139648438,9.677228927612305,0.67,79.12037658691406,78.71343994140625,0.7776851058006287
219,MetaDrive-Tut-1Env-v0,156,441.03169495314546,221284,1250,1417.617403268814,76.6861801147461,,15.113700866699219,0.69,77.074951171875,77.17362976074219,0.7908428311347961
220,MetaDrive-Tut-1Env-v0,156,439.82521092403135,222021,1253,1422.681674003601,78.63282775878906,-80.40266418457031,50.543304443359375,0.7,78.7745132446289,78.9079360961914,0.823554277420044
221,MetaDrive-Tut-1Env-v0,155,442.09603648744,223100,1255,1430.2605240345001,78.48916625976562,,19.967227935791016,0.71,78.10972595214844,77.8133544921875,0.8231101036071777
222,MetaDrive-Tut-1Env-v0,155,444.4867362076759,224225,1257,1438.0265681743622,76.39883422851562,-76.99717712402344,10.093629837036133,0.72,75.40618133544922,75.23131561279297,0.7800139784812927
223,MetaDrive-Tut-1Env-v0,155,445.4309311458219,225462,1260,1446.5498659610748,76.41374206542969,,16.04432487487793,0.73,75.78433227539062,76.11968994140625,0.8359057307243347
224,MetaDrive-Tut-1Env-v0,155,445.427481892044,226024,1261,1450.4046442508698,77.55652618408203,,5.991823673248291,0.73,77.42630004882812,77.927978515625,0.8014456033706665
225,MetaDrive-Tut-1Env-v0,155,447.77338765687557,227134,1263,1458.1391541957855,80.4079818725586,,9.027315139770508,0.74,80.4255599975586,80.67697143554688,0.8495446443557739
226,MetaDrive-Tut-1Env-v0,155,450.07900673781035,228271,1265,1465.9875712394714,81.81318664550781,-82.5231704711914,8.812646865844727,0.75,81.11080169677734,80.93889617919922,0.908756673336029
227,MetaDrive-Tut-1Env-v0,155,450.0849852211213,229395,1267,1473.7879421710968,76.62315368652344,-76.94727325439453,8.026165962219238,0.75,75.90736389160156,75.63446044921875,0.7785362601280212
228,MetaDrive-Tut-1Env-v0,155,452.4146498779155,230554,1269,1481.7417991161346,79.78568267822266,,45.34037780761719,0.76,80.18083190917969,80.16851043701172,0.8168478012084961
229,MetaDrive-Tut-1Env-v0,155,454.7539661266264,231137,1270,1485.783471107483,78.04883575439453,-79.23954772949219,27.132173538208008,0.77,78.29434204101562,77.81263732910156,0.7830636501312256
230,MetaDrive-Tut-1Env-v0,155,457.0791072899254,232271,1272,1493.6371440887451,78.86497497558594,-79.14715576171875,12.647087097167969,0.78,78.014404296875,78.0043716430664,0.8017926216125488
231,MetaDrive-Tut-1Env-v0,155,458.4631774602976,233402,1274,1501.5684170722961,77.94918823242188,,8.402786254882812,0.78,78.0312728881836,78.04615020751953,0.76106858253479
232,MetaDrive-Tut-1Env-v0,155,460.8683023124845,234627,1276,1510.0481431484222,80.27525329589844,-80.84622192382812,14.848175048828125,0.79,79.75923156738281,79.73938751220703,0.8212488889694214
233,MetaDrive-Tut-1Env-v0,155,463.133692891676,235236,1277,1514.234931230545,79.36441802978516,,67.55361938476562,0.8,80.4449691772461,80.41392517089844,0.8031626343727112
234,MetaDrive-Tut-1Env-v0,155,464.1657503942601,236561,1279,1523.133031129837,80.65675354003906,-80.83120727539062,11.586714744567871,0.81,79.43533325195312,79.8035659790039,0.8674620389938354
235,MetaDrive-Tut-1Env-v0,155,465.56685628257696,237287,1281,1528.0581650733948,82.09333801269531,-83.00926208496094,10.384946823120117,0.82,81.49394226074219,81.58091735839844,0.7745551466941833
236,MetaDrive-Tut-1Env-v0,155,464.24785212772565,238553,1284,1536.6830389499664,77.85059356689453,-79.50523376464844,28.237079620361328,0.82,78.05421447753906,77.88432312011719,0.758537769317627
237,MetaDrive-Tut-1Env-v0,155,463.36091043259216,239013,1285,1539.9784491062164,82.07376098632812,-82.9273681640625,10.091642379760742,0.81,81.75528717041016,82.04385375976562,0.7675007581710815
238,MetaDrive-Tut-1Env-v0,155,463.42683495202925,240169,1287,1547.9425473213196,80.47185516357422,-80.9295654296875,43.07780075073242,0.81,80.38629913330078,80.41642761230469,0.7731528282165527
239,MetaDrive-Tut-1Env-v0,155,465.8319491179254,241320,1289,1555.950599193573,78.25941467285156,,20.982280731201172,0.82,77.56010437011719,77.39087677001953,0.8512462973594666
240,MetaDrive-Tut-1Env-v0,155,465.90570031823023,242452,1291,1563.7306010723114,81.0594482421875,,50.29801559448242,0.82,81.24325561523438,80.83869934082031,0.7365142703056335
241,MetaDrive-Tut-1Env-v0,155,465.9161298210513,243040,1292,1567.738319158554,80.45548248291016,,31.441675186157227,0.82,81.00623321533203,81.10791015625,0.7724466919898987
242,MetaDrive-Tut-1Env-v0,154,465.93289279498146,244207,1294,1575.7000832557678,78.87713623046875,-80.41128540039062,20.69249725341797,0.82,79.19884490966797,79.64021301269531,0.7899667024612427
243,MetaDrive-Tut-1Env-v0,154,468.2684825164233,245349,1296,1583.5602853298187,80.32276153564453,-81.45954132080078,9.87711238861084,0.83,80.74557495117188,80.82341766357422,0.758282482624054
244,MetaDrive-Tut-1Env-v0,154,468.3140832491248,246478,1298,1591.3317971229553,80.07815551757812,,8.834415435791016,0.83,81.12747192382812,81.3553466796875,0.8045515418052673
245,MetaDrive-Tut-1Env-v0,154,470.69801159593777,247058,1299,1595.3077671527863,81.6212158203125,,15.887660026550293,0.84,80.85979461669922,80.99813079833984,0.8632106781005859
246,MetaDrive-Tut-1Env-v0,154,469.65801455599365,248324,1302,1604.0248551368713,78.23682403564453,,8.033437728881836,0.84,79.09895324707031,79.00396728515625,0.8007645606994629
247,MetaDrive-Tut-1Env-v0,154,471.9992872934856,249457,1304,1611.8295590877533,79.03916931152344,-81.40939331054688,19.64295196533203,0.85,79.68592071533203,79.59769439697266,0.7814944386482239
248,MetaDrive-Tut-1Env-v0,154,474.4348270545745,250030,1305,1615.7383921146393,81.86131286621094,,23.17462921142578,0.86,81.77509307861328,81.39332580566406,0.847667932510376
249,MetaDrive-Tut-1Env-v0,154,476.86849133855344,251170,1307,1623.5680940151215,78.38925170898438,,28.21550941467285,0.87,77.68690490722656,77.89229583740234,0.8348309993743896
250,MetaDrive-Tut-1Env-v0,154,479.25240805635474,252287,1309,1631.2365009784698,81.51251220703125,-82.3074951171875,15.376885414123535,0.88,81.4984130859375,81.63594818115234,0.8763951659202576
251,MetaDrive-Tut-1Env-v0,154,479.16890051602763,253411,1311,1638.99196600914,80.52664947509766,-80.35273742675781,12.376251220703125,0.88,79.58155059814453,79.23150634765625,0.8034460544586182
252,MetaDrive-Tut-1Env-v0,154,481.4197555435946,254502,1313,1646.547338962555,79.60993194580078,,27.526050567626953,0.89,80.19005584716797,80.09123229980469,0.8074254393577576
253,MetaDrive-Tut-1Env-v0,154,483.7195046451844,255068,1314,1650.4615762233734,81.37389373779297,,70.03291320800781,0.9,82.02096557617188,81.84078979492188,0.8536821007728577
254,MetaDrive-Tut-1Env-v0,154,483.71791636982823,256188,1316,1658.1422169208527,77.35868072509766,,7.69721794128418,0.9,77.28092193603516,77.40077209472656,0.8341445922851562
255,MetaDrive-Tut-1Env-v0,154,483.7080771876449,257307,1318,1665.8303232192993,77.87423706054688,-78.9384536743164,44.38111877441406,0.9,78.58273315429688,79.02313995361328,0.7785109281539917
256,MetaDrive-Tut-1Env-v0,154,483.6962655362149,258428,1320,1673.421970129013,80.15929412841797,,10.641876220703125,0.9,79.97256469726562,80.19364929199219,0.8108754754066467
257,MetaDrive-Tut-1Env-v0,154,483.6917614595142,259528,1322,1680.9256670475006,79.06014251708984,,14.992899894714355,0.9,78.5816650390625,78.48712921142578,0.8204458355903625
258,MetaDrive-Tut-1Env-v0,154,483.67728621386124,260082,1323,1684.7320551872253,80.74382019042969,,7.387986183166504,0.9,80.20962524414062,80.48809051513672,0.8513875007629395
259,MetaDrive-Tut-1Env-v0,154,483.61398811888773,261171,1325,1692.2660763263702,78.96824645996094,-79.81507110595703,32.08086395263672,0.9,78.70472717285156,78.62327575683594,0.7448537349700928
260,MetaDrive-Tut-1Env-v0,154,483.58751729819124,262291,1327,1700.0055191516876,77.70858764648438,-78.57696533203125,27.387800216674805,0.9,77.59880065917969,77.2201156616211,0.7706806659698486
261,MetaDrive-Tut-1Env-v0,154,483.5916509925997,263411,1329,1707.7366881370544,78.59081268310547,-79.3361587524414,10.297662734985352,0.9,78.35018920898438,78.70529174804688,0.8602919578552246
262,MetaDrive-Tut-1Env-v0,154,483.5404582902145,264513,1331,1715.376923084259,81.16034698486328,-81.39250183105469,7.135918617248535,0.9,80.92515563964844,80.78181457519531,0.8369532227516174
263,MetaDrive-Tut-1Env-v0,154,483.5287545304846,265065,1332,1719.180792093277,78.24752807617188,-80.07315826416016,18.88185691833496,0.9,77.95195007324219,78.41661071777344,0.797071635723114
264,MetaDrive-Tut-1Env-v0,154,482.70148477769857,266077,1334,1726.3620691299438,80.29248809814453,-80.86847686767578,10.054590225219727,0.89,79.38088989257812,79.66495513916016,0.7892230749130249
265,MetaDrive-Tut-1Env-v0,154,482.68471091043625,267170,1336,1733.950361251831,78.59358215332031,,13.010814666748047,0.89,78.5951156616211,78.63550567626953,0.8605767488479614
266,MetaDrive-Tut-1Env-v0,154,482.67560683385216,268282,1338,1741.6130239963531,78.40049743652344,,17.645017623901367,0.89,78.81578063964844,79.05292510986328,0.8061720728874207
267,MetaDrive-Tut-1Env-v0,154,476.2825794546294,269135,1341,1747.4721012115479,78.73774719238281,-78.73234558105469,12.508487701416016,0.87,77.75492858886719,77.39338684082031,0.7649720907211304
268,MetaDrive-Tut-1Env-v0,153,477.3126197309194,270258,1343,1755.2132632732391,82.14994049072266,,46.91896057128906,0.88,82.50851440429688,82.58785247802734,0.8630699515342712
269,MetaDrive-Tut-1Env-v0,153,477.3373671562606,271345,1345,1762.757072210312,76.65586853027344,-78.40213775634766,22.083890914916992,0.88,76.93144226074219,76.95953369140625,0.8349897265434265
270,MetaDrive-Tut-1Env-v0,153,480.7179255585857,272433,1347,1770.3081331253052,79.89405822753906,-81.7977066040039,10.249702453613281,0.89,80.72413635253906,80.82405090332031,0.8789281249046326
271,MetaDrive-Tut-1Env-v0,153,480.7203416995151,273002,1348,1774.214119195938,77.18531799316406,,30.89112663269043,0.89,77.6417007446289,77.63102722167969,0.8044345378875732
272,MetaDrive-Tut-1Env-v0,153,480.7978184019455,274089,1350,1781.8327312469482,79.16651916503906,-79.31861114501953,12.493663787841797,0.89,78.53182983398438,78.7098617553711,0.8219662308692932
273,MetaDrive-Tut-1Env-v0,153,489.1795381320043,275178,1352,1789.3434901237488,78.63644409179688,,8.953094482421875,0.91,79.22330474853516,79.15690612792969,0.8601376414299011
274,MetaDrive-Tut-1Env-v0,153,489.2618313308405,276281,1354,1797.0024592876434,79.50296020507812,-79.86766052246094,11.313020706176758,0.91,79.004638671875,79.14544677734375,0.8438128232955933
275,MetaDrive-Tut-1Env-v0,153,489.3903893516618,277383,1356,1804.638718366623,79.16864013671875,-79.4488754272461,16.98779296875,0.91,78.60384368896484,78.75225830078125,0.8798354864120483
276,MetaDrive-Tut-1Env-v0,153,487.86819285016696,278310,1358,1811.10746717453,76.53531646728516,,7.037016868591309,0.9,76.6364517211914,76.35343933105469,0.7813745737075806
277,MetaDrive-Tut-1Env-v0,153,491.6481267822165,279409,1360,1818.6031432151794,75.7472152709961,-77.0241470336914,65.39346313476562,0.91,75.69615936279297,75.97037506103516,0.8836948871612549
278,MetaDrive-Tut-1Env-v0,153,491.7326985740426,280502,1362,1826.1076049804688,79.7823715209961,,11.327943801879883,0.91,79.17417907714844,79.11486053466797,0.9267295002937317
279,MetaDrive-Tut-1Env-v0,153,491.74512833534357,281067,1363,1830.0580563545227,79.24423217773438,-80.16150665283203,64.88485717773438,0.91,79.57402038574219,79.96370697021484,0.8079794645309448
280,MetaDrive-Tut-1Env-v0,153,491.7514794302232,282164,1365,1837.5783421993256,77.13456726074219,,16.245058059692383,0.91,77.49806213378906,78.07908630371094,0.9098017811775208
281,MetaDrive-Tut-1Env-v0,153,491.816326423769,283259,1367,1845.1762981414795,75.87338256835938,-76.17478942871094,17.737699508666992,0.91,76.18848419189453,76.32820892333984,0.7900287508964539
282,MetaDrive-Tut-1Env-v0,153,491.8514840216485,284337,1369,1852.6229302883148,77.46448516845703,-79.0809555053711,7.286895751953125,0.91,77.84745025634766,78.00743103027344,0.8713141083717346
283,MetaDrive-Tut-1Env-v0,153,491.88100474635075,285480,1371,1860.5291922092438,75.18778228759766,,7.319337844848633,0.91,74.92129516601562,74.63888549804688,0.8567928075790405
284,MetaDrive-Tut-1Env-v0,153,491.900992666698,286066,1372,1864.5279569625854,74.44215393066406,,16.248573303222656,0.91,74.28914642333984,74.17699432373047,0.7846816182136536
285,MetaDrive-Tut-1Env-v0,153,491.0609493627595,287013,1374,1871.3920691013336,78.06059265136719,-79.4500961303711,31.667917251586914,0.9,78.22875213623047,78.17192840576172,0.9071213006973267
286,MetaDrive-Tut-1Env-v0,153,491.09008153724557,288088,1376,1878.8529331684113,76.33356475830078,,10.046575546264648,0.9,75.48622131347656,75.55384826660156,0.8362599611282349
287,MetaDrive-Tut-1Env-v0,153,491.0446539884088,289227,1378,1886.7816751003265,76.69158935546875,-77.66079711914062,8.823968887329102,0.9,76.525146484375,76.66221618652344,0.8040040135383606
288,MetaDrive-Tut-1Env-v0,153,492.92559970972354,290168,1380,1893.4148981571198,75.98724365234375,,7.897696495056152,0.9,75.94638061523438,76.01673126220703,0.845156192779541
289,MetaDrive-Tut-1Env-v0,153,492.9175288737654,291285,1382,1901.1882162094116,76.94828033447266,-78.23674774169922,8.896163940429688,0.9,77.2997817993164,77.22834777832031,0.8181989192962646
290,MetaDrive-Tut-1Env-v0,153,495.0454695771226,292222,1384,1907.819797039032,72.38538360595703,,26.379520416259766,0.9,72.18533325195312,72.3292236328125,0.7441076040267944
291,MetaDrive-Tut-1Env-v0,153,494.6030485165551,293216,1386,1914.799527168274,74.86238098144531,,30.865894317626953,0.9,75.21036529541016,74.99825286865234,0.748357892036438
292,MetaDrive-Tut-1Env-v0,153,493.1028973070026,294212,1388,1921.7216310501099,74.58811950683594,,13.962431907653809,0.89,73.37415313720703,73.9235610961914,0.8367879986763
293,MetaDrive-Tut-1Env-v0,153,493.1078470572961,295340,1390,1929.470185995102,72.85567474365234,,13.082074165344238,0.89,72.7133560180664,72.27906036376953,0.9091885685920715
294,MetaDrive-Tut-1Env-v0,153,493.11637701883313,296563,1392,1937.9164900779724,72.57425689697266,-72.94090270996094,12.2088623046875,0.89,72.20606994628906,71.76786041259766,0.763821542263031
295,MetaDrive-Tut-1Env-v0,153,491.9138736958316,297069,1393,1941.5762951374054,70.37980651855469,-72.38880157470703,10.428895950317383,0.88,70.90107727050781,70.8310317993164,0.7846219539642334
296,MetaDrive-Tut-1Env-v0,152,491.91923084463815,298424,1395,1950.78795003891,73.41859436035156,,10.866327285766602,0.88,73.12628936767578,73.13636779785156,0.8742486834526062
297,MetaDrive-Tut-1Env-v0,152,491.91868413574844,299011,1396,1954.8806781768799,76.53109741210938,-76.60389709472656,9.429162979125977,0.88,77.25928497314453,76.97453308105469,0.8683242797851562
298,MetaDrive-Tut-1Env-v0,152,487.13224263409955,300102,1399,1962.413702249527,70.81289672851562,,13.516277313232422,0.86,70.65281677246094,70.54276275634766,0.8754655718803406
299,MetaDrive-Tut-1Env-v0,152,485.9230849654772,301315,1402,1970.8059692382812,76.9928207397461,-77.46437072753906,9.241460800170898,0.85,77.2093505859375,76.91570281982422,0.8842747807502747
300,MetaDrive-Tut-1Env-v0,152,485.9243111698135,302487,1404,1978.8277523517609,70.84904479980469,-71.59314727783203,30.421348571777344,0.85,70.85990142822266,70.68285369873047,0.7593240141868591
301,MetaDrive-Tut-1Env-v0,152,485.94030551650076,303048,1405,1982.750610113144,74.25409698486328,,16.026012420654297,0.85,74.34143829345703,74.07720947265625,0.871102511882782
302,MetaDrive-Tut-1Env-v0,152,480.38369845813247,304540,1409,1992.943127155304,73.22661590576172,,19.596078872680664,0.83,73.48443603515625,73.93424224853516,0.8420913219451904
303,MetaDrive-Tut-1Env-v0,152,477.3843157795355,305289,1411,1998.082925081253,67.2386245727539,-69.27396392822266,13.019330024719238,0.82,67.06838989257812,67.3076171875,0.7951796650886536
304,MetaDrive-Tut-1Env-v0,152,477.4345906434708,306415,1413,2005.9011850357056,71.3123550415039,-72.06843566894531,10.031621932983398,0.82,70.83321380615234,71.14495849609375,0.7985678911209106
305,MetaDrive-Tut-1Env-v0,152,477.44721799453356,307009,1414,2009.9818003177643,73.79083251953125,-74.83699798583984,9.285236358642578,0.82,74.52558898925781,74.3747329711914,0.8596511483192444
306,MetaDrive-Tut-1Env-v0,152,476.4990746292784,308069,1416,2017.3770852088928,72.755859375,-72.74161529541016,24.098251342773438,0.81,71.62577819824219,71.86238861083984,0.8740068078041077
307,MetaDrive-Tut-1Env-v0,152,476.440906669869,309232,1418,2025.3955183029175,70.87848663330078,,14.341663360595703,0.81,71.637451171875,71.50993347167969,0.7424642443656921
308,MetaDrive-Tut-1Env-v0,152,473.35544976933596,310537,1421,2034.3485901355743,71.19647979736328,-71.90589141845703,9.089111328125,0.8,70.91096496582031,71.22637939453125,0.8115770816802979
309,MetaDrive-Tut-1Env-v0,152,473.38470364172855,311121,1422,2038.3804233074188,72.11363220214844,-73.24642944335938,22.267288208007812,0.8,71.50375366210938,71.6343994140625,0.8336387872695923
310,MetaDrive-Tut-1Env-v0,152,473.39745970553906,312313,1424,2046.4980001449585,71.88904571533203,-73.21711730957031,14.92197036743164,0.8,72.4183120727539,72.47085571289062,0.8325743079185486
311,MetaDrive-Tut-1Env-v0,152,473.4057999957788,313481,1426,2054.4883091449738,65.988525390625,-66.35094451904297,11.03207015991211,0.8,65.4935073852539,65.72891235351562,0.7834310531616211
312,MetaDrive-Tut-1Env-v0,152,473.43046732738947,314053,1427,2058.4280512332916,72.7890853881836,-73.03471374511719,7.9565582275390625,0.8,72.40092468261719,72.11776733398438,0.8410018682479858
313,MetaDrive-Tut-1Env-v0,152,473.4250263725897,315186,1429,2066.246416091919,69.86546325683594,,9.199477195739746,0.8,69.92584991455078,69.67668914794922,0.7806443572044373
314,MetaDrive-Tut-1Env-v0,152,473.43672452654215,316307,1431,2073.924263238907,73.29066467285156,-74.18773651123047,25.992507934570312,0.8,73.76905059814453,73.3795166015625,0.789082407951355
315,MetaDrive-Tut-1Env-v0,152,473.4450160296108,317441,1433,2081.7736971378326,70.30422973632812,-72.31169128417969,12.599536895751953,0.8,70.74071502685547,70.57813262939453,0.87742680311203
316,MetaDrive-Tut-1Env-v0,152,474.20435271312186,318583,1435,2089.6125791072845,68.54719543457031,-69.33013916015625,18.818256378173828,0.81,68.5147476196289,68.16584014892578,0.8465493321418762
317,MetaDrive-Tut-1Env-v0,152,474.17389966043504,319154,1436,2093.562828063965,71.10660552978516,,31.867244720458984,0.81,71.56399536132812,71.63697814941406,0.8098018765449524
318,MetaDrive-Tut-1Env-v0,152,474.1957615631808,320299,1438,2101.465469121933,71.48578643798828,-72.0466079711914,22.130971908569336,0.81,70.28829956054688,69.83566284179688,0.8614863157272339
319,MetaDrive-Tut-1Env-v0,152,477.16478068801206,321448,1440,2109.3052983283997,71.45262145996094,,7.446349620819092,0.82,71.39691925048828,71.04728698730469,0.8873933553695679
320,MetaDrive-Tut-1Env-v0,152,480.6124884957951,322018,1441,2113.1784620285034,70.55591583251953,,63.702186584472656,0.83,70.66019439697266,70.56387329101562,0.8161861896514893
321,MetaDrive-Tut-1Env-v0,152,480.627434935565,323202,1443,2121.1932830810547,69.77873229980469,,12.686786651611328,0.83,69.81900024414062,69.75865173339844,0.875771164894104
322,MetaDrive-Tut-1Env-v0,152,480.60995244213257,324359,1445,2129.0339262485504,69.85487365722656,-71.08609008789062,10.024798393249512,0.83,70.9118423461914,70.70551300048828,0.9028952121734619
323,MetaDrive-Tut-1Env-v0,152,480.58863521249475,325575,1447,2137.283998966217,70.60686492919922,-72.0323486328125,19.32835578918457,0.83,71.14169311523438,71.24820709228516,0.9345060586929321
324,MetaDrive-Tut-1Env-v0,152,480.61641563764215,326152,1448,2141.248901128769,67.56480407714844,,17.530065536499023,0.83,67.64303588867188,67.98201751708984,0.8676304817199707
325,MetaDrive-Tut-1Env-v0,152,480.56528132243506,327331,1450,2149.3346621990204,67.70637512207031,-68.6507339477539,23.76944351196289,0.83,68.616455078125,68.67241668701172,0.8112460374832153
326,MetaDrive-Tut-1Env-v0,152,480.52071985137496,328508,1452,2157.416901111603,71.84698486328125,,12.523548126220703,0.83,71.25619506835938,71.13124084472656,0.8243892788887024
327,MetaDrive-Tut-1Env-v0,152,480.50265844515974,329096,1453,2161.453501224518,66.11405944824219,,12.21445083618164,0.83,65.65765380859375,65.69676971435547,0.8210231065750122
328,MetaDrive-Tut-1Env-v0,152,480.47617745562604,330292,1455,2169.5877120494843,68.23487091064453,,15.510398864746094,0.83,68.45123291015625,68.55125427246094,0.8184806108474731
329,MetaDrive-Tut-1Env-v0,152,482.03365267531376,331488,1457,2177.7252480983734,72.2119140625,,23.858055114746094,0.84,72.85230255126953,73.59671783447266,0.8278366923332214
330,MetaDrive-Tut-1Env-v0,152,482.03260356464784,332094,1458,2181.8471841812134,69.37898254394531,,16.46820068359375,0.84,69.65278625488281,69.28467559814453,0.9650566577911377
331,MetaDrive-Tut-1Env-v0,152,482.01626739771086,333287,1460,2190.0066900253296,73.1430435180664,-74.74365997314453,6.749103546142578,0.84,73.1572036743164,73.4869384765625,0.7938926815986633
332,MetaDrive-Tut-1Env-v0,152,481.99193497065863,334500,1462,2198.366576194763,70.90644836425781,,12.488435745239258,0.84,70.42093658447266,70.44172668457031,0.8576378226280212
333,MetaDrive-Tut-1Env-v0,152,478.98502802007977,335261,1464,2203.559263944626,72.12843322753906,-72.71753692626953,7.726011276245117,0.83,71.54972076416016,71.55176544189453,0.8262560367584229
334,MetaDrive-Tut-1Env-v0,152,478.9718606279875,336502,1466,2211.9017651081085,74.22248840332031,,13.691012382507324,0.83,73.57267761230469,74.05083465576172,0.8625459671020508
335,MetaDrive-Tut-1Env-v0,152,478.9577824443992,337085,1467,2215.930695295334,67.54915618896484,-69.03414916992188,26.2148494720459,0.83,67.92095184326172,67.50091552734375,0.8344326615333557
336,MetaDrive-Tut-1Env-v0,152,478.9007279875439,338284,1469,2224.0404422283173,68.48260498046875,,26.179744720458984,0.83,67.94729614257812,67.87158203125,0.7959155440330505
337,MetaDrive-Tut-1Env-v0,152,478.14557025784734,339403,1471,2231.7742841243744,67.7094497680664,-68.99601745605469,47.08216857910156,0.82,67.79017639160156,67.92294311523438,0.8593364357948303
338,MetaDrive-Tut-1Env-v0,152,478.12055788461214,340017,1472,2235.889186143875,69.96804809570312,-71.52922821044922,32.09873580932617,0.82,70.67100524902344,70.4328384399414,0.8484326601028442
339,MetaDrive-Tut-1Env-v0,152,479.7818044912736,341229,1474,2244.124268054962,69.42814636230469,-70.20161437988281,10.574462890625,0.84,69.17942810058594,69.40313720703125,0.8168230652809143
340,MetaDrive-Tut-1Env-v0,152,479.724522013269,342470,1476,2252.463705062866,70.41043853759766,,18.8594970703125,0.84,70.40375518798828,70.7208251953125,0.6942191123962402
341,MetaDrive-Tut-1Env-v0,152,479.75185744570905,343097,1477,2256.6903989315033,68.78649139404297,-70.1470947265625,31.982704162597656,0.84,68.91825866699219,69.198974609375,0.7861036062240601
342,MetaDrive-Tut-1Env-v0,152,479.7305360687149,344402,1479,2265.285504102707,70.04045104980469,,13.183856964111328,0.84,70.51589965820312,70.60189056396484,0.8016806840896606
343,MetaDrive-Tut-1Env-v0,152,476.6812941914177,345146,1481,2270.1873042583466,70.65443420410156,,10.675750732421875,0.84,70.72845458984375,70.84061431884766,0.9093087315559387
344,MetaDrive-Tut-1Env-v0,152,478.28163174281786,346480,1483,2278.9690051078796,71.75907135009766,,19.953014373779297,0.85,71.09883880615234,71.11708068847656,0.7849100828170776
345,MetaDrive-Tut-1Env-v0,152,478.2712843559439,347170,1484,2283.517058134079,69.9434814453125,,10.663347244262695,0.85,70.04305267333984,69.73932647705078,0.8931213617324829
346,MetaDrive-Tut-1Env-v0,152,479.6002601961181,348676,1486,2293.1761453151703,69.77312469482422,,25.82928466796875,0.86,68.97698974609375,69.41708374023438,0.8069456219673157
347,MetaDrive-Tut-1Env-v0,152,479.4802649968234,349677,1487,2299.2853741645813,67.5101089477539,-67.82179260253906,12.777948379516602,0.85,66.8185043334961,67.10680389404297,0.8236238360404968
348,MetaDrive-Tut-1Env-v0,152,480.94715420290976,350558,1488,2304.754991054535,74.30037689208984,,14.144474029541016,0.86,73.77123260498047,74.23451232910156,0.9144032597541809
349,MetaDrive-Tut-1Env-v0,152,480.9532507980741,351223,1489,2309.142766237259,67.61334228515625,-69.26610565185547,24.080862045288086,0.86,67.67507934570312,67.64496612548828,0.8361486792564392
350,MetaDrive-Tut-1Env-v0,152,480.9408132409583,352082,1490,2314.5167751312256,66.82527923583984,,20.485950469970703,0.86,66.58906555175781,66.96117401123047,0.7827324271202087
351,MetaDrive-Tut-1Env-v0,152,480.93306653048944,353495,1492,2323.7727501392365,70.75629425048828,-71.81132507324219,14.482932090759277,0.86,70.79705047607422,71.24578857421875,0.872519314289093
352,MetaDrive-Tut-1Env-v0,152,482.12853669261966,354174,1493,2328.250897169113,69.44071960449219,,8.322181701660156,0.87,69.18880462646484,69.1326675415039,0.8339465856552124
353,MetaDrive-Tut-1Env-v0,152,481.15573483611655,355280,1495,2335.9015872478485,71.51708984375,,6.146635055541992,0.86,72.20409393310547,71.56877136230469,0.8631123304367065
354,MetaDrive-Tut-1Env-v0,152,481.1499657806395,356179,1496,2341.448123216629,65.68211364746094,-66.04869079589844,17.164691925048828,0.86,66.02073669433594,66.17520141601562,0.800216555595398
355,MetaDrive-Tut-1Env-v0,152,485.9070840923011,357579,1498,2350.594087123871,71.23253631591797,-72.09551239013672,9.93559741973877,0.88,71.59489440917969,71.52047729492188,0.8501564264297485
356,MetaDrive-Tut-1Env-v0,152,485.9229716375017,358454,1499,2356.0235290527344,67.69605255126953,,12.243867874145508,0.88,67.19999694824219,66.9931640625,0.8791347742080688
357,MetaDrive-Tut-1Env-v0,152,489.0096687854248,359163,1500,2360.6275131702423,72.20811462402344,-73.59107971191406,7.279825210571289,0.89,72.67977142333984,71.90907287597656,0.895531415939331
358,MetaDrive-Tut-1Env-v0,152,490.6098572695391,360648,1502,2370.1604931354523,69.64109802246094,,10.590317726135254,0.9,69.68328094482422,70.1962661743164,0.8529362082481384
359,MetaDrive-Tut-1Env-v0,152,490.6424167493206,361329,1503,2374.6735820770264,70.69377136230469,-71.4870376586914,7.961573600769043,0.9,70.57783508300781,70.94461822509766,0.9439266920089722
360,MetaDrive-Tut-1Env-v0,152,490.64127080753343,362085,1504,2379.519279241562,67.46214294433594,-69.09086608886719,15.285085678100586,0.9,67.79125213623047,68.02891540527344,0.7941584587097168
361,MetaDrive-Tut-1Env-v0,152,490.57222626947527,363675,1507,2389.856422185898,71.03123474121094,-71.58279418945312,6.274148464202881,0.9,70.60692596435547,70.53984069824219,0.8396483659744263
362,MetaDrive-Tut-1Env-v0,152,493.0695687249247,364326,1508,2394.205132007599,72.21058654785156,,8.510805130004883,0.91,71.69160461425781,71.69771575927734,0.8014559149742126
363,MetaDrive-Tut-1Env-v0,152,493.06487698125585,365057,1509,2398.9439680576324,68.22686767578125,-69.41313171386719,11.218276023864746,0.91,68.49507141113281,68.6990966796875,0.8418954014778137
364,MetaDrive-Tut-1Env-v0,152,496.1217032247163,366581,1511,2408.5547132492065,67.40543365478516,-67.9374008178711,12.392277717590332,0.92,66.78888702392578,67.03250885009766,0.8938448429107666
365,MetaDrive-Tut-1Env-v0,152,496.14477151011357,367323,1512,2413.3013892173767,66.2699203491211,-67.67813110351562,15.451820373535156,0.92,66.67782592773438,66.24640655517578,0.8588455319404602
366,MetaDrive-Tut-1Env-v0,152,496.14745290823004,368047,1513,2417.8687121868134,65.89563751220703,-66.57904052734375,8.787652969360352,0.92,65.70327758789062,65.89562225341797,0.8446303009986877
367,MetaDrive-Tut-1Env-v0,152,496.14937018799617,369314,1515,2426.34237408638,65.48504638671875,,7.078927993774414,0.92,65.6650390625,65.68196105957031,0.8050212264060974
368,MetaDrive-Tut-1Env-v0,152,492.1498989930229,370486,1519,2434.1783039569855,67.90914916992188,,9.281353950500488,0.91,67.8277359008789,68.17058563232422,0.8567124009132385
369,MetaDrive-Tut-1Env-v0,152,492.1580131457038,371082,1520,2438.2483949661255,66.2452392578125,,29.448986053466797,0.91,66.69947814941406,66.92376708984375,0.7330095767974854
370,MetaDrive-Tut-1Env-v0,152,492.12344432195727,372303,1522,2446.4501481056213,65.73603820800781,-66.43910217285156,11.454984664916992,0.91,65.44194030761719,65.56221771240234,0.8066948056221008
371,MetaDrive-Tut-1Env-v0,152,492.16533774578477,373492,1524,2454.5290920734406,67.36754608154297,,11.323957443237305,0.91,67.13046264648438,66.81957244873047,0.8530246615409851
372,MetaDrive-Tut-1Env-v0,152,492.2121123327363,374098,1525,2458.6410071849823,67.28394317626953,,12.960420608520508,0.91,66.70968627929688,66.55554962158203,0.8274697661399841
373,MetaDrive-Tut-1Env-v0,152,487.20793744038207,375078,1528,2465.307997941971,66.70661926269531,,8.610020637512207,0.89,66.63574981689453,66.82734680175781,0.8158793449401855
374,MetaDrive-Tut-1Env-v0,152,484.70883451433934,376402,1531,2474.349254131317,63.54679870605469,,13.715864181518555,0.88,63.60423278808594,63.34180450439453,0.817840039730072
375,MetaDrive-Tut-1Env-v0,152,484.70560657886483,377008,1532,2478.4794130325317,63.803810119628906,,6.428563117980957,0.88,63.46590042114258,63.27027893066406,0.7970330715179443
376,MetaDrive-Tut-1Env-v0,152,484.7426731264132,378218,1534,2486.614535331726,67.93669128417969,,14.431772232055664,0.88,68.60974884033203,68.22606658935547,0.9158456325531006
377,MetaDrive-Tut-1Env-v0,152,481.455092938009,379502,1537,2495.475004196167,70.83175659179688,,20.51180076599121,0.86,71.44219207763672,71.33711242675781,0.8341290354728699
378,MetaDrive-Tut-1Env-v0,152,481.45595882651884,380108,1538,2499.5732991695404,69.60803985595703,,33.074684143066406,0.86,69.52751159667969,69.40847778320312,0.895592987537384
379,MetaDrive-Tut-1Env-v0,152,481.4954995512021,381462,1540,2508.4593830108643,66.98434448242188,,9.285032272338867,0.86,66.48592376708984,66.46504211425781,0.8615339994430542
380,MetaDrive-Tut-1Env-v0,152,480.57835849962385,382619,1542,2516.320006132126,64.90283966064453,-65.52793884277344,7.091706275939941,0.85,64.30532836914062,64.26850128173828,0.7963254451751709
381,MetaDrive-Tut-1Env-v0,152,473.0944808169051,383176,1545,2520.1701991558075,70.34212493896484,,12.048344612121582,0.82,70.82527160644531,70.7938232421875,0.9001120328903198
382,MetaDrive-Tut-1Env-v0,152,473.1293158895103,384490,1547,2528.8561573028564,66.38799285888672,,9.721604347229004,0.82,66.22041320800781,66.88871765136719,0.8376993536949158
383,MetaDrive-Tut-1Env-v0,152,473.1407328918144,385396,1548,2534.466681241989,66.19345092773438,,29.477754592895508,0.82,65.88034057617188,65.86564636230469,0.7477575540542603
384,MetaDrive-Tut-1Env-v0,152,473.1290896478305,386178,1549,2539.4044091701508,63.47724533081055,,13.367537498474121,0.82,63.321632385253906,63.45066452026367,0.7931283712387085
385,MetaDrive-Tut-1Env-v0,152,473.0283585997619,387179,1550,2545.490734100342,68.14584350585938,-68.980224609375,16.411224365234375,0.81,69.21315002441406,68.9183120727539,0.8519760370254517
386,MetaDrive-Tut-1Env-v0,152,470.52015653928095,388203,1552,2552.0194113254547,66.96385192871094,-68.31869506835938,11.654449462890625,0.8,66.60934448242188,66.88394927978516,0.8250317573547363
387,MetaDrive-Tut-1Env-v0,152,470.4150246663957,389204,1553,2558.0180711746216,66.49256134033203,,14.513994216918945,0.79,66.06724548339844,66.25759887695312,0.7897970676422119
388,MetaDrive-Tut-1Env-v0,152,467.7769567577285,390386,1555,2565.1816911697388,64.36114501953125,,13.829981803894043,0.77,64.49598693847656,64.38813781738281,0.8435541391372681
389,MetaDrive-Tut-1Env-v0,152,467.775210870856,391201,1556,2570.2794642448425,62.22739028930664,-63.04924011230469,81.51952362060547,0.77,61.74047088623047,62.202762603759766,0.7978904247283936
390,MetaDrive-Tut-1Env-v0,152,465.24924108553927,392174,1558,2576.5367670059204,66.08350372314453,,18.051292419433594,0.76,65.44109344482422,65.21044158935547,0.8504714965820312
391,MetaDrive-Tut-1Env-v0,152,465.3073115404816,393409,1560,2584.8497800827026,66.53684997558594,-67.77325439453125,7.754146575927734,0.76,67.6135482788086,67.34707641601562,0.852506697177887
392,MetaDrive-Tut-1Env-v0,152,465.2009476510347,394410,1561,2590.8962230682373,66.28812408447266,,5.062487602233887,0.75,66.2564468383789,65.95027160644531,0.7732439041137695
393,MetaDrive-Tut-1Env-v0,152,465.1962282202705,395225,1562,2596.019953250885,66.5054702758789,-67.52239990234375,4.439578533172607,0.75,66.58879852294922,66.74964904785156,0.8219536542892456
394,MetaDrive-Tut-1Env-v0,152,468.2156703411315,396587,1564,2605.347976207733,61.1610107421875,-62.06233596801758,8.652359962463379,0.76,61.595985412597656,62.14838409423828,0.8213323354721069
395,MetaDrive-Tut-1Env-v0,152,468.2170480090384,397273,1565,2609.871349096298,67.75794219970703,-68.50066375732422,37.398406982421875,0.76,67.29246520996094,67.02242279052734,0.824997067451477
396,MetaDrive-Tut-1Env-v0,152,468.2219759674753,398081,1566,2614.91970205307,62.10958480834961,-62.67937088012695,13.018921852111816,0.76,61.475494384765625,61.58203887939453,0.7078449726104736
397,MetaDrive-Tut-1Env-v0,152,468.25704932596204,399435,1568,2623.842992067337,66.0092544555664,-67.09942626953125,8.614785194396973,0.76,65.84069061279297,65.9819564819336,0.7902647256851196
398,MetaDrive-Tut-1Env-v0,152,468.26037294304524,400162,1569,2628.506109237671,68.64353942871094,,15.262701988220215,0.76,68.56643676757812,68.52975463867188,0.902302622795105
399,MetaDrive-Tut-1Env-v0,152,468.93717636764507,401163,1570,2634.5385892391205,65.77507019042969,-67.31961059570312,7.352581024169922,0.76,65.51803588867188,66.27415466308594,0.7986388206481934
400,MetaDrive-Tut-1Env-v0,152,468.9541622450506,402932,1572,2645.434095144272,65.80660247802734,,10.046590805053711,0.76,64.5561294555664,64.8467025756836,0.8094407916069031
401,MetaDrive-Tut-1Env-v0,152,468.84623734735726,403933,1573,2651.54296708107,66.13053894042969,-67.40087890625,30.3287353515625,0.75,65.83580017089844,65.4666519165039,0.772585928440094
402,MetaDrive-Tut-1Env-v0,152,468.8513453848741,404572,1574,2655.79634308815,63.80385208129883,,8.803145408630371,0.75,64.73658752441406,64.3919448852539,0.7774345874786377
403,MetaDrive-Tut-1Env-v0,152,468.8647473420003,405199,1575,2660.0426721572876,67.59932708740234,-68.46771240234375,6.34126615524292,0.75,68.18368530273438,67.79470825195312,0.8080171346664429
404,MetaDrive-Tut-1Env-v0,152,468.8716731031108,406405,1577,2668.1353821754456,65.92790222167969,-67.04196166992188,14.593976974487305,0.75,65.48210144042969,65.91619110107422,0.7843726873397827
405,MetaDrive-Tut-1Env-v0,152,468.879528671769,407021,1578,2672.3082921504974,66.72383880615234,-67.09562683105469,4.738712787628174,0.75,66.85482788085938,66.72257232666016,0.8241394758224487
406,MetaDrive-Tut-1Env-v0,152,473.50515713906185,408249,1580,2680.5751271247864,65.47010803222656,-66.12452697753906,3.3111884593963623,0.76,65.11854553222656,64.89118957519531,0.8015230894088745
407,MetaDrive-Tut-1Env-v0,152,473.4954983048473,409574,1582,2689.3181512355804,67.51637268066406,,7.657832145690918,0.76,67.82691192626953,67.63551330566406,0.8104503750801086
408,MetaDrive-Tut-1Env-v0,152,473.4979076767652,410182,1583,2693.425042152405,67.63695526123047,,12.417216300964355,0.76,67.4273910522461,67.20606994628906,0.8019177913665771
409,MetaDrive-Tut-1Env-v0,152,473.5162451148455,411477,1585,2702.0809259414673,67.24943542480469,-67.02674102783203,7.054875373840332,0.76,67.25386047363281,67.163330078125,0.8859499096870422
410,MetaDrive-Tut-1Env-v0,152,473.5167701604838,412083,1586,2706.158467054367,64.98403930664062,-65.890869140625,8.324277877807617,0.76,65.28658294677734,65.26715087890625,0.8307734727859497
411,MetaDrive-Tut-1Env-v0,152,473.65358707999235,413348,1588,2714.6409242153168,63.984886169433594,,16.570125579833984,0.77,63.93358612060547,63.558570861816406,0.7245559096336365
412,MetaDrive-Tut-1Env-v0,152,473.6692552951915,414573,1590,2722.9036781787872,67.763671875,-69.00655364990234,6.238527297973633,0.77,68.43093872070312,68.40544128417969,0.7925353050231934
413,MetaDrive-Tut-1Env-v0,152,473.66890179253403,415193,1591,2727.127731323242,63.851627349853516,-64.68817138671875,28.384418487548828,0.77,63.993892669677734,63.982460021972656,0.8402900099754333
414,MetaDrive-Tut-1Env-v0,152,473.69414085274553,416385,1593,2735.1969022750854,66.18421936035156,-66.7398681640625,4.528951644897461,0.77,66.24652099609375,66.05601501464844,0.7908865809440613
415,MetaDrive-Tut-1Env-v0,152,474.65488791126967,417570,1595,2743.2885921001434,66.16545867919922,,6.399624824523926,0.78,66.65801239013672,66.59503173828125,0.8281010985374451
416,MetaDrive-Tut-1Env-v0,152,474.66224802898336,418146,1596,2747.2304089069366,64.29960632324219,,25.081844329833984,0.78,64.80231475830078,64.73950958251953,0.8181912899017334
417,MetaDrive-Tut-1Env-v0,152,474.68512521950333,419359,1598,2755.4883830547333,67.52967071533203,-68.93941497802734,13.315855026245117,0.78,68.21915435791016,67.92727661132812,0.7083922624588013
418,MetaDrive-Tut-1Env-v0,152,474.65066981411917,420590,1600,2763.779818058014,61.33736038208008,,10.468119621276855,0.78,61.80471420288086,61.76942443847656,0.736074686050415
419,MetaDrive-Tut-1Env-v0,152,474.6732820291836,421213,1601,2767.9796011447906,64.48213195800781,-64.80003356933594,9.473742485046387,0.78,64.16885375976562,64.14070892333984,0.8301543593406677
420,MetaDrive-Tut-1Env-v0,152,474.672722811564,422366,1603,2775.8189210891724,65.5859146118164,,9.873669624328613,0.78,64.86219024658203,65.1382064819336,0.8816896677017212
421,MetaDrive-Tut-1Env-v0,152,474.6913018715891,423537,1605,2783.7944922447205,64.77147674560547,-65.52120971679688,3.8768091201782227,0.78,64.79548645019531,64.67567443847656,0.7799913287162781
422,MetaDrive-Tut-1Env-v0,152,477.7836439700539,424149,1606,2787.9056329727173,63.742618560791016,-65.30668640136719,8.925151824951172,0.79,64.36122131347656,64.38424682617188,0.7851382493972778
423,MetaDrive-Tut-1Env-v0,152,477.81772337115484,425317,1608,2795.87917804718,69.30667114257812,-70.067138671875,24.213703155517578,0.79,68.85879516601562,69.00045776367188,0.7640527486801147
424,MetaDrive-Tut-1Env-v0,152,477.84743777370846,426514,1610,2803.964391231537,66.95549011230469,,17.003219604492188,0.79,66.9499740600586,67.29657745361328,0.8028363585472107
425,MetaDrive-Tut-1Env-v0,152,477.8613657976285,427113,1611,2808.0447533130646,64.49278259277344,-64.75188446044922,15.065954208374023,0.79,64.6950912475586,65.39759063720703,0.8444033265113831
426,MetaDrive-Tut-1Env-v0,152,477.83063854822865,428303,1613,2816.10506606102,65.1633529663086,-66.15802001953125,9.991802215576172,0.79,65.06878662109375,64.99984741210938,0.7587472200393677
427,MetaDrive-Tut-1Env-v0,152,477.840469704038,429475,1615,2824.1106193065643,64.15247344970703,-64.9691390991211,6.356566429138184,0.79,63.48088455200195,63.54972457885742,0.7553046941757202
428,MetaDrive-Tut-1Env-v0,152,480.37405282162274,430050,1616,2828.0417630672455,67.08690643310547,,5.493035316467285,0.8,67.37777709960938,67.69050598144531,0.877564549446106
429,MetaDrive-Tut-1Env-v0,152,485.9219906749352,431207,1618,2835.9688351154327,65.83084106445312,-66.40037536621094,6.134311676025391,0.82,66.44585418701172,66.1570053100586,0.741263210773468
430,MetaDrive-Tut-1Env-v0,152,485.9597502763042,432360,1620,2843.80397105217,64.51891326904297,,8.365978240966797,0.82,64.27178192138672,64.43408203125,0.8175680637359619
431,MetaDrive-Tut-1Env-v0,152,486.02052632792345,433525,1622,2851.7591350078583,69.08483123779297,-69.36759948730469,4.335631370544434,0.82,69.03018188476562,69.34281921386719,0.8410607576370239
432,MetaDrive-Tut-1Env-v0,152,486.0122059788719,434088,1623,2855.658515930176,64.94422149658203,,12.608339309692383,0.82,64.602783203125,64.7840805053711,0.7760959267616272
433,MetaDrive-Tut-1Env-v0,151,485.9677247780075,435209,1625,2863.441861152649,67.37964630126953,-69.10746765136719,9.042562484741211,0.82,67.82246398925781,67.55418395996094,0.821099042892456
434,MetaDrive-Tut-1Env-v0,151,488.4755761115177,436355,1627,2871.2424511909485,67.15138244628906,-67.7405776977539,15.943716049194336,0.83,67.56422424316406,67.60298156738281,0.8800269365310669
435,MetaDrive-Tut-1Env-v0,151,493.53080185537294,437489,1629,2878.9981632232666,67.2354965209961,-68.00856018066406,10.120469093322754,0.85,66.98719787597656,66.85649871826172,0.8760601282119751
436,MetaDrive-Tut-1Env-v0,151,493.5318146077277,438065,1630,2882.9069061279297,64.69501495361328,-64.81927490234375,16.172971725463867,0.85,64.80620574951172,64.8629379272461,0.7990031242370605
437,MetaDrive-Tut-1Env-v0,151,493.51663798399454,439196,1632,2890.7133581638336,67.2837905883789,,13.513570785522461,0.85,66.1295166015625,65.62861633300781,0.803399384021759
438,MetaDrive-Tut-1Env-v0,151,493.5205470417801,440335,1634,2898.5012962818146,63.71132278442383,-65.54412841796875,12.761518478393555,0.85,63.789390563964844,63.828651428222656,0.8163182735443115
439,MetaDrive-Tut-1Env-v0,151,496.86949183592793,441475,1636,2906.359295129776,66.22706604003906,-66.9865951538086,5.6112823486328125,0.87,66.36194610595703,66.54821014404297,0.7800164222717285
440,MetaDrive-Tut-1Env-v0,151,496.8638895936394,442048,1637,2910.250431060791,68.37348937988281,,14.712730407714844,0.87,68.06145477294922,67.90379333496094,0.8289293050765991
441,MetaDrive-Tut-1Env-v0,151,496.87110130847054,443188,1639,2918.0848121643066,62.96636199951172,,10.083834648132324,0.87,63.08056640625,63.23611831665039,0.839378297328949
442,MetaDrive-Tut-1Env-v0,151,497.78024962567446,444338,1641,2925.93660902977,64.97146606445312,,6.093518257141113,0.88,64.91749572753906,64.6646728515625,0.7819705605506897
443,MetaDrive-Tut-1Env-v0,151,500.25878591965613,445515,1643,2933.9238431453705,69.70455932617188,-71.8122329711914,8.895179748535156,0.89,69.7333984375,69.91780090332031,0.8537899255752563
444,MetaDrive-Tut-1Env-v0,151,502.7893616535454,446099,1644,2937.90224814415,63.888668060302734,-64.49515533447266,6.804868698120117,0.9,63.839447021484375,63.99164962768555,0.7329227924346924
445,MetaDrive-Tut-1Env-v0,151,501.72204598429545,447355,1647,2946.5092310905457,62.947940826416016,-63.19961929321289,8.568029403686523,0.9,63.40607452392578,63.48112106323242,0.715415894985199
446,MetaDrive-Tut-1Env-v0,151,501.72120723056867,448480,1649,2954.190953016281,66.4518051147461,,8.64422607421875,0.9,65.6765365600586,65.65709686279297,0.8451493978500366
447,MetaDrive-Tut-1Env-v0,151,501.82898643769545,449070,1650,2958.220365047455,61.845855712890625,,12.900652885437012,0.91,61.921592712402344,61.993003845214844,0.7602801322937012
448,MetaDrive-Tut-1Env-v0,151,504.3929195664659,450198,1652,2965.992510318756,67.18482971191406,,4.860483169555664,0.92,67.08696746826172,67.33606719970703,0.8193869590759277
449,MetaDrive-Tut-1Env-v0,151,507.04552392346625,451358,1654,2973.919368982315,67.98358154296875,,5.416688919067383,0.94,67.8475341796875,67.13381958007812,0.8672515749931335
450,MetaDrive-Tut-1Env-v0,151,507.17692123457425,452485,1656,2981.658282995224,64.95503997802734,-66.2907485961914,8.448373794555664,0.95,65.17031860351562,65.46224975585938,0.8592380881309509
451,MetaDrive-Tut-1Env-v0,151,509.6934755978939,453048,1657,2985.544012069702,68.38803100585938,,7.2885284423828125,0.96,67.96279907226562,67.91968536376953,0.9091982841491699
452,MetaDrive-Tut-1Env-v0,151,509.72218695566744,454162,1659,2993.180805206299,63.951969146728516,,8.96801471710205,0.96,62.710243225097656,62.40804672241211,0.8979239463806152
453,MetaDrive-Tut-1Env-v0,151,509.820039314131,455295,1661,3000.96817612648,65.35348510742188,-66.38606262207031,11.59299087524414,0.97,64.77369689941406,64.60533905029297,0.8752703666687012
454,MetaDrive-Tut-1Env-v0,151,509.8303386712461,456417,1663,3008.685478210449,66.17826080322266,-67.48170471191406,12.709271430969238,0.97,65.98462677001953,65.94884490966797,0.8740487098693848
455,MetaDrive-Tut-1Env-v0,151,509.83109426019024,457505,1665,3016.2359952926636,66.60143280029297,-67.45155334472656,6.808868885040283,0.97,66.9920654296875,67.18698120117188,0.8281657695770264
456,MetaDrive-Tut-1Env-v0,151,509.8432059968599,458068,1666,3020.122845172882,66.0045166015625,,9.269767761230469,0.97,66.10749053955078,66.12352752685547,0.7930525541305542
457,MetaDrive-Tut-1Env-v0,151,509.84292923259017,459187,1668,3027.869443178177,67.58403015136719,-68.13273620605469,11.610700607299805,0.97,67.60991668701172,68.1393814086914,0.7770987749099731
458,MetaDrive-Tut-1Env-v0,151,509.9591819540059,460293,1670,3035.491388320923,60.65719223022461,-61.777259826660156,36.769386291503906,0.98,61.29008102416992,60.859439849853516,0.7825561165809631
459,MetaDrive-Tut-1Env-v0,151,509.93963247695,461418,1672,3043.2503490448,69.25584411621094,,6.466970443725586,0.98,70.20389556884766,69.67366790771484,0.9177392721176147
460,MetaDrive-Tut-1Env-v0,151,510.045343608821,462540,1674,3050.957500219345,63.44003677368164,,4.220942497253418,0.99,63.32017517089844,63.313987731933594,0.7458901405334473
461,MetaDrive-Tut-1Env-v0,151,510.04629424478696,463089,1675,3054.8371801376343,65.82267761230469,-66.40266418457031,7.277578353881836,0.99,65.69207000732422,65.91941833496094,0.8274695873260498
462,MetaDrive-Tut-1Env-v0,151,510.05282809545,464193,1677,3062.4133110046387,65.10397338867188,-66.2555160522461,12.524765968322754,0.99,65.40677642822266,65.27964782714844,0.8473676443099976
463,MetaDrive-Tut-1Env-v0,151,510.05949600288756,465301,1679,3070.04456114769,63.923641204833984,-64.19820404052734,9.249955177307129,0.99,63.82905578613281,64.09005737304688,0.8174853920936584
464,MetaDrive-Tut-1Env-v0,151,510.0692557335463,466443,1681,3077.8653423786163,63.837562561035156,-64.76529693603516,34.178672790527344,0.99,64.42988586425781,64.38247680664062,0.8295985460281372
465,MetaDrive-Tut-1Env-v0,151,510.04127680954554,467547,1683,3085.5754239559174,64.13790893554688,-64.08224487304688,7.074649810791016,0.99,64.35122680664062,64.34342956542969,0.9309980869293213
466,MetaDrive-Tut-1Env-v0,151,510.0254278507008,468099,1684,3089.3343863487244,65.51236724853516,-65.98149871826172,9.550688743591309,0.99,64.91990661621094,63.90270233154297,0.8212940096855164
467,MetaDrive-Tut-1Env-v0,151,510.01300550485416,469210,1686,3097.104973077774,65.64137268066406,,8.557518005371094,0.99,65.98783874511719,65.94742584228516,0.930194079875946
468,MetaDrive-Tut-1Env-v0,151,510.0101319705757,470286,1688,3104.5191271305084,65.25314331054688,,5.137812614440918,0.99,65.7244873046875,65.31576538085938,0.7358905076980591
469,MetaDrive-Tut-1Env-v0,151,510.0195745408436,471409,1690,3112.209932088852,65.65592956542969,-66.07170867919922,10.626180648803711,0.99,65.96306610107422,66.14750671386719,0.8076766133308411
470,MetaDrive-Tut-1Env-v0,151,510.02629380727944,472512,1692,3119.8137171268463,65.92581939697266,,4.083568572998047,0.99,65.63813781738281,65.32685089111328,0.74595707654953
471,MetaDrive-Tut-1Env-v0,151,510.0117541328939,473098,1693,3123.8717691898346,66.04595184326172,,7.884098529815674,0.99,66.14429473876953,65.87164306640625,0.8356899619102478
472,MetaDrive-Tut-1Env-v0,151,510.03699988217124,474221,1695,3131.562390089035,64.63971710205078,-65.96952056884766,9.492128372192383,0.99,65.16387939453125,65.21665954589844,0.8003883957862854
473,MetaDrive-Tut-1Env-v0,151,510.0459458451358,475318,1697,3139.1299681663513,62.92349624633789,,20.392166137695312,0.99,62.059818267822266,61.9112434387207,0.7545047998428345
474,MetaDrive-Tut-1Env-v0,151,510.0297869270995,476431,1699,3146.7761142253876,65.59822082519531,-66.36917877197266,10.162900924682617,0.99,66.3066177368164,66.40032958984375,0.762613832950592
475,MetaDrive-Tut-1Env-v0,151,506.52399572344655,477120,1701,3151.5128870010376,63.98567199707031,,16.0433292388916,0.98,64.09951782226562,63.89487838745117,0.7723956108093262
476,MetaDrive-Tut-1Env-v0,151,506.5124856014863,478244,1703,3159.237714290619,66.35546112060547,,12.033514976501465,0.98,66.50089263916016,66.6218490600586,0.8625739216804504
477,MetaDrive-Tut-1Env-v0,151,506.4700553062563,479356,1705,3166.9271891117096,63.62034606933594,,5.641377925872803,0.98,63.686134338378906,63.13949966430664,0.7977936267852783
478,MetaDrive-Tut-1Env-v0,151,506.4715824764235,480504,1707,3174.7657589912415,69.2298812866211,,10.653898239135742,0.98,69.09538269042969,69.6161880493164,0.8297445774078369
479,MetaDrive-Tut-1Env-v0,151,506.47383737374037,481056,1708,3178.5563311576843,62.32729721069336,,14.862472534179688,0.98,63.317909240722656,63.48160171508789,0.8384657502174377
480,MetaDrive-Tut-1Env-v0,151,499.31078028245344,482432,1712,3187.9842240810394,65.5662612915039,,4.501209259033203,0.96,65.7498779296875,65.9613037109375,0.7903889417648315
481,MetaDrive-Tut-1Env-v0,151,499.27911959019764,483546,1714,3195.6346912384033,63.40319061279297,,6.1904730796813965,0.96,63.475311279296875,63.5012321472168,0.7617233395576477
482,MetaDrive-Tut-1Env-v0,151,499.2625280955353,484090,1715,3199.3791449069977,65.42198181152344,,35.251277923583984,0.96,65.39193725585938,65.28077697753906,0.7801609635353088
483,MetaDrive-Tut-1Env-v0,151,499.24733023134536,485188,1717,3207.0008041858673,62.725982666015625,,4.869838237762451,0.96,62.89027404785156,62.863739013671875,0.8837031722068787
484,MetaDrive-Tut-1Env-v0,151,499.24196871289956,486298,1719,3214.617104291916,70.26773834228516,,9.091187477111816,0.96,70.00055694580078,69.94571685791016,0.8290762901306152
485,MetaDrive-Tut-1Env-v0,151,499.21314118256976,487395,1721,3222.2859840393066,67.14543914794922,-68.06600952148438,6.844243049621582,0.96,66.37224578857422,66.5669174194336,0.8287010192871094
486,MetaDrive-Tut-1Env-v0,151,499.20813460830044,488493,1723,3229.8100850582123,69.50067138671875,-70.62652587890625,9.485725402832031,0.96,69.31818389892578,68.73472595214844,0.8562301993370056
487,MetaDrive-Tut-1Env-v0,151,499.1995483368516,489028,1724,3233.5116622447968,63.654293060302734,,4.463659286499023,0.96,63.814353942871094,63.700904846191406,0.7585980892181396
488,MetaDrive-Tut-1Env-v0,151,495.42077391515625,490248,1727,3241.9364461898804,63.765411376953125,,6.767827033996582,0.95,64.03931427001953,63.978973388671875,0.8119333386421204
489,MetaDrive-Tut-1Env-v0,151,492.0765858663349,491480,1730,3250.3115010261536,65.4041976928711,,4.124322891235352,0.94,64.79647064208984,64.9543228149414,0.8239056468009949
490,MetaDrive-Tut-1Env-v0,151,492.06905667243575,492033,1731,3254.081782102585,62.76259231567383,-63.153499603271484,5.075931549072266,0.94,62.84009552001953,62.76869583129883,0.772698163986206
491,MetaDrive-Tut-1Env-v0,151,488.72033940508976,493302,1734,3262.847743034363,68.50128173828125,,6.775149345397949,0.93,68.34493255615234,68.44842529296875,0.8395493626594543
492,MetaDrive-Tut-1Env-v0,151,488.68127948487773,494421,1736,3270.575292110443,63.68207931518555,-63.797706604003906,3.5125467777252197,0.93,63.202247619628906,63.021453857421875,0.8082692623138428
493,MetaDrive-Tut-1Env-v0,151,488.6778745346078,495533,1738,3278.239897251129,65.3034896850586,-66.39884185791016,9.592857360839844,0.93,65.20289611816406,64.89808654785156,0.865188717842102
494,MetaDrive-Tut-1Env-v0,151,488.6776078525781,496086,1739,3282.0599360466003,63.99320983886719,,6.1875410079956055,0.93,64.3551254272461,64.35015869140625,0.7847291827201843
495,MetaDrive-Tut-1Env-v0,151,488.6649265525226,497191,1741,3289.681069135666,64.00623321533203,-64.086181640625,7.243448734283447,0.93,63.58184051513672,63.93482971191406,0.8319629430770874
496,MetaDrive-Tut-1Env-v0,151,481.71674914662333,498017,1744,3295.3318281173706,65.02125549316406,-65.33299255371094,27.248626708984375,0.91,65.1498794555664,65.50407409667969,0.7976531982421875
497,MetaDrive-Tut-1Env-v0,151,481.7972333284592,499253,1747,3303.8444442749023,70.579345703125,-71.13634490966797,18.266979217529297,0.91,70.18189239501953,70.51570129394531,0.8613325357437134
