cjunkin/reinforcement-learning/metaracer/data/td3_agent_single_v16_progress_reward/td3/progress.csv
,log_dir,frame_per_second,episode_reward,total_steps,total_episodes,total_time,target_q,actor_loss,critic_loss,success_rate,current_q1,current_q2,reward
0,/Users/cjpark/Desktop/ucla_courses/cs260r/assignment4/data/td3_agent_single_v16_progress_reward/td3,1310,1614.8168964385986,2999,1,2.2880260944366455,,,,0.0,,,
1,/Users/cjpark/Desktop/ucla_courses/cs260r/assignment4/data/td3_agent_single_v16_progress_reward/td3,1353,1609.0497665405273,5999,2,4.43377423286438,,,,0.0,,,
2,/Users/cjpark/Desktop/ucla_courses/cs260r/assignment4/data/td3_agent_single_v16_progress_reward/td3,1342,1059.492977778117,8999,3,6.704480171203613,,,,0.0,,,
3,/Users/cjpark/Desktop/ucla_courses/cs260r/assignment4/data/td3_agent_single_v16_progress_reward/td3,577,-4899.708302259445,11999,4,20.760989904403687,-0.699859619140625,1.6654620170593262,137.1267547607422,0.0,0.2720363438129425,0.2514057755470276,-2.054456949234009
4,/Users/cjpark/Desktop/ucla_courses/cs260r/assignment4/data/td3_agent_single_v16_progress_reward/td3,361,-6609.319122505188,14999,5,41.49682307243347,1.9395599365234375,-6.448094844818115,65.46192932128906,0.0,2.4219069480895996,2.7333273887634277,-1.8289945125579834
5,/Users/cjpark/Desktop/ucla_courses/cs260r/assignment4/data/td3_agent_single_v16_progress_reward/td3,286,-5501.633595466614,17999,6,62.76325297355652,1.7381457090377808,-4.432131290435791,39.7410888671875,0.0,0.9858407378196716,0.8288453817367554,-1.2989859580993652
6,/Users/cjpark/Desktop/ucla_courses/cs260r/assignment4/data/td3_agent_single_v16_progress_reward/td3,251,-5777.112038748605,20999,7,83.3662269115448,-0.6953606605529785,-3.3955888748168945,100.5494384765625,0.0,-0.3159193992614746,-0.19609129428863525,-2.9440174102783203
7,/Users/cjpark/Desktop/ucla_courses/cs260r/assignment4/data/td3_agent_single_v16_progress_reward/td3,230,-5056.919082760811,23999,8,104.11811518669128,1.989858627319336,-3.19193696975708,81.12477111816406,0.0,1.08106529712677,0.9058460593223572,-1.5215895175933838
8,/Users/cjpark/Desktop/ucla_courses/cs260r/assignment4/data/td3_agent_single_v16_progress_reward/td3,216,-4511.903873761495,26999,9,124.95380020141602,5.384815692901611,-9.081302642822266,36.408721923828125,0.0,4.665609359741211,4.9882941246032715,-1.2179749011993408
9,/Users/cjpark/Desktop/ucla_courses/cs260r/assignment4/data/td3_agent_single_v16_progress_reward/td3,206,-6706.284854984284,29999,10,145.52473211288452,-4.369741439819336,2.1128363609313965,134.14224243164062,0.0,-4.939772605895996,-4.960453987121582,-2.5896668434143066
10,/Users/cjpark/Desktop/ucla_courses/cs260r/assignment4/data/td3_agent_single_v16_progress_reward/td3,198,-6030.609510941939,32999,11,165.99137997627258,-26.369136810302734,23.476816177368164,103.01509094238281,0.0,-26.62380599975586,-26.570451736450195,-2.9336118698120117
11,/Users/cjpark/Desktop/ucla_courses/cs260r/assignment4/data/td3_agent_single_v16_progress_reward/td3,193,-5466.590561787288,35999,12,186.13711524009705,-14.537010192871094,12.524653434753418,109.60470581054688,0.0,-15.814410209655762,-15.609410285949707,-1.5433956384658813
12,/Users/cjpark/Desktop/ucla_courses/cs260r/assignment4/data/td3_agent_single_v16_progress_reward/td3,188,-4996.208413710961,38999,13,206.35684609413147,-16.863496780395508,17.060672760009766,144.53250122070312,0.0,-18.798616409301758,-18.865314483642578,-1.040195345878601
13,/Users/cjpark/Desktop/ucla_courses/cs260r/assignment4/data/td3_agent_single_v16_progress_reward/td3,185,-4728.470279012407,41999,14,226.86240911483765,-25.025672912597656,21.93023109436035,132.69825744628906,0.0,-23.241600036621094,-23.264177322387695,-1.5215802192687988
14,/Users/cjpark/Desktop/ucla_courses/cs260r/assignment4/data/td3_agent_single_v16_progress_reward/td3,182,-4415.350114059448,44999,15,247.1422860622406,-27.903549194335938,24.15514373779297,76.8875732421875,0.0,-27.70050048828125,-27.636808395385742,-1.6507229804992676
15,/Users/cjpark/Desktop/ucla_courses/cs260r/assignment4/data/td3_agent_single_v16_progress_reward/td3,179,-4151.233333051205,47999,16,267.1942021846771,2.98343825340271,-6.11873722076416,143.52685546875,0.0,5.166788101196289,4.867719650268555,-1.740543007850647
16,/Users/cjpark/Desktop/ucla_courses/cs260r/assignment4/data/td3_agent_single_v16_progress_reward/td3,177,-3498.985603124818,50999,17,287.7898323535919,-23.688045501708984,20.157001495361328,92.171142578125,0.0,-23.084144592285156,-23.220497131347656,-1.6195343732833862
17,/Users/cjpark/Desktop/ucla_courses/cs260r/assignment4/data/td3_agent_single_v16_progress_reward/td3,175,-2536.094578097034,53999,18,308.08843517303467,3.1268367767333984,-7.156859397888184,92.93634033203125,0.0,3.214482307434082,3.289562702178955,0.02642643451690674
18,/Users/cjpark/Desktop/ucla_courses/cs260r/assignment4/data/td3_agent_single_v16_progress_reward/td3,173,-3790.206806474393,55628,19,319.96847009658813,-11.918105125427246,,140.04281616210938,0.0,-11.880213737487793,-12.2555570602417,-1.7208482027053833
19,/Users/cjpark/Desktop/ucla_courses/cs260r/assignment4/data/td3_agent_single_v16_progress_reward/td3,172,-2809.659690943263,58628,20,340.7742371559143,3.321409225463867,,160.2459716796875,0.0,3.8483657836914062,2.9688806533813477,-0.8571343421936035
20,/Users/cjpark/Desktop/ucla_courses/cs260r/assignment4/data/td3_agent_single_v16_progress_reward/td3,170,-2654.9249027256947,61628,21,361.1988151073456,32.494869232177734,,185.43511962890625,0.0,31.133588790893555,30.925884246826172,-0.14824125170707703
21,/Users/cjpark/Desktop/ucla_courses/cs260r/assignment4/data/td3_agent_single_v16_progress_reward/td3,169,27.300911514193352,64628,22,381.7582061290741,46.36968994140625,,355.0560302734375,0.0,49.301124572753906,50.09578323364258,0.7243208885192871
22,/Users/cjpark/Desktop/ucla_courses/cs260r/assignment4/data/td3_agent_single_v16_progress_reward/td3,167,3321.0170713897514,67628,23,402.7018721103668,101.61731719970703,,433.40850830078125,0.0,103.34169006347656,102.38162994384766,1.9108372926712036
23,/Users/cjpark/Desktop/ucla_courses/cs260r/assignment4/data/td3_agent_single_v16_progress_reward/td3,166,6396.22152129987,70628,24,424.8145160675049,125.46439361572266,,675.9268188476562,0.0,124.39783477783203,123.29888916015625,2.0320706367492676
24,/Users/cjpark/Desktop/ucla_courses/cs260r/assignment4/data/td3_agent_single_v16_progress_reward/td3,165,8566.42683833157,73628,25,445.8946301937103,289.3349914550781,,733.7154541015625,0.0,288.90386962890625,288.7188720703125,5.2005510330200195
25,/Users/cjpark/Desktop/ucla_courses/cs260r/assignment4/data/td3_agent_single_v16_progress_reward/td3,164,9927.164428852993,76628,26,467.1317732334137,279.1020812988281,,1459.04296875,0.0,274.47271728515625,275.0885009765625,4.14912223815918
26,/Users/cjpark/Desktop/ucla_courses/cs260r/assignment4/data/td3_agent_single_v16_progress_reward/td3,163,12957.648996808553,79628,27,488.24812412261963,292.6312561035156,,1124.387939453125,0.0,293.978759765625,294.9325866699219,3.5407323837280273
27,/Users/cjpark/Desktop/ucla_courses/cs260r/assignment4/data/td3_agent_single_v16_progress_reward/td3,161,12835.656512983423,82628,28,511.4935963153839,431.6947326660156,,1194.5567626953125,0.0,433.2543640136719,430.74224853515625,6.885781288146973
28,/Users/cjpark/Desktop/ucla_courses/cs260r/assignment4/data/td3_agent_single_v16_progress_reward/td3,160,12601.299235225566,85628,29,533.4142320156097,409.28662109375,,775.2902221679688,0.0,407.1141662597656,405.71441650390625,3.7189764976501465
29,/Users/cjpark/Desktop/ucla_courses/cs260r/assignment4/data/td3_agent_single_v16_progress_reward/td3,159,13971.504090565079,88628,30,554.5765590667725,441.5557861328125,,1614.7679443359375,0.0,447.9530029296875,446.71356201171875,4.426793098449707
30,/Users/cjpark/Desktop/ucla_courses/cs260r/assignment4/data/td3_agent_single_v16_progress_reward/td3,158,15903.626452830113,91628,31,577.1065258979797,527.2941284179688,,1584.812744140625,0.0,523.4843139648438,524.9074096679688,4.313364505767822
31,/Users/cjpark/Desktop/ucla_courses/cs260r/assignment4/data/td3_agent_single_v16_progress_reward/td3,158,15322.149005885665,94099,32,594.5997381210327,514.4114379882812,-540.1712646484375,1943.65576171875,0.0,520.9636840820312,521.3509521484375,5.817667484283447
32,/Users/cjpark/Desktop/ucla_courses/cs260r/assignment4/data/td3_agent_single_v16_progress_reward/td3,157,16528.123472859934,95197,33,602.9627621173859,549.443359375,-570.7429809570312,6774.3037109375,0.0,552.0084228515625,552.1386108398438,4.1245646476745605
33,/Users/cjpark/Desktop/ucla_courses/cs260r/assignment4/data/td3_agent_single_v16_progress_reward/td3,156,18007.78988147974,98197,34,626.4982500076294,680.662353515625,-708.5166015625,3288.2685546875,0.0,680.491455078125,680.1038818359375,6.5974225997924805
34,/Users/cjpark/Desktop/ucla_courses/cs260r/assignment4/data/td3_agent_single_v16_progress_reward/td3,155,18751.89732946026,101197,35,652.2120561599731,727.6419677734375,-764.039794921875,5845.7060546875,0.0,744.6302490234375,741.991943359375,4.226975917816162
35,/Users/cjpark/Desktop/ucla_courses/cs260r/assignment4/data/td3_agent_single_v16_progress_reward/td3,153,20765.35535648679,104197,36,677.5165870189667,901.2777709960938,-924.5463256835938,6614.78515625,0.0,902.6863403320312,899.6398315429688,7.552761077880859
36,/Users/cjpark/Desktop/ucla_courses/cs260r/assignment4/data/td3_agent_single_v16_progress_reward/td3,152,21833.052237494725,107197,37,701.7548789978027,872.76318359375,-898.8491821289062,3386.24658203125,0.0,869.5809326171875,868.9219360351562,7.92824649810791
37,/Users/cjpark/Desktop/ucla_courses/cs260r/assignment4/data/td3_agent_single_v16_progress_reward/td3,152,23626.744052781825,110197,38,724.727144241333,997.735595703125,-1029.84716796875,7481.814453125,0.0,1003.4287109375,1003.227294921875,9.309540748596191
38,/Users/cjpark/Desktop/ucla_courses/cs260r/assignment4/data/td3_agent_single_v16_progress_reward/td3,150,23206.417554721695,113197,39,750.5096881389618,818.641357421875,-842.5443115234375,4800.94580078125,0.0,811.6871337890625,810.0831298828125,5.356689453125
39,/Users/cjpark/Desktop/ucla_courses/cs260r/assignment4/data/td3_agent_single_v16_progress_reward/td3,149,25129.837828732867,114889,40,767.4270730018616,979.5643920898438,-1018.0992431640625,8292.1826171875,0.025,994.3787231445312,995.6967163085938,7.361748218536377
40,/Users/cjpark/Desktop/ucla_courses/cs260r/assignment4/data/td3_agent_single_v16_progress_reward/td3,149,24800.2985197005,115228,41,770.526612997055,1179.3935546875,,4848.4150390625,0.024390243902439025,1164.092529296875,1162.255615234375,10.205709457397461
41,/Users/cjpark/Desktop/ucla_courses/cs260r/assignment4/data/td3_agent_single_v16_progress_reward/td3,147,24547.867768801018,118228,42,800.736691236496,1060.3546142578125,,4031.35302734375,0.023809523809523808,1061.7525634765625,1063.58154296875,8.46235466003418
42,/Users/cjpark/Desktop/ucla_courses/cs260r/assignment4/data/td3_agent_single_v16_progress_reward/td3,146,25059.469696549077,121228,43,829.7531130313873,1196.675048828125,,10493.41796875,0.023255813953488372,1205.623291015625,1204.4178466796875,9.915082931518555
43,/Users/cjpark/Desktop/ucla_courses/cs260r/assignment4/data/td3_agent_single_v16_progress_reward/td3,144,24917.75883507937,124228,44,859.3388590812683,1139.829345703125,,17464.3203125,0.022727272727272728,1139.5782470703125,1137.0078125,7.008023738861084
44,/Users/cjpark/Desktop/ucla_courses/cs260r/assignment4/data/td3_agent_single_v16_progress_reward/td3,143,25299.78163189028,127228,45,888.5458002090454,1440.04345703125,,13788.8515625,0.022222222222222223,1432.4195556640625,1432.6240234375,9.730504035949707
45,/Users/cjpark/Desktop/ucla_courses/cs260r/assignment4/data/td3_agent_single_v16_progress_reward/td3,141,25284.024536798617,130539,47,919.8943002223969,1515.4207763671875,-1558.4080810546875,15356.5703125,0.02127659574468085,1529.070556640625,1532.351806640625,7.399265766143799
46,/Users/cjpark/Desktop/ucla_courses/cs260r/assignment4/data/td3_agent_single_v16_progress_reward/td3,141,26971.86073928986,131859,48,932.6012551784515,1233.39208984375,-1264.2191162109375,6205.7041015625,0.041666666666666664,1228.586181640625,1227.5810546875,4.856308460235596
47,/Users/cjpark/Desktop/ucla_courses/cs260r/assignment4/data/td3_agent_single_v16_progress_reward/td3,140,27098.579842873805,132434,49,939.4529321193695,1699.8709716796875,,45942.875,0.04081632653061224,1704.2080078125,1702.4276123046875,11.96202278137207
48,/Users/cjpark/Desktop/ucla_courses/cs260r/assignment4/data/td3_agent_single_v16_progress_reward/td3,139,26739.62877560153,135434,50,969.8547220230103,1557.9849853515625,,10430.70703125,0.04,1552.14501953125,1552.716796875,11.797806739807129
49,/Users/cjpark/Desktop/ucla_courses/cs260r/assignment4/data/td3_agent_single_v16_progress_reward/td3,139,27392.37374022443,136305,51,978.8333210945129,1596.8218994140625,-1638.8076171875,11820.5732421875,0.0392156862745098,1596.5615234375,1599.854736328125,11.259671211242676
50,/Users/cjpark/Desktop/ucla_courses/cs260r/assignment4/data/td3_agent_single_v16_progress_reward/td3,138,26963.032790575104,139305,52,1007.3160192966461,1241.5367431640625,-1284.9466552734375,16638.775390625,0.038461538461538464,1237.30419921875,1240.54052734375,7.590816497802734
51,/Users/cjpark/Desktop/ucla_courses/cs260r/assignment4/data/td3_agent_single_v16_progress_reward/td3,137,27676.06928271062,140319,53,1017.1975491046906,1623.646728515625,-1654.635009765625,16803.1875,0.03773584905660377,1618.428955078125,1623.555908203125,11.113492965698242
52,/Users/cjpark/Desktop/ucla_courses/cs260r/assignment4/data/td3_agent_single_v16_progress_reward/td3,137,29008.31192792179,141886,54,1032.2636091709137,1372.435546875,,90366.0078125,0.05555555555555555,1374.3265380859375,1377.7696533203125,9.559324264526367
53,/Users/cjpark/Desktop/ucla_courses/cs260r/assignment4/data/td3_agent_single_v16_progress_reward/td3,136,28845.41442315029,144886,55,1062.053437948227,1548.0384521484375,,7795.263671875,0.05454545454545454,1553.6064453125,1546.823974609375,9.401296615600586
54,/Users/cjpark/Desktop/ucla_courses/cs260r/assignment4/data/td3_agent_single_v16_progress_reward/td3,135,30240.671817211896,146273,56,1076.2577111721039,1592.4638671875,-1651.15625,22071.40625,0.07142857142857142,1616.214111328125,1612.4678955078125,10.059992790222168
55,/Users/cjpark/Desktop/ucla_courses/cs260r/assignment4/data/td3_agent_single_v16_progress_reward/td3,135,31553.78579916799,147764,57,1091.4285860061646,1561.902587890625,,17890.673828125,0.08771929824561403,1578.2142333984375,1583.68359375,9.547361373901367
56,/Users/cjpark/Desktop/ucla_courses/cs260r/assignment4/data/td3_agent_single_v16_progress_reward/td3,135,32838.67144522224,149210,58,1105.2345561981201,2036.178955078125,,15010.26953125,0.10344827586206896,2040.405029296875,2045.4539794921875,15.372276306152344
57,/Users/cjpark/Desktop/ucla_courses/cs260r/assignment4/data/td3_agent_single_v16_progress_reward/td3,134,34100.6432032332,150601,59,1118.9884233474731,2116.666748046875,-2133.78369140625,18542.8125,0.11864406779661017,2099.044921875,2101.011474609375,16.151147842407227
58,/Users/cjpark/Desktop/ucla_courses/cs260r/assignment4/data/td3_agent_single_v16_progress_reward/td3,134,34830.88153310093,151771,60,1131.6110310554504,1935.646728515625,-1981.3585205078125,23573.9453125,0.11666666666666667,1927.611083984375,1930.2916259765625,14.949342727661133
59,/Users/cjpark/Desktop/ucla_courses/cs260r/assignment4/data/td3_agent_single_v16_progress_reward/td3,133,35455.04309069179,154771,61,1161.2987821102142,1976.4708251953125,-2011.5142822265625,20252.173828125,0.11475409836065574,1957.12451171875,1961.835693359375,14.059170722961426
60,/Users/cjpark/Desktop/ucla_courses/cs260r/assignment4/data/td3_agent_single_v16_progress_reward/td3,132,35615.53159465523,157536,62,1188.2816591262817,1872.9671630859375,,34587.1953125,0.11290322580645161,1880.57958984375,1882.3499755859375,13.261775016784668
61,/Users/cjpark/Desktop/ucla_courses/cs260r/assignment4/data/td3_agent_single_v16_progress_reward/td3,131,36222.54766383971,160536,63,1218.7593479156494,2124.391845703125,,26268.89453125,0.1111111111111111,2132.546875,2138.48486328125,13.811054229736328
62,/Users/cjpark/Desktop/ucla_courses/cs260r/assignment4/data/td3_agent_single_v16_progress_reward/td3,131,37317.45726999364,161996,64,1233.135903120041,1947.231689453125,,12262.525390625,0.125,1937.9814453125,1936.8580322265625,11.97187614440918
63,/Users/cjpark/Desktop/ucla_courses/cs260r/assignment4/data/td3_agent_single_v16_progress_reward/td3,130,38380.65142478487,163405,65,1248.7518601417542,2105.381591796875,-2160.646484375,28609.6875,0.13846153846153847,2107.39697265625,2112.986328125,13.231769561767578
64,/Users/cjpark/Desktop/ucla_courses/cs260r/assignment4/data/td3_agent_single_v16_progress_reward/td3,130,39414.40999478613,164774,66,1262.9630031585693,1975.2581787109375,,17118.48046875,0.15151515151515152,1983.1497802734375,1984.563720703125,12.908857345581055
65,/Users/cjpark/Desktop/ucla_courses/cs260r/assignment4/data/td3_agent_single_v16_progress_reward/td3,130,40441.15825260883,166091,67,1276.9960193634033,2183.715576171875,-2251.856201171875,21556.802734375,0.16417910447761194,2197.148193359375,2198.274169921875,16.047054290771484
66,/Users/cjpark/Desktop/ucla_courses/cs260r/assignment4/data/td3_agent_single_v16_progress_reward/td3,129,41296.30658235389,167696,68,1292.791183233261,1990.8258056640625,,23169.65234375,0.17647058823529413,1994.4404296875,1992.0660400390625,12.467098236083984
67,/Users/cjpark/Desktop/ucla_courses/cs260r/assignment4/data/td3_agent_single_v16_progress_reward/td3,129,42266.48204969889,169050,69,1306.2919762134552,2508.2724609375,,16113.0322265625,0.18840579710144928,2515.985107421875,2521.46533203125,18.311824798583984
68,/Users/cjpark/Desktop/ucla_courses/cs260r/assignment4/data/td3_agent_single_v16_progress_reward/td3,129,43131.606979886645,170508,70,1320.1117413043976,2388.83251953125,,15732.79296875,0.2,2375.208740234375,2373.240478515625,16.657699584960938
69,/Users/cjpark/Desktop/ucla_courses/cs260r/assignment4/data/td3_agent_single_v16_progress_reward/td3,128,43608.04011146497,173508,71,1348.863613128662,2323.724609375,,36406.99609375,0.19718309859154928,2305.2470703125,2311.494384765625,18.006439208984375
70,/Users/cjpark/Desktop/ucla_courses/cs260r/assignment4/data/td3_agent_single_v16_progress_reward/td3,128,44006.27353628914,176487,72,1377.5096020698547,2429.844970703125,-2470.19140625,31008.9609375,0.19444444444444445,2409.072509765625,2411.428466796875,17.848207473754883
71,/Users/cjpark/Desktop/ucla_courses/cs260r/assignment4/data/td3_agent_single_v16_progress_reward/td3,127,43724.280749343394,177416,73,1387.0197722911835,2534.031982421875,,62700.3125,0.1917808219178082,2509.059814453125,2504.43115234375,19.752906799316406
72,/Users/cjpark/Desktop/ucla_courses/cs260r/assignment4/data/td3_agent_single_v16_progress_reward/td3,127,43124.2890842973,180416,74,1416.5847780704498,2538.043701171875,,20371.81640625,0.1891891891891892,2534.537841796875,2534.721435546875,18.480979919433594
73,/Users/cjpark/Desktop/ucla_courses/cs260r/assignment4/data/td3_agent_single_v16_progress_reward/td3,126,43601.52291262448,183416,75,1448.0577652454376,2345.44775390625,,17531.140625,0.18666666666666668,2325.84130859375,2328.56689453125,17.378196716308594
74,/Users/cjpark/Desktop/ucla_courses/cs260r/assignment4/data/td3_agent_single_v16_progress_reward/td3,126,44439.139561973956,184713,76,1460.4215700626373,2419.28759765625,-2455.53515625,15918.736328125,0.19736842105263158,2401.3818359375,2402.44384765625,17.301116943359375
75,/Users/cjpark/Desktop/ucla_courses/cs260r/assignment4/data/td3_agent_single_v16_progress_reward/td3,126,44835.325264901854,186586,77,1479.6584000587463,2563.872314453125,,130467.28125,0.19480519480519481,2590.88232421875,2582.95947265625,16.68151092529297
76,/Users/cjpark/Desktop/ucla_courses/cs260r/assignment4/data/td3_agent_single_v16_progress_reward/td3,125,45610.717393807216,187897,78,1493.4079461097717,2554.18408203125,-2587.052978515625,19996.05859375,0.20512820512820512,2557.8955078125,2559.47216796875,20.665401458740234
77,/Users/cjpark/Desktop/ucla_courses/cs260r/assignment4/data/td3_agent_single_v16_progress_reward/td3,125,44735.358793620086,190897,79,1525.3413202762604,2337.116455078125,-2378.139404296875,14099.5830078125,0.20253164556962025,2336.54541015625,2330.115966796875,16.21915054321289
78,/Users/cjpark/Desktop/ucla_courses/cs260r/assignment4/data/td3_agent_single_v16_progress_reward/td3,124,45424.00986123624,192334,80,1539.3283603191376,2391.572998046875,,40248.828125,0.2125,2384.37109375,2382.029052734375,16.20320701599121
79,/Users/cjpark/Desktop/ucla_courses/cs260r/assignment4/data/td3_agent_single_v16_progress_reward/td3,124,45638.43794534322,195334,81,1568.0661959648132,2821.700439453125,,20241.609375,0.20987654320987653,2781.10595703125,2780.8056640625,23.067604064941406
80,/Users/cjpark/Desktop/ucla_courses/cs260r/assignment4/data/td3_agent_single_v16_progress_reward/td3,124,45999.69693689471,198334,82,1596.134553194046,2524.67626953125,,23509.529296875,0.2073170731707317,2503.343017578125,2497.6611328125,19.439315795898438
81,/Users/cjpark/Desktop/ucla_courses/cs260r/assignment4/data/td3_agent_single_v16_progress_reward/td3,124,46726.83871169752,199630,83,1607.7467131614685,2672.484130859375,,30077.1640625,0.21686746987951808,2680.4189453125,2677.93603515625,20.806175231933594
82,/Users/cjpark/Desktop/ucla_courses/cs260r/assignment4/data/td3_agent_single_v16_progress_reward/td3,124,47163.94075081934,200728,84,1618.0406410694122,2139.3349609375,,17117.89453125,0.21428571428571427,2137.188232421875,2137.507080078125,15.155538558959961
83,/Users/cjpark/Desktop/ucla_courses/cs260r/assignment4/data/td3_agent_single_v16_progress_reward/td3,123,47746.11243156285,202251,85,1631.9898791313171,2198.205322265625,-2237.09912109375,32332.40234375,0.2235294117647059,2192.236572265625,2196.572509765625,19.41650390625
84,/Users/cjpark/Desktop/ucla_courses/cs260r/assignment4/data/td3_agent_single_v16_progress_reward/td3,123,48432.595542926414,203542,86,1644.2408142089844,2503.4013671875,,18766.9453125,0.23255813953488372,2500.791259765625,2507.51171875,19.856454849243164
85,/Users/cjpark/Desktop/ucla_courses/cs260r/assignment4/data/td3_agent_single_v16_progress_reward/td3,123,49040.310363874516,204969,87,1657.4868133068085,2662.2080078125,-2706.41015625,55698.25,0.2413793103448276,2668.3056640625,2674.365234375,25.33328628540039
86,/Users/cjpark/Desktop/ucla_courses/cs260r/assignment4/data/td3_agent_single_v16_progress_reward/td3,123,49675.667550989936,206282,88,1669.53435921669,2627.50830078125,,70478.1953125,0.25,2628.448974609375,2624.6953125,22.63257598876953
87,/Users/cjpark/Desktop/ucla_courses/cs260r/assignment4/data/td3_agent_single_v16_progress_reward/td3,123,50252.08965932897,207767,89,1684.590614080429,2689.857177734375,-2725.804443359375,51200.30078125,0.25842696629213485,2698.901611328125,2704.142578125,25.59836769104004
88,/Users/cjpark/Desktop/ucla_courses/cs260r/assignment4/data/td3_agent_single_v16_progress_reward/td3,123,50863.50673044355,209025,90,1696.7536351680756,2152.647705078125,-2200.43798828125,19761.677734375,0.26666666666666666,2152.666259765625,2151.65771484375,17.89664077758789
89,/Users/cjpark/Desktop/ucla_courses/cs260r/assignment4/data/td3_agent_single_v16_progress_reward/td3,123,51476.20619107871,210431,91,1710.2316401004791,2713.049560546875,-2766.60986328125,18350.3671875,0.27472527472527475,2710.6513671875,2708.814697265625,22.56678581237793
90,/Users/cjpark/Desktop/ucla_courses/cs260r/assignment4/data/td3_agent_single_v16_progress_reward/td3,122,50754.13300944078,213431,92,1741.485731124878,2771.67724609375,-2822.27490234375,37664.171875,0.2717391304347826,2763.1513671875,2759.387451171875,23.662883758544922
91,/Users/cjpark/Desktop/ucla_courses/cs260r/assignment4/data/td3_agent_single_v16_progress_reward/td3,122,51354.72692420456,214686,93,1753.9186010360718,2426.93212890625,,35200.734375,0.27956989247311825,2443.711669921875,2440.332763671875,22.404207229614258
92,/Users/cjpark/Desktop/ucla_courses/cs260r/assignment4/data/td3_agent_single_v16_progress_reward/td3,122,51934.241135311175,216032,94,1767.89324426651,2500.39208984375,,25534.35546875,0.2872340425531915,2504.99267578125,2495.889892578125,21.14838218688965
93,/Users/cjpark/Desktop/ucla_courses/cs260r/assignment4/data/td3_agent_single_v16_progress_reward/td3,121,52517.4000928841,217382,95,1781.8976781368256,2742.887939453125,,69926.5234375,0.29473684210526313,2755.01416015625,2764.58203125,24.574378967285156
94,/Users/cjpark/Desktop/ucla_courses/cs260r/assignment4/data/td3_agent_single_v16_progress_reward/td3,121,52998.9694552408,220382,96,1812.7374951839447,2618.16064453125,,34385.8984375,0.2916666666666667,2628.530029296875,2617.4501953125,25.390945434570312
95,/Users/cjpark/Desktop/ucla_courses/cs260r/assignment4/data/td3_agent_single_v16_progress_reward/td3,121,53450.07328609605,223382,97,1844.33615899086,2378.300048828125,,22006.3984375,0.28865979381443296,2361.83544921875,2353.669677734375,21.460617065429688
96,/Users/cjpark/Desktop/ucla_courses/cs260r/assignment4/data/td3_agent_single_v16_progress_reward/td3,121,53670.321992236095,224346,98,1853.1894080638885,2308.7607421875,,25992.916015625,0.2857142857142857,2307.462158203125,2310.9130859375,19.55488395690918
97,/Users/cjpark/Desktop/ucla_courses/cs260r/assignment4/data/td3_agent_single_v16_progress_reward/td3,120,53298.648758399235,227346,99,1885.4580092430115,2618.894775390625,,24924.2421875,0.2828282828282828,2590.23681640625,2591.844482421875,22.36745262145996
98,/Users/cjpark/Desktop/ucla_courses/cs260r/assignment4/data/td3_agent_single_v16_progress_reward/td3,120,53836.53884107045,228659,100,1899.0869731903076,2307.791748046875,-2348.757080078125,39875.8359375,0.29,2289.7275390625,2282.60205078125,19.707035064697266
99,/Users/cjpark/Desktop/ucla_courses/cs260r/assignment4/data/td3_agent_single_v16_progress_reward/td3,120,54883.57132766135,229960,101,1911.7112741470337,2666.25439453125,,164070.359375,0.3,2658.4716796875,2663.0576171875,23.897920608520508
100,/Users/cjpark/Desktop/ucla_courses/cs260r/assignment4/data/td3_agent_single_v16_progress_reward/td3,120,55936.25584589094,231418,102,1925.7947781085968,2601.803466796875,,24210.13671875,0.31,2613.6826171875,2618.449462890625,18.917755126953125
101,/Users/cjpark/Desktop/ucla_courses/cs260r/assignment4/data/td3_agent_single_v16_progress_reward/td3,120,56977.14988827788,232768,103,1939.1038501262665,2540.316162109375,,77057.828125,0.32,2542.65869140625,2542.7490234375,23.590253829956055
102,/Users/cjpark/Desktop/ucla_courses/cs260r/assignment4/data/td3_agent_single_v16_progress_reward/td3,119,58274.69733720084,234103,104,1952.1799001693726,2498.325927734375,-2546.0673828125,56007.4140625,0.33,2493.582275390625,2499.1181640625,23.464698791503906
103,/Users/cjpark/Desktop/ucla_courses/cs260r/assignment4/data/td3_agent_single_v16_progress_reward/td3,119,59463.52234201452,235376,105,1964.209319114685,2913.39404296875,,16265.359375,0.34,2914.737060546875,2914.010009765625,27.166336059570312
104,/Users/cjpark/Desktop/ucla_courses/cs260r/assignment4/data/td3_agent_single_v16_progress_reward/td3,119,59694.48556335686,238151,106,1990.8009951114655,2423.2880859375,-2487.5810546875,83164.84375,0.35,2435.403564453125,2432.85302734375,19.17163848876953
105,/Users/cjpark/Desktop/ucla_courses/cs260r/assignment4/data/td3_agent_single_v16_progress_reward/td3,119,60363.81319925219,241151,107,2019.5449471473694,2775.739990234375,-2816.89892578125,136262.34375,0.35,2786.474609375,2789.920654296875,28.289226531982422
106,/Users/cjpark/Desktop/ucla_courses/cs260r/assignment4/data/td3_agent_single_v16_progress_reward/td3,119,61438.92361488345,242551,108,2032.584379196167,2549.819580078125,-2606.0712890625,30566.791015625,0.36,2562.657958984375,2552.974609375,27.400222778320312
107,/Users/cjpark/Desktop/ucla_courses/cs260r/assignment4/data/td3_agent_single_v16_progress_reward/td3,119,62475.776900994,243856,109,2045.1969022750854,2522.0556640625,,66160.078125,0.37,2526.845458984375,2528.728759765625,25.723384857177734
108,/Users/cjpark/Desktop/ucla_courses/cs260r/assignment4/data/td3_agent_single_v16_progress_reward/td3,119,63641.044030201476,245574,110,2062.038266181946,2593.375732421875,,27023.220703125,0.38,2630.574462890625,2620.20751953125,24.357868194580078
109,/Users/cjpark/Desktop/ucla_courses/cs260r/assignment4/data/td3_agent_single_v16_progress_reward/td3,118,64707.69354192118,246822,111,2074.781923055649,2699.90087890625,,35118.70703125,0.39,2693.890869140625,2695.361572265625,24.900136947631836
110,/Users/cjpark/Desktop/ucla_courses/cs260r/assignment4/data/td3_agent_single_v16_progress_reward/td3,118,65779.4672306373,248129,112,2086.74218916893,2604.0126953125,-2638.24853515625,23057.197265625,0.4,2580.324951171875,2596.69677734375,26.55840492248535
111,/Users/cjpark/Desktop/ucla_courses/cs260r/assignment4/data/td3_agent_single_v16_progress_reward/td3,118,66071.32723889872,251129,113,2114.168841123581,2899.984130859375,-2952.91015625,64088.1953125,0.4,2888.945556640625,2885.12646484375,32.30221176147461
112,/Users/cjpark/Desktop/ucla_courses/cs260r/assignment4/data/td3_agent_single_v16_progress_reward/td3,118,65018.41301746154,254129,114,2142.1370120048523,2663.2080078125,-2694.854736328125,38648.1484375,0.4,2664.177001953125,2670.354248046875,25.052597045898438
113,/Users/cjpark/Desktop/ucla_courses/cs260r/assignment4/data/td3_agent_single_v16_progress_reward/td3,118,66078.50286163186,255382,115,2153.918374300003,2397.765625,,28851.134765625,0.41,2399.38818359375,2405.28955078125,23.556737899780273
114,/Users/cjpark/Desktop/ucla_courses/cs260r/assignment4/data/td3_agent_single_v16_progress_reward/td3,118,67143.55970219366,256701,116,2166.257047176361,2461.799560546875,-2510.314453125,20301.47265625,0.42,2458.333740234375,2454.5263671875,25.05828094482422
115,/Users/cjpark/Desktop/ucla_courses/cs260r/assignment4/data/td3_agent_single_v16_progress_reward/td3,118,67816.98513809936,258713,117,2187.7162170410156,2857.55712890625,-2920.326904296875,32932.23828125,0.42,2876.804443359375,2872.78515625,27.647310256958008
116,/Users/cjpark/Desktop/ucla_courses/cs260r/assignment4/data/td3_agent_single_v16_progress_reward/td3,118,68757.12882969665,259985,118,2200.966905117035,2453.3671875,-2487.206298828125,34147.484375,0.43,2445.760986328125,2435.605224609375,24.06983184814453
117,/Users/cjpark/Desktop/ucla_courses/cs260r/assignment4/data/td3_agent_single_v16_progress_reward/td3,118,69360.45910107011,260649,119,2207.2878482341766,2386.212158203125,-2409.297607421875,29264.11328125,0.43,2375.9208984375,2380.06103515625,21.99099349975586
118,/Users/cjpark/Desktop/ucla_courses/cs260r/assignment4/data/td3_agent_single_v16_progress_reward/td3,117,70276.38891949518,261953,120,2221.1863481998444,2416.51904296875,-2482.775390625,199510.890625,0.44,2441.734375,2444.48974609375,27.979171752929688
119,/Users/cjpark/Desktop/ucla_courses/cs260r/assignment4/data/td3_agent_single_v16_progress_reward/td3,117,71342.06998810153,263187,121,2233.2867200374603,2677.011474609375,-2710.56591796875,22093.84765625,0.45,2659.1533203125,2671.339599609375,24.965097427368164
120,/Users/cjpark/Desktop/ucla_courses/cs260r/assignment4/data/td3_agent_single_v16_progress_reward/td3,117,71856.12374757472,264607,122,2247.600501060486,2658.076171875,-2701.232666015625,27455.943359375,0.46,2651.4208984375,2655.12890625,27.994659423828125
121,/Users/cjpark/Desktop/ucla_courses/cs260r/assignment4/data/td3_agent_single_v16_progress_reward/td3,117,72173.62898805349,266005,123,2261.725847005844,2379.662109375,-2429.53662109375,42939.91015625,0.47,2384.050048828125,2389.653564453125,23.62580108642578
122,/Users/cjpark/Desktop/ucla_courses/cs260r/assignment4/data/td3_agent_single_v16_progress_reward/td3,117,72454.84645211852,267446,124,2276.240498304367,2769.39306640625,,37653.6953125,0.48,2782.8798828125,2783.715087890625,30.42210578918457
123,/Users/cjpark/Desktop/ucla_courses/cs260r/assignment4/data/td3_agent_single_v16_progress_reward/td3,117,72927.8055215605,268736,125,2289.041618347168,2434.31884765625,,21519.671875,0.49,2400.93994140625,2403.529541015625,25.929813385009766
124,/Users/cjpark/Desktop/ucla_courses/cs260r/assignment4/data/td3_agent_single_v16_progress_reward/td3,117,73562.423715342,270057,126,2302.5245072841644,3010.46337890625,-3058.2353515625,59458.9921875,0.5,3025.112548828125,3029.3515625,35.24283981323242
125,/Users/cjpark/Desktop/ucla_courses/cs260r/assignment4/data/td3_agent_single_v16_progress_reward/td3,117,73358.35869080969,273057,127,2332.042822122574,2225.22119140625,-2275.37255859375,43074.671875,0.5,2224.733642578125,2223.565673828125,24.749252319335938
126,/Users/cjpark/Desktop/ucla_courses/cs260r/assignment4/data/td3_agent_single_v16_progress_reward/td3,117,74349.22207891016,274360,128,2343.967318058014,2295.8759765625,,37067.4375,0.51,2299.840576171875,2298.78564453125,26.790836334228516
127,/Users/cjpark/Desktop/ucla_courses/cs260r/assignment4/data/td3_agent_single_v16_progress_reward/td3,116,75370.38156190907,275621,129,2355.8800661563873,2944.43212890625,-2982.3330078125,35353.8828125,0.52,2929.51123046875,2932.13427734375,35.48411560058594
128,/Users/cjpark/Desktop/ucla_courses/cs260r/assignment4/data/td3_agent_single_v16_progress_reward/td3,116,75913.02593461973,276916,130,2368.425805091858,3141.416015625,,32013.21875,0.53,3124.4765625,3132.74609375,40.68124008178711
129,/Users/cjpark/Desktop/ucla_courses/cs260r/assignment4/data/td3_agent_single_v16_progress_reward/td3,116,74985.62372707724,279916,131,2396.149398088455,2851.838134765625,,49553.22265625,0.53,2849.602783203125,2848.63427734375,30.145959854125977
130,/Users/cjpark/Desktop/ucla_courses/cs260r/assignment4/data/td3_agent_single_v16_progress_reward/td3,116,75365.29363446761,282580,132,2421.9768221378326,2572.55419921875,,37753.44921875,0.53,2576.36474609375,2582.080078125,29.80855941772461
131,/Users/cjpark/Desktop/ucla_courses/cs260r/assignment4/data/td3_agent_single_v16_progress_reward/td3,116,75881.68850298383,283926,133,2436.841880083084,2358.408447265625,,53681.328125,0.54,2357.742919921875,2347.15478515625,24.146438598632812
132,/Users/cjpark/Desktop/ucla_courses/cs260r/assignment4/data/td3_agent_single_v16_progress_reward/td3,116,76299.82926929953,285192,134,2453.7655081748962,1887.6497802734375,,22893.443359375,0.55,1893.1787109375,1900.093994140625,21.49567413330078
133,/Users/cjpark/Desktop/ucla_courses/cs260r/assignment4/data/td3_agent_single_v16_progress_reward/td3,116,76939.1794906424,286583,135,2468.445442199707,2559.22021484375,-2582.267822265625,50654.1875,0.56,2552.553955078125,2555.6884765625,33.217185974121094
134,/Users/cjpark/Desktop/ucla_courses/cs260r/assignment4/data/td3_agent_single_v16_progress_reward/td3,116,77111.64341202659,287953,136,2481.147709131241,2943.662353515625,-2993.724853515625,39882.265625,0.57,2949.4658203125,2954.80224609375,31.84904670715332
135,/Users/cjpark/Desktop/ucla_courses/cs260r/assignment4/data/td3_agent_single_v16_progress_reward/td3,115,77507.36643162812,290953,137,2508.583078145981,2163.643798828125,-2220.1806640625,38499.21875,0.57,2156.0859375,2166.525390625,27.06944465637207
136,/Users/cjpark/Desktop/ucla_courses/cs260r/assignment4/data/td3_agent_single_v16_progress_reward/td3,115,77691.72470174677,292275,138,2520.4714879989624,2250.579833984375,-2278.789794921875,83793.7734375,0.58,2236.265380859375,2248.80859375,26.268203735351562
137,/Users/cjpark/Desktop/ucla_courses/cs260r/assignment4/data/td3_agent_single_v16_progress_reward/td3,115,78698.76033433767,293599,139,2533.9033930301666,2294.97900390625,-2346.33056640625,41197.421875,0.59,2320.091796875,2306.98291015625,24.992328643798828
138,/Users/cjpark/Desktop/ucla_courses/cs260r/assignment4/data/td3_agent_single_v16_progress_reward/td3,115,78697.4989369765,296599,140,2561.8457021713257,2521.095947265625,-2570.718994140625,39979.2890625,0.58,2526.259033203125,2534.062255859375,30.537582397460938
139,/Users/cjpark/Desktop/ucla_courses/cs260r/assignment4/data/td3_agent_single_v16_progress_reward/td3,115,79666.54373772035,297904,141,2574.710755109787,2479.206298828125,,44602.640625,0.59,2476.701904296875,2471.08984375,31.3232364654541
140,/Users/cjpark/Desktop/ucla_courses/cs260r/assignment4/data/td3_agent_single_v16_progress_reward/td3,115,80603.37252994569,299204,142,2587.925175189972,2797.19287109375,,28884.3515625,0.6,2805.744384765625,2799.391845703125,33.4459228515625
141,/Users/cjpark/Desktop/ucla_courses/cs260r/assignment4/data/td3_agent_single_v16_progress_reward/td3,115,81225.30240426544,300510,143,2600.922231197357,2485.981689453125,,76495.625,0.61,2472.544677734375,2469.88427734375,27.343040466308594
142,/Users/cjpark/Desktop/ucla_courses/cs260r/assignment4/data/td3_agent_single_v16_progress_reward/td3,115,82104.00014930077,301781,144,2614.9868681430817,2943.375732421875,-2967.703369140625,35802.046875,0.62,2915.290771484375,2904.145751953125,35.68977355957031
143,/Users/cjpark/Desktop/ucla_courses/cs260r/assignment4/data/td3_agent_single_v16_progress_reward/td3,115,82754.23540478156,303140,145,2627.0047261714935,2911.404296875,,49929.09375,0.63,2891.3310546875,2898.5654296875,33.797019958496094
144,/Users/cjpark/Desktop/ucla_courses/cs260r/assignment4/data/td3_agent_single_v16_progress_reward/td3,115,83773.60447790747,304517,146,2641.6105971336365,2343.42236328125,-2400.748291015625,25091.900390625,0.64,2370.83984375,2361.57421875,28.859607696533203
145,/Users/cjpark/Desktop/ucla_courses/cs260r/assignment4/data/td3_agent_single_v16_progress_reward/td3,115,84412.34292800893,305832,147,2654.686112165451,2654.467529296875,,40556.54296875,0.65,2655.148193359375,2657.106689453125,29.846115112304688
146,/Users/cjpark/Desktop/ucla_courses/cs260r/assignment4/data/td3_agent_single_v16_progress_reward/td3,115,84430.0029848955,307120,148,2666.35603928566,2707.62841796875,,53595.53515625,0.65,2698.93212890625,2711.3330078125,35.4083366394043
147,/Users/cjpark/Desktop/ucla_courses/cs260r/assignment4/data/td3_agent_single_v16_progress_reward/td3,115,85194.60396726444,308459,149,2679.357700109482,2728.39404296875,-2750.476318359375,200854.671875,0.66,2730.961669921875,2718.106689453125,34.074432373046875
148,/Users/cjpark/Desktop/ucla_courses/cs260r/assignment4/data/td3_agent_single_v16_progress_reward/td3,115,86188.14124483224,309862,150,2692.5070819854736,3244.579833984375,,211453.09375,0.67,3246.451171875,3260.14453125,35.52333068847656
149,/Users/cjpark/Desktop/ucla_courses/cs260r/assignment4/data/td3_agent_single_v16_progress_reward/td3,114,85533.13023312986,312862,151,2721.679437160492,2782.90234375,,44475.7890625,0.67,2783.05517578125,2777.71044921875,32.87968826293945
150,/Users/cjpark/Desktop/ucla_courses/cs260r/assignment4/data/td3_agent_single_v16_progress_reward/td3,114,86547.68187494157,314224,152,2736.7187130451202,2388.585205078125,,45608.4765625,0.68,2404.666259765625,2405.812744140625,26.76891326904297
151,/Users/cjpark/Desktop/ucla_courses/cs260r/assignment4/data/td3_agent_single_v16_progress_reward/td3,114,86982.96997301008,315495,153,2748.607264995575,2810.318603515625,-2870.205078125,30587.498046875,0.69,2816.05419921875,2819.751953125,29.692420959472656
152,/Users/cjpark/Desktop/ucla_courses/cs260r/assignment4/data/td3_agent_single_v16_progress_reward/td3,114,86208.6044773788,317171,154,2763.073856115341,2687.97607421875,-2740.48388671875,62833.484375,0.68,2705.74462890625,2701.4638671875,29.333751678466797
153,/Users/cjpark/Desktop/ucla_courses/cs260r/assignment4/data/td3_agent_single_v16_progress_reward/td3,114,86018.54160781117,320968,156,2802.8756351470947,2648.021240234375,,52325.9296875,0.67,2646.614501953125,2632.215087890625,33.23904037475586
154,/Users/cjpark/Desktop/ucla_courses/cs260r/assignment4/data/td3_agent_single_v16_progress_reward/td3,114,86049.79079420066,322275,157,2814.6219301223755,2835.53076171875,-2865.882080078125,53704.4765625,0.67,2823.47021484375,2826.4853515625,36.56017303466797
155,/Users/cjpark/Desktop/ucla_courses/cs260r/assignment4/data/td3_agent_single_v16_progress_reward/td3,114,86076.85135809824,323643,158,2826.209321975708,2784.84130859375,-2824.055908203125,57716.6328125,0.67,2780.4609375,2784.240966796875,33.627967834472656
156,/Users/cjpark/Desktop/ucla_courses/cs260r/assignment4/data/td3_agent_single_v16_progress_reward/td3,114,86085.07746024411,324976,159,2837.9649732112885,2720.26904296875,,37020.6171875,0.67,2728.36962890625,2727.74365234375,32.366851806640625
157,/Users/cjpark/Desktop/ucla_courses/cs260r/assignment4/data/td3_agent_single_v16_progress_reward/td3,114,86390.19856394999,326356,160,2849.954767227173,2449.31982421875,,78872.625,0.68,2458.103759765625,2453.97998046875,28.45751953125
158,/Users/cjpark/Desktop/ucla_courses/cs260r/assignment4/data/td3_agent_single_v16_progress_reward/td3,114,86597.3617423264,327949,161,2865.1130821704865,2965.48583984375,-3006.517578125,45933.546875,0.69,2976.600830078125,2971.323974609375,36.4869384765625
159,/Users/cjpark/Desktop/ucla_courses/cs260r/assignment4/data/td3_agent_single_v16_progress_reward/td3,114,87214.91896164071,329186,162,2875.8894131183624,2772.608642578125,,38726.77734375,0.7,2796.212890625,2783.53173828125,30.655532836914062
160,/Users/cjpark/Desktop/ucla_courses/cs260r/assignment4/data/td3_agent_single_v16_progress_reward/td3,114,87557.47033844188,330409,163,2886.6355299949646,2925.934814453125,-2965.76611328125,45032.83203125,0.71,2924.2177734375,2931.93017578125,35.523284912109375
161,/Users/cjpark/Desktop/ucla_courses/cs260r/assignment4/data/td3_agent_single_v16_progress_reward/td3,114,87580.492548176,331690,164,2897.915657043457,2670.3095703125,,59278.12890625,0.71,2630.985595703125,2618.5947265625,32.31964874267578
162,/Users/cjpark/Desktop/ucla_courses/cs260r/assignment4/data/td3_agent_single_v16_progress_reward/td3,114,87600.06359537979,332986,165,2908.732945203781,2745.42236328125,,29469.42578125,0.71,2741.888671875,2738.037353515625,33.340370178222656
163,/Users/cjpark/Desktop/ucla_courses/cs260r/assignment4/data/td3_agent_single_v16_progress_reward/td3,114,87626.45549260065,334232,166,2919.43155002594,2752.029052734375,,21995.97265625,0.71,2752.78271484375,2754.73095703125,30.68988037109375
164,/Users/cjpark/Desktop/ucla_courses/cs260r/assignment4/data/td3_agent_single_v16_progress_reward/td3,114,87299.96869914884,337232,167,2944.645064353943,2746.83740234375,,114703.359375,0.7,2808.448974609375,2816.33642578125,29.17232322692871
165,/Users/cjpark/Desktop/ucla_courses/cs260r/assignment4/data/td3_agent_single_v16_progress_reward/td3,114,87403.41029960064,338510,168,2955.365275144577,3061.27880859375,,129705.1953125,0.7,3069.32080078125,3082.06103515625,35.549896240234375
166,/Users/cjpark/Desktop/ucla_courses/cs260r/assignment4/data/td3_agent_single_v16_progress_reward/td3,114,87411.811345377,339790,169,2966.9064450263977,2772.404296875,,39836.06640625,0.7,2769.609130859375,2776.107421875,33.33692932128906
167,/Users/cjpark/Desktop/ucla_courses/cs260r/assignment4/data/td3_agent_single_v16_progress_reward/td3,114,87472.72404292696,341079,170,2978.3331310749054,3313.1904296875,-3346.5244140625,59718.3359375,0.7,3288.552001953125,3291.725341796875,38.659950256347656
168,/Users/cjpark/Desktop/ucla_courses/cs260r/assignment4/data/td3_agent_single_v16_progress_reward/td3,114,87528.10521534966,344079,171,3004.422483921051,2815.829345703125,-2853.242919921875,87762.3125,0.7,2801.64208984375,2799.807861328125,32.93086242675781
169,/Users/cjpark/Desktop/ucla_courses/cs260r/assignment4/data/td3_agent_single_v16_progress_reward/td3,114,87899.90584427986,345348,172,3014.7787392139435,3042.23974609375,,103950.0625,0.71,3032.073486328125,3033.841796875,37.02558517456055
170,/Users/cjpark/Desktop/ucla_courses/cs260r/assignment4/data/td3_agent_single_v16_progress_reward/td3,103,88762.91152811349,346602,173,3360.7133152484894,3065.274169921875,,47149.74609375,0.72,3042.749267578125,3042.107666015625,32.390743255615234
171,/Users/cjpark/Desktop/ucla_courses/cs260r/assignment4/data/td3_agent_single_v16_progress_reward/td3,103,89865.01763246194,347912,174,3374.450918197632,2643.56640625,,78894.7578125,0.73,2655.010986328125,2645.51708984375,34.05169677734375
172,/Users/cjpark/Desktop/ucla_courses/cs260r/assignment4/data/td3_agent_single_v16_progress_reward/td3,103,90161.26246632071,349244,175,3387.7049441337585,2946.86572265625,,144115.28125,0.74,2974.24609375,2984.1806640625,36.744529724121094
173,/Users/cjpark/Desktop/ucla_courses/cs260r/assignment4/data/td3_agent_single_v16_progress_reward/td3,102,90176.87648637805,350515,176,3403.1392090320587,3258.7490234375,-3262.86083984375,52119.203125,0.74,3212.8349609375,3231.0048828125,39.351966857910156
174,/Users/cjpark/Desktop/ucla_courses/cs260r/assignment4/data/td3_agent_single_v16_progress_reward/td3,102,90523.22867119251,351778,177,3417.099080324173,2893.478271484375,,47953.7734375,0.75,2890.46533203125,2885.942626953125,36.85817337036133
175,/Users/cjpark/Desktop/ucla_courses/cs260r/assignment4/data/td3_agent_single_v16_progress_reward/td3,102,90555.99814759148,353029,178,3428.0805671215057,2862.02734375,-2931.803466796875,24309.1875,0.75,2870.6015625,2866.969482421875,34.271141052246094
176,/Users/cjpark/Desktop/ucla_courses/cs260r/assignment4/data/td3_agent_single_v16_progress_reward/td3,103,91882.40688070914,354309,179,3438.7089142799377,3256.96728515625,-3293.65771484375,54534.8046875,0.76,3244.244384765625,3253.459716796875,41.52742004394531
177,/Users/cjpark/Desktop/ucla_courses/cs260r/assignment4/data/td3_agent_single_v16_progress_reward/td3,103,91718.5468292692,355382,180,3448.160206079483,3325.091064453125,,97636.359375,0.75,3341.8837890625,3340.6923828125,41.8522834777832
178,/Users/cjpark/Desktop/ucla_courses/cs260r/assignment4/data/td3_agent_single_v16_progress_reward/td3,103,91916.45228846493,356526,181,3458.426671266556,3078.76611328125,,30428.05078125,0.75,3089.356689453125,3098.54296875,35.90318298339844
179,/Users/cjpark/Desktop/ucla_courses/cs260r/assignment4/data/td3_agent_single_v16_progress_reward/td3,103,92256.89393269284,357808,182,3469.328938961029,3235.825927734375,,120743.734375,0.76,3259.22021484375,3268.0849609375,38.142635345458984
180,/Users/cjpark/Desktop/ucla_courses/cs260r/assignment4/data/td3_agent_single_v16_progress_reward/td3,103,92287.67517015287,359070,183,3480.1429822444916,3001.71875,,32700.13671875,0.76,3030.25048828125,3028.7265625,36.84851837158203
181,/Users/cjpark/Desktop/ucla_courses/cs260r/assignment4/data/td3_agent_single_v16_progress_reward/td3,103,92541.86250846027,360319,184,3490.8056960105896,2998.8203125,-3027.793701171875,39886.3984375,0.77,2993.273681640625,2990.226318359375,39.04302215576172
182,/Users/cjpark/Desktop/ucla_courses/cs260r/assignment4/data/td3_agent_single_v16_progress_reward/td3,103,92660.70985463701,361585,185,3502.252993106842,3084.45654296875,-3129.726806640625,42289.4453125,0.77,3072.466796875,3073.561279296875,35.17578125
183,/Users/cjpark/Desktop/ucla_courses/cs260r/assignment4/data/td3_agent_single_v16_progress_reward/td3,103,92672.47827678114,363016,186,3514.840047121048,2961.095703125,,41612.1484375,0.77,2984.122802734375,2960.58154296875,37.897064208984375
184,/Users/cjpark/Desktop/ucla_courses/cs260r/assignment4/data/td3_agent_single_v16_progress_reward/td3,103,92756.55621339279,364300,187,3526.1447920799255,3088.375,,26694.15625,0.77,3077.651611328125,3080.661865234375,37.50263214111328
185,/Users/cjpark/Desktop/ucla_courses/cs260r/assignment4/data/td3_agent_single_v16_progress_reward/td3,103,92787.04731167546,365576,188,3537.8007111549377,3034.963623046875,,121623.328125,0.77,3045.4072265625,3039.731201171875,36.17315673828125
186,/Users/cjpark/Desktop/ucla_courses/cs260r/assignment4/data/td3_agent_single_v16_progress_reward/td3,103,92855.40673886664,366872,189,3549.954455137253,3215.150390625,,38426.9140625,0.77,3211.006591796875,3215.76611328125,38.541038513183594
187,/Users/cjpark/Desktop/ucla_courses/cs260r/assignment4/data/td3_agent_single_v16_progress_reward/td3,103,92883.41443437507,368090,190,3561.2926840782166,3353.059326171875,,37606.21875,0.77,3353.64599609375,3360.688232421875,39.27048110961914
188,/Users/cjpark/Desktop/ucla_courses/cs260r/assignment4/data/td3_agent_single_v16_progress_reward/td3,103,92902.41425235517,369323,191,3572.2147212028503,2913.03125,-2962.72998046875,45799.44921875,0.77,2931.388916015625,2928.2373046875,33.956031799316406
189,/Users/cjpark/Desktop/ucla_courses/cs260r/assignment4/data/td3_agent_single_v16_progress_reward/td3,103,94147.04207679401,370594,192,3583.6499361991882,2679.58984375,,43466.9609375,0.78,2683.310546875,2687.565673828125,30.071393966674805
190,/Users/cjpark/Desktop/ucla_courses/cs260r/assignment4/data/td3_agent_single_v16_progress_reward/td3,103,94169.78999887731,371868,193,3594.92653799057,3072.58740234375,,57708.14453125,0.78,3047.02001953125,3055.556640625,35.89210510253906
191,/Users/cjpark/Desktop/ucla_courses/cs260r/assignment4/data/td3_agent_single_v16_progress_reward/td3,103,94191.8871379401,373095,194,3606.0531101226807,3558.76904296875,-3605.397705078125,71126.6953125,0.78,3570.529541015625,3572.717529296875,43.95799255371094
192,/Users/cjpark/Desktop/ucla_courses/cs260r/assignment4/data/td3_agent_single_v16_progress_reward/td3,103,94206.0500892414,374497,195,3619.1145191192627,3423.80078125,-3462.7978515625,37048.58984375,0.78,3418.08935546875,3416.37109375,42.6920166015625
193,/Users/cjpark/Desktop/ucla_courses/cs260r/assignment4/data/td3_agent_single_v16_progress_reward/td3,103,94299.21084601233,375895,196,3632.3179631233215,3256.9228515625,-3282.5068359375,54184.65625,0.79,3244.92236328125,3262.970703125,40.40266418457031
194,/Users/cjpark/Desktop/ucla_courses/cs260r/assignment4/data/td3_agent_single_v16_progress_reward/td3,103,94421.85673998189,377104,197,3643.477554321289,3355.03369140625,,75687.046875,0.8,3363.758056640625,3360.81982421875,39.109222412109375
195,/Users/cjpark/Desktop/ucla_courses/cs260r/assignment4/data/td3_agent_single_v16_progress_reward/td3,103,94750.59908184803,378431,198,3655.0746853351593,3347.71923828125,-3399.859130859375,56839.09375,0.81,3361.61767578125,3353.0615234375,38.931678771972656
196,/Users/cjpark/Desktop/ucla_courses/cs260r/assignment4/data/td3_agent_single_v16_progress_reward/td3,103,95676.28932255026,379713,199,3667.783828020096,3515.487548828125,-3530.768310546875,49904.859375,0.82,3487.706787109375,3481.47509765625,40.89028549194336
197,/Users/cjpark/Desktop/ucla_courses/cs260r/assignment4/data/td3_agent_single_v16_progress_reward/td3,103,95688.20788769318,380990,200,3678.324865102768,3666.87939453125,,75470.4453125,0.82,3672.3505859375,3670.67138671875,43.03888702392578
198,/Users/cjpark/Desktop/ucla_courses/cs260r/assignment4/data/td3_agent_single_v16_progress_reward/td3,103,95706.3359994467,382261,201,3690.028472185135,3272.18017578125,-3300.37451171875,206958.8125,0.82,3279.68017578125,3285.396240234375,38.07713317871094
199,/Users/cjpark/Desktop/ucla_courses/cs260r/assignment4/data/td3_agent_single_v16_progress_reward/td3,103,95723.50100407358,383551,202,3701.2476851940155,3410.772705078125,-3466.06201171875,50856.7421875,0.82,3424.89501953125,3418.1435546875,40.99885559082031
200,/Users/cjpark/Desktop/ucla_courses/cs260r/assignment4/data/td3_agent_single_v16_progress_reward/td3,103,95761.7073603529,384839,203,3712.6986701488495,3307.369384765625,-3313.245361328125,35856.609375,0.82,3291.6796875,3287.401611328125,39.76744842529297
201,/Users/cjpark/Desktop/ucla_courses/cs260r/assignment4/data/td3_agent_single_v16_progress_reward/td3,103,95783.91677845972,386081,204,3723.6034002304077,3473.702392578125,-3516.685302734375,43388.7109375,0.82,3485.0703125,3489.4150390625,43.033843994140625
202,/Users/cjpark/Desktop/ucla_courses/cs260r/assignment4/data/td3_agent_single_v16_progress_reward/td3,103,95694.86331307165,387668,205,3737.809582233429,3451.15380859375,,48209.703125,0.82,3449.05615234375,3458.23095703125,42.32806396484375
203,/Users/cjpark/Desktop/ucla_courses/cs260r/assignment4/data/td3_agent_single_v16_progress_reward/td3,103,96551.29641367229,388957,206,3749.365710258484,3707.281982421875,-3734.123779296875,26876.3515625,0.82,3695.61083984375,3703.681884765625,43.061119079589844
204,/Users/cjpark/Desktop/ucla_courses/cs260r/assignment4/data/td3_agent_single_v16_progress_reward/td3,103,97037.60807149902,390207,207,3760.0759060382843,3431.418701171875,-3487.29150390625,63479.5390625,0.83,3446.317626953125,3441.770263671875,40.54411697387695
205,/Users/cjpark/Desktop/ucla_courses/cs260r/assignment4/data/td3_agent_single_v16_progress_reward/td3,103,96797.47269807095,391662,208,3772.2319569587708,3737.48193359375,,45409.53515625,0.82,3716.90625,3714.310546875,44.522682189941406
206,/Users/cjpark/Desktop/ucla_courses/cs260r/assignment4/data/td3_agent_single_v16_progress_reward/td3,103,96852.96397680444,393025,209,3785.9134850502014,2773.58544921875,-2812.27880859375,29728.66015625,0.82,2778.03173828125,2776.9140625,29.647640228271484
207,/Users/cjpark/Desktop/ucla_courses/cs260r/assignment4/data/td3_agent_single_v16_progress_reward/td3,103,96779.03289553126,394116,210,3796.3539650440216,3518.476806640625,,54542.85546875,0.81,3487.04296875,3504.413330078125,43.23931884765625
208,/Users/cjpark/Desktop/ucla_courses/cs260r/assignment4/data/td3_agent_single_v16_progress_reward/td3,103,96800.20805497009,395424,211,3811.9056849479675,3271.53173828125,,55782.6796875,0.81,3257.912353515625,3274.471923828125,39.95997619628906
209,/Users/cjpark/Desktop/ucla_courses/cs260r/assignment4/data/td3_agent_single_v16_progress_reward/td3,103,96812.83700578588,396692,212,3828.277563095093,3386.778076171875,,99511.890625,0.81,3383.6552734375,3372.810546875,38.53164291381836
210,/Users/cjpark/Desktop/ucla_courses/cs260r/assignment4/data/td3_agent_single_v16_progress_reward/td3,103,97602.2086584068,397991,213,3843.4190599918365,3832.97607421875,-3890.65771484375,102484.9765625,0.82,3864.16796875,3853.45751953125,46.17744827270508
211,/Users/cjpark/Desktop/ucla_courses/cs260r/assignment4/data/td3_agent_single_v16_progress_reward/td3,103,99568.52386295324,400991,214,3873.104782104492,3646.441162109375,-3661.688720703125,29483.537109375,0.82,3610.873291015625,3610.296875,39.908138275146484
212,/Users/cjpark/Desktop/ucla_courses/cs260r/assignment4/data/td3_agent_single_v16_progress_reward/td3,103,99590.61740271104,402301,215,3886.7077350616455,2862.72900390625,-2881.216552734375,44054.9921875,0.82,2843.163330078125,2856.20263671875,31.26921844482422
213,/Users/cjpark/Desktop/ucla_courses/cs260r/assignment4/data/td3_agent_single_v16_progress_reward/td3,103,99618.65807894024,403671,216,3899.7048501968384,3696.7666015625,-3742.05029296875,52917.7578125,0.82,3694.83349609375,3704.074951171875,44.885650634765625
214,/Users/cjpark/Desktop/ucla_courses/cs260r/assignment4/data/td3_agent_single_v16_progress_reward/td3,103,99776.25905385861,406671,217,3927.8195230960846,3180.427001953125,-3191.444091796875,47657.8828125,0.82,3154.876953125,3145.5986328125,41.38774871826172
215,/Users/cjpark/Desktop/ucla_courses/cs260r/assignment4/data/td3_agent_single_v16_progress_reward/td3,103,99784.18355782243,407963,218,3939.6937351226807,3319.48046875,-3332.33984375,38454.015625,0.82,3297.46240234375,3298.327392578125,37.63039779663086
216,/Users/cjpark/Desktop/ucla_courses/cs260r/assignment4/data/td3_agent_single_v16_progress_reward/td3,103,99786.94120134525,410963,219,3967.863054037094,3241.693603515625,-3258.436767578125,50907.68359375,0.82,3230.033935546875,3244.61865234375,40.90653991699219
217,/Users/cjpark/Desktop/ucla_courses/cs260r/assignment4/data/td3_agent_single_v16_progress_reward/td3,103,99806.41374686784,412223,220,3979.4773530960083,3733.884765625,-3754.466796875,118356.2890625,0.82,3715.88232421875,3727.4462890625,42.29465103149414
218,/Users/cjpark/Desktop/ucla_courses/cs260r/assignment4/data/td3_agent_single_v16_progress_reward/td3,103,99821.47869775705,413499,221,3991.2795650959015,3419.01708984375,-3464.35302734375,120769.9296875,0.82,3411.458251953125,3418.31591796875,40.807403564453125
219,/Users/cjpark/Desktop/ucla_courses/cs260r/assignment4/data/td3_agent_single_v16_progress_reward/td3,103,99823.21334478457,414761,222,4002.8693330287933,3614.077392578125,-3636.763427734375,78011.609375,0.82,3607.962646484375,3603.256103515625,43.93059539794922
220,/Users/cjpark/Desktop/ucla_courses/cs260r/assignment4/data/td3_agent_single_v16_progress_reward/td3,103,99836.36673553305,416084,223,4014.9114952087402,3368.417724609375,,48822.5546875,0.82,3373.729248046875,3382.88037109375,39.461273193359375
221,/Users/cjpark/Desktop/ucla_courses/cs260r/assignment4/data/td3_agent_single_v16_progress_reward/td3,103,99866.03506352557,417467,224,4026.7839691638947,3967.719970703125,-3983.48583984375,48398.3984375,0.82,3951.306396484375,3960.83642578125,44.513946533203125
222,/Users/cjpark/Desktop/ucla_courses/cs260r/assignment4/data/td3_agent_single_v16_progress_reward/td3,103,99882.86804578413,418769,225,4038.864555120468,3228.8642578125,-3298.53515625,115492.4453125,0.82,3263.907470703125,3267.27880859375,40.20025634765625
223,/Users/cjpark/Desktop/ucla_courses/cs260r/assignment4/data/td3_agent_single_v16_progress_reward/td3,103,99891.38845054717,420070,226,4050.699007987976,3435.95751953125,,55855.2421875,0.82,3467.12451171875,3467.7841796875,42.06243896484375
224,/Users/cjpark/Desktop/ucla_courses/cs260r/assignment4/data/td3_agent_single_v16_progress_reward/td3,103,100260.81494243053,421353,227,4062.5691392421722,3563.751953125,-3618.36572265625,66046.1875,0.83,3556.517578125,3566.3720703125,41.31351852416992
225,/Users/cjpark/Desktop/ucla_courses/cs260r/assignment4/data/td3_agent_single_v16_progress_reward/td3,103,100263.34558192753,422672,228,4075.0286152362823,3785.73486328125,,55985.625,0.83,3806.78515625,3806.0703125,43.202667236328125
226,/Users/cjpark/Desktop/ucla_courses/cs260r/assignment4/data/td3_agent_single_v16_progress_reward/td3,103,100276.22785158922,424046,229,4087.821235179901,3007.94580078125,,62719.53125,0.83,3001.08642578125,3005.41552734375,33.2755012512207
227,/Users/cjpark/Desktop/ucla_courses/cs260r/assignment4/data/td3_agent_single_v16_progress_reward/td3,103,100291.21520123018,425319,230,4099.100524187088,3112.0400390625,-3177.444091796875,114810.15625,0.83,3143.13134765625,3142.089599609375,38.281070709228516
228,/Users/cjpark/Desktop/ucla_courses/cs260r/assignment4/data/td3_agent_single_v16_progress_reward/td3,103,101571.16085604571,426580,231,4111.641661167145,3386.91357421875,,63006.42578125,0.84,3401.17041015625,3407.44775390625,40.87010192871094
229,/Users/cjpark/Desktop/ucla_courses/cs260r/assignment4/data/td3_agent_single_v16_progress_reward/td3,103,102297.19464634519,428030,232,4125.41822719574,3323.27783203125,,62962.078125,0.85,3345.546875,3344.510498046875,38.161190032958984
230,/Users/cjpark/Desktop/ucla_courses/cs260r/assignment4/data/td3_agent_single_v16_progress_reward/td3,103,102319.91295905464,429286,233,4137.841313123703,3582.729248046875,,101995.234375,0.85,3567.960693359375,3551.003662109375,46.92454528808594
231,/Users/cjpark/Desktop/ucla_courses/cs260r/assignment4/data/td3_agent_single_v16_progress_reward/td3,103,102328.05467423386,430649,234,4150.1912722587585,3858.67333984375,-3894.576416015625,90020.9609375,0.85,3881.435546875,3887.19970703125,47.59979248046875
232,/Users/cjpark/Desktop/ucla_courses/cs260r/assignment4/data/td3_agent_single_v16_progress_reward/td3,103,102340.12277783168,431916,235,4161.621482133865,3449.0390625,,85966.25,0.85,3432.09912109375,3448.0576171875,40.7405891418457
233,/Users/cjpark/Desktop/ucla_courses/cs260r/assignment4/data/td3_agent_single_v16_progress_reward/td3,103,102342.17604308171,433232,236,4173.962270021439,4081.41650390625,,48987.62109375,0.85,4091.16015625,4089.18359375,48.23481750488281
234,/Users/cjpark/Desktop/ucla_courses/cs260r/assignment4/data/td3_agent_single_v16_progress_reward/td3,103,102433.14370036025,434502,237,4185.309863328934,3812.32568359375,,122835.328125,0.86,3814.23828125,3826.141845703125,46.027034759521484
235,/Users/cjpark/Desktop/ucla_courses/cs260r/assignment4/data/td3_agent_single_v16_progress_reward/td3,103,102439.85090612684,435786,238,4197.351099252701,3636.501953125,,82071.4140625,0.86,3649.506103515625,3659.43017578125,44.72779083251953
236,/Users/cjpark/Desktop/ucla_courses/cs260r/assignment4/data/td3_agent_single_v16_progress_reward/td3,103,102443.9320870459,437100,239,4209.932598114014,3806.730224609375,,43350.7265625,0.86,3802.739990234375,3812.234619140625,47.12310028076172
237,/Users/cjpark/Desktop/ucla_courses/cs260r/assignment4/data/td3_agent_single_v16_progress_reward/td3,103,102531.21410109311,438415,240,4221.857616186142,3440.7978515625,-3482.94775390625,54428.046875,0.87,3434.1171875,3424.147705078125,42.52186965942383
238,/Users/cjpark/Desktop/ucla_courses/cs260r/assignment4/data/td3_agent_single_v16_progress_reward/td3,103,102544.74746371606,439705,241,4234.149873256683,3997.01611328125,-4006.76171875,78076.75,0.87,3954.27001953125,3955.850830078125,49.1477165222168
239,/Users/cjpark/Desktop/ucla_courses/cs260r/assignment4/data/td3_agent_single_v16_progress_reward/td3,103,102554.53914309466,440995,242,4247.116670131683,3087.13720703125,-3124.085205078125,29866.890625,0.87,3076.57666015625,3087.9462890625,39.90693664550781
240,/Users/cjpark/Desktop/ucla_courses/cs260r/assignment4/data/td3_agent_single_v16_progress_reward/td3,103,102562.74998153778,442404,243,4260.46090221405,3752.03271484375,,46007.59375,0.87,3749.814697265625,3756.268798828125,46.83403396606445
241,/Users/cjpark/Desktop/ucla_courses/cs260r/assignment4/data/td3_agent_single_v16_progress_reward/td3,103,102587.31731162149,443659,244,4272.377326250076,3916.98095703125,-3931.59716796875,65538.40625,0.87,3887.990478515625,3891.5859375,48.16742706298828
242,/Users/cjpark/Desktop/ucla_courses/cs260r/assignment4/data/td3_agent_single_v16_progress_reward/td3,103,102110.52311585844,444451,245,4280.320493221283,3736.322021484375,-3768.038818359375,63688.73046875,0.86,3724.097412109375,3720.276123046875,44.700042724609375
243,/Users/cjpark/Desktop/ucla_courses/cs260r/assignment4/data/td3_agent_single_v16_progress_reward/td3,103,102112.80540045067,445816,246,4292.323418140411,3782.168212890625,,113687.875,0.86,3785.969970703125,3780.22607421875,48.25285720825195
244,/Users/cjpark/Desktop/ucla_courses/cs260r/assignment4/data/td3_agent_single_v16_progress_reward/td3,103,102133.8680041751,447091,247,4304.403743028641,3778.125244140625,-3814.22412109375,176491.109375,0.86,3793.989501953125,3778.79541015625,46.60924530029297
245,/Users/cjpark/Desktop/ucla_courses/cs260r/assignment4/data/td3_agent_single_v16_progress_reward/td3,103,102141.20431180234,448405,248,4315.9298322200775,3577.780517578125,-3620.58740234375,65232.79296875,0.86,3575.71826171875,3575.04345703125,44.671669006347656
246,/Users/cjpark/Desktop/ucla_courses/cs260r/assignment4/data/td3_agent_single_v16_progress_reward/td3,103,102139.0523008465,449734,249,4328.610681056976,3582.060546875,,61597.59375,0.86,3569.788818359375,3583.54052734375,43.15576171875
247,/Users/cjpark/Desktop/ucla_courses/cs260r/assignment4/data/td3_agent_single_v16_progress_reward/td3,103,102142.57192066664,450991,250,4341.135565042496,3436.2763671875,-3510.287353515625,55181.6171875,0.86,3468.811279296875,3463.44677734375,41.662845611572266
248,/Users/cjpark/Desktop/ucla_courses/cs260r/assignment4/data/td3_agent_single_v16_progress_reward/td3,103,103244.35839776015,452485,251,4355.057950019836,3872.00537109375,-3953.000732421875,79767.34375,0.87,3916.01708984375,3901.559814453125,46.09464645385742
249,/Users/cjpark/Desktop/ucla_courses/cs260r/assignment4/data/td3_agent_single_v16_progress_reward/td3,103,103271.49164687104,453741,252,4366.555654287338,3511.3623046875,-3545.97265625,116935.328125,0.87,3492.748779296875,3478.800048828125,43.0566520690918
250,/Users/cjpark/Desktop/ucla_courses/cs260r/assignment4/data/td3_agent_single_v16_progress_reward/td3,103,103281.06227905625,455100,253,4380.575308084488,3645.05322265625,,56171.1484375,0.87,3658.7841796875,3652.51904296875,47.83487319946289
251,/Users/cjpark/Desktop/ucla_courses/cs260r/assignment4/data/td3_agent_single_v16_progress_reward/td3,103,104156.30463006567,456354,254,4391.551940202713,3803.420166015625,,174277.40625,0.88,3796.3203125,3797.62890625,47.02203369140625
252,/Users/cjpark/Desktop/ucla_courses/cs260r/assignment4/data/td3_agent_single_v16_progress_reward/td3,103,104726.53645113013,457687,255,4403.944298028946,3333.314453125,-3398.326904296875,60283.5078125,0.89,3363.71533203125,3333.282958984375,40.006187438964844
253,/Users/cjpark/Desktop/ucla_courses/cs260r/assignment4/data/td3_agent_single_v16_progress_reward/td3,103,105265.8909338612,458933,256,4415.309506177902,3458.74267578125,-3491.21923828125,33934.6015625,0.9,3438.424072265625,3444.385986328125,46.53183364868164
254,/Users/cjpark/Desktop/ucla_courses/cs260r/assignment4/data/td3_agent_single_v16_progress_reward/td3,103,105271.37636843124,460223,257,4427.400901079178,3735.52392578125,-3782.12939453125,63918.609375,0.9,3753.2890625,3739.068115234375,45.48003387451172
255,/Users/cjpark/Desktop/ucla_courses/cs260r/assignment4/data/td3_agent_single_v16_progress_reward/td3,103,105268.23174852485,461541,258,4440.726287126541,3512.94287109375,-3558.859130859375,44206.1796875,0.9,3515.82568359375,3507.1982421875,45.484535217285156
256,/Users/cjpark/Desktop/ucla_courses/cs260r/assignment4/data/td3_agent_single_v16_progress_reward/td3,103,105281.77136346392,462826,259,4452.567414999008,3306.2255859375,,106076.84375,0.9,3311.20166015625,3326.40234375,44.657684326171875
257,/Users/cjpark/Desktop/ucla_courses/cs260r/assignment4/data/td3_agent_single_v16_progress_reward/td3,103,105291.02746191103,464107,260,4464.6218230724335,3210.360595703125,-3233.19775390625,46099.48828125,0.9,3200.272705078125,3229.694091796875,39.93772506713867
258,/Users/cjpark/Desktop/ucla_courses/cs260r/assignment4/data/td3_agent_single_v16_progress_reward/td3,103,105450.2455044462,465457,261,4477.625544309616,3663.705810546875,-3689.740234375,68628.25,0.9,3645.55810546875,3656.387451171875,45.61183166503906
259,/Users/cjpark/Desktop/ucla_courses/cs260r/assignment4/data/td3_agent_single_v16_progress_reward/td3,103,105470.67071781588,466720,262,4489.904520273209,3838.08349609375,,151727.90625,0.9,3882.68603515625,3871.07373046875,50.69136428833008
260,/Users/cjpark/Desktop/ucla_courses/cs260r/assignment4/data/td3_agent_single_v16_progress_reward/td3,103,105483.88895155743,468045,263,4503.448439121246,3505.70751953125,-3547.46142578125,136203.96875,0.9,3514.677001953125,3515.003173828125,48.0227165222168
261,/Users/cjpark/Desktop/ucla_courses/cs260r/assignment4/data/td3_agent_single_v16_progress_reward/td3,103,105480.0534455825,469314,264,4517.5130162239075,3316.827880859375,,55572.1015625,0.9,3306.60205078125,3310.905029296875,44.853782653808594
262,/Users/cjpark/Desktop/ucla_courses/cs260r/assignment4/data/td3_agent_single_v16_progress_reward/td3,103,105494.5318594044,470664,265,4533.0476059913635,3677.763671875,,39789.84375,0.9,3665.02294921875,3673.4501953125,49.95391845703125
263,/Users/cjpark/Desktop/ucla_courses/cs260r/assignment4/data/td3_agent_single_v16_progress_reward/td3,103,105499.54640428165,471934,266,4546.449346065521,3381.855224609375,,119130.7890625,0.9,3342.051513671875,3345.718994140625,43.58327865600586
264,/Users/cjpark/Desktop/ucla_courses/cs260r/assignment4/data/td3_agent_single_v16_progress_reward/td3,103,105836.8796059026,473213,267,4559.102395296097,3728.4697265625,-3759.6953125,58277.265625,0.91,3714.78369140625,3707.83984375,45.64225387573242
265,/Users/cjpark/Desktop/ucla_courses/cs260r/assignment4/data/td3_agent_single_v16_progress_reward/td3,103,105840.05071939177,474559,268,4573.0451509952545,3883.68359375,-3929.9453125,67323.640625,0.91,3883.47802734375,3885.84814453125,49.636146545410156
266,/Users/cjpark/Desktop/ucla_courses/cs260r/assignment4/data/td3_agent_single_v16_progress_reward/td3,103,105844.79182809638,475871,269,4585.776429176331,3354.369873046875,-3382.565673828125,68924.7734375,0.91,3354.172607421875,3331.5927734375,46.115821838378906
267,/Users/cjpark/Desktop/ucla_courses/cs260r/assignment4/data/td3_agent_single_v16_progress_reward/td3,103,105853.47443048538,477156,270,4599.968707084656,3672.89501953125,,36701.33984375,0.91,3678.232666015625,3686.4375,47.9758415222168
268,/Users/cjpark/Desktop/ucla_courses/cs260r/assignment4/data/td3_agent_single_v16_progress_reward/td3,103,106121.02192968191,478398,271,4614.635281324387,3407.650146484375,,72829.65625,0.92,3387.311279296875,3392.3310546875,46.837890625
269,/Users/cjpark/Desktop/ucla_courses/cs260r/assignment4/data/td3_agent_single_v16_progress_reward/td3,103,105688.1365907326,481398,272,4649.700111150742,3742.595458984375,,95405.546875,0.91,3730.919921875,3725.39892578125,49.326839447021484
270,/Users/cjpark/Desktop/ucla_courses/cs260r/assignment4/data/td3_agent_single_v16_progress_reward/td3,103,105667.08862972794,482774,273,4668.347160100937,3681.3525390625,,62947.6640625,0.91,3686.87890625,3675.466796875,51.042877197265625
271,/Users/cjpark/Desktop/ucla_courses/cs260r/assignment4/data/td3_agent_single_v16_progress_reward/td3,103,105656.79794982939,484107,274,4684.52195930481,3574.283935546875,-3619.774169921875,148287.59375,0.91,3579.71484375,3590.404541015625,47.804080963134766
272,/Users/cjpark/Desktop/ucla_courses/cs260r/assignment4/data/td3_agent_single_v16_progress_reward/td3,103,105662.1594901842,485436,275,4699.713098049164,3673.194091796875,,75062.15625,0.91,3698.45556640625,3686.210693359375,50.08884811401367
273,/Users/cjpark/Desktop/ucla_courses/cs260r/assignment4/data/td3_agent_single_v16_progress_reward/td3,103,105273.59884299764,488283,276,4729.318358182907,3256.514404296875,-3321.026611328125,142798.90625,0.9,3302.368408203125,3294.29931640625,44.491004943847656
274,/Users/cjpark/Desktop/ucla_courses/cs260r/assignment4/data/td3_agent_single_v16_progress_reward/td3,102,104815.2127878793,491283,277,4771.709230184555,3636.89111328125,-3678.87890625,80003.703125,0.89,3631.481689453125,3633.795654296875,46.65423583984375
275,/Users/cjpark/Desktop/ucla_courses/cs260r/assignment4/data/td3_agent_single_v16_progress_reward/td3,102,104819.1592474883,492604,278,4788.979215145111,3415.10693359375,,64728.91796875,0.89,3413.182861328125,3410.92041015625,45.90034484863281
276,/Users/cjpark/Desktop/ucla_courses/cs260r/assignment4/data/td3_agent_single_v16_progress_reward/td3,102,104810.4200097554,493927,279,4806.8281762599945,3193.396240234375,-3266.27294921875,95299.875,0.89,3225.32177734375,3213.421875,45.978179931640625
277,/Users/cjpark/Desktop/ucla_courses/cs260r/assignment4/data/td3_agent_single_v16_progress_reward/td3,102,105060.61765587748,495260,280,4821.428350925446,3518.950927734375,,82487.4453125,0.9,3505.760498046875,3499.408203125,49.44237518310547
278,/Users/cjpark/Desktop/ucla_courses/cs260r/assignment4/data/td3_agent_single_v16_progress_reward/td3,102,105325.17173963507,496541,281,4837.985752105713,3814.34619140625,-3849.778076171875,95789.7109375,0.91,3791.465087890625,3787.8671875,51.80728530883789
279,/Users/cjpark/Desktop/ucla_courses/cs260r/assignment4/data/td3_agent_single_v16_progress_reward/td3,102,105010.05521079894,498049,282,4855.981878995895,3618.74755859375,-3656.92724609375,71608.890625,0.9,3601.775634765625,3618.647216796875,48.4005241394043
280,/Users/cjpark/Desktop/ucla_courses/cs260r/assignment4/data/td3_agent_single_v16_progress_reward/td3,102,104756.86016443529,500061,283,4882.359331130981,3319.255615234375,-3350.822509765625,63229.875,0.89,3331.47265625,3319.796875,46.458282470703125
281,/Users/cjpark/Desktop/ucla_courses/cs260r/assignment4/data/td3_agent_single_v16_progress_reward/td3,102,104759.5785644578,501336,284,4900.9311170578,3810.901611328125,,62749.4921875,0.89,3769.39453125,3760.39404296875,47.908756256103516
282,/Users/cjpark/Desktop/ucla_courses/cs260r/assignment4/data/td3_agent_single_v16_progress_reward/td3,102,104763.74801169457,502611,285,4915.858136177063,3466.13720703125,-3507.802978515625,77601.1328125,0.89,3448.918212890625,3447.338623046875,48.84362030029297
283,/Users/cjpark/Desktop/ucla_courses/cs260r/assignment4/data/td3_agent_single_v16_progress_reward/td3,102,104782.70666624903,503857,286,4931.413311004639,3544.177978515625,-3601.1337890625,44037.8671875,0.89,3557.273681640625,3557.306396484375,48.039398193359375
284,/Users/cjpark/Desktop/ucla_courses/cs260r/assignment4/data/td3_agent_single_v16_progress_reward/td3,102,104783.66696650653,505151,287,4946.815923213959,3667.37890625,-3728.67236328125,82123.1015625,0.89,3686.64501953125,3697.87646484375,46.40465545654297
285,/Users/cjpark/Desktop/ucla_courses/cs260r/assignment4/data/td3_agent_single_v16_progress_reward/td3,102,104793.93590794365,506386,288,4962.38765001297,3173.8681640625,,106683.484375,0.89,3138.07080078125,3145.2646484375,47.250701904296875
286,/Users/cjpark/Desktop/ucla_courses/cs260r/assignment4/data/td3_agent_single_v16_progress_reward/td3,102,104809.15283849834,507616,289,4975.836738109589,3823.12353515625,,98966.90625,0.89,3834.05322265625,3838.9384765625,50.284053802490234
287,/Users/cjpark/Desktop/ucla_courses/cs260r/assignment4/data/td3_agent_single_v16_progress_reward/td3,101,104814.49733995805,509020,290,4993.83957028389,3557.044189453125,,225814.8125,0.89,3576.655517578125,3593.576171875,47.6298828125
288,/Users/cjpark/Desktop/ucla_courses/cs260r/assignment4/data/td3_agent_single_v16_progress_reward/td3,101,104817.39772048495,510312,291,5010.042120218277,3618.85009765625,,30593.75390625,0.89,3629.277587890625,3631.568603515625,47.68618392944336
289,/Users/cjpark/Desktop/ucla_courses/cs260r/assignment4/data/td3_agent_single_v16_progress_reward/td3,101,104810.51921306571,511651,292,5025.530543088913,3110.8271484375,-3152.045654296875,43675.53515625,0.89,3109.184326171875,3114.35400390625,44.82194900512695
290,/Users/cjpark/Desktop/ucla_courses/cs260r/assignment4/data/td3_agent_single_v16_progress_reward/td3,101,104816.76904840667,512994,293,5042.376038312912,3927.627197265625,,79828.7578125,0.89,3941.810791015625,3944.908203125,52.08745193481445
291,/Users/cjpark/Desktop/ucla_courses/cs260r/assignment4/data/td3_agent_single_v16_progress_reward/td3,101,104836.17058544245,514253,294,5055.733309984207,3109.55810546875,-3159.81787109375,149829.390625,0.89,3111.0078125,3115.5771484375,44.093379974365234
292,/Users/cjpark/Desktop/ucla_courses/cs260r/assignment4/data/td3_agent_single_v16_progress_reward/td3,101,104838.35169313401,515498,295,5069.938168048859,3611.576904296875,,53051.1484375,0.89,3593.07080078125,3589.90625,49.45519256591797
293,/Users/cjpark/Desktop/ucla_courses/cs260r/assignment4/data/td3_agent_single_v16_progress_reward/td3,101,104530.20053079723,516485,296,5081.647661209106,3782.070068359375,-3802.985107421875,71562.6953125,0.88,3756.0068359375,3759.036376953125,48.39487838745117
294,/Users/cjpark/Desktop/ucla_courses/cs260r/assignment4/data/td3_agent_single_v16_progress_reward/td3,101,104528.42756306281,517803,297,5098.708245038986,3678.061767578125,-3729.104248046875,54133.90625,0.88,3695.677978515625,3695.220458984375,52.004432678222656
295,/Users/cjpark/Desktop/ucla_courses/cs260r/assignment4/data/td3_agent_single_v16_progress_reward/td3,101,104545.93141112452,519080,298,5113.250506162643,4183.3193359375,,50986.2109375,0.88,4180.08837890625,4195.88232421875,51.686283111572266
296,/Users/cjpark/Desktop/ucla_courses/cs260r/assignment4/data/td3_agent_single_v16_progress_reward/td3,101,104537.17076832622,520361,299,5128.013627290726,3224.16015625,-3270.105712890625,85805.5625,0.88,3238.811767578125,3227.899169921875,45.068931579589844
297,/Users/cjpark/Desktop/ucla_courses/cs260r/assignment4/data/td3_agent_single_v16_progress_reward/td3,101,104549.83226112621,521688,300,5143.455543041229,3475.49853515625,,65608.421875,0.88,3470.382080078125,3461.3642578125,50.82502746582031
298,/Users/cjpark/Desktop/ucla_courses/cs260r/assignment4/data/td3_agent_single_v16_progress_reward/td3,101,104545.15489510325,522988,301,5158.828450202942,4052.4365234375,,88718.875,0.88,4080.9931640625,4063.564453125,55.604251861572266
299,/Users/cjpark/Desktop/ucla_courses/cs260r/assignment4/data/td3_agent_single_v16_progress_reward/td3,101,104550.78416104749,524217,302,5173.295025110245,3353.259765625,-3434.594482421875,121215.4375,0.88,3395.0400390625,3389.518310546875,48.01395797729492
300,/Users/cjpark/Desktop/ucla_courses/cs260r/assignment4/data/td3_agent_single_v16_progress_reward/td3,101,104566.54947169911,525591,303,5187.251026153564,3632.07763671875,-3669.41650390625,86297.53125,0.88,3624.477294921875,3610.00439453125,48.377037048339844
301,/Users/cjpark/Desktop/ucla_courses/cs260r/assignment4/data/td3_agent_single_v16_progress_reward/td3,101,104569.15563211663,526927,304,5203.378635168076,3351.82373046875,-3386.53662109375,160335.453125,0.88,3343.37158203125,3332.41015625,44.41981887817383
302,/Users/cjpark/Desktop/ucla_courses/cs260r/assignment4/data/td3_agent_single_v16_progress_reward/td3,101,104695.22034413599,528259,305,5218.234648227692,3872.19775390625,-3922.670654296875,117080.28125,0.88,3878.12744140625,3883.217041015625,51.517486572265625
303,/Users/cjpark/Desktop/ucla_courses/cs260r/assignment4/data/td3_agent_single_v16_progress_reward/td3,101,104700.01810634842,529600,306,5232.729474067688,3829.643798828125,,83084.296875,0.88,3812.6875,3808.6572265625,49.951499938964844
304,/Users/cjpark/Desktop/ucla_courses/cs260r/assignment4/data/td3_agent_single_v16_progress_reward/td3,101,104714.51902418541,530820,307,5245.925218105316,3213.8056640625,,103703.203125,0.88,3195.02978515625,3194.36181640625,45.55805969238281
305,/Users/cjpark/Desktop/ucla_courses/cs260r/assignment4/data/td3_agent_single_v16_progress_reward/td3,101,104976.44402719264,532170,308,5260.259385108948,3678.20947265625,,61700.28125,0.89,3678.34228515625,3670.22021484375,49.5009880065918
306,/Users/cjpark/Desktop/ucla_courses/cs260r/assignment4/data/td3_agent_single_v16_progress_reward/td3,101,104977.68741260507,533415,309,5273.7824602127075,4206.994140625,-4242.2314453125,50524.33203125,0.89,4195.0361328125,4196.6083984375,55.64879608154297
307,/Users/cjpark/Desktop/ucla_courses/cs260r/assignment4/data/td3_agent_single_v16_progress_reward/td3,97,105235.2476444998,534653,310,5472.509949207306,3659.25048828125,-3711.84033203125,43497.4453125,0.9,3670.93798828125,3667.68212890625,50.94532012939453
308,/Users/cjpark/Desktop/ucla_courses/cs260r/assignment4/data/td3_agent_single_v16_progress_reward/td3,97,105232.01391403777,535927,311,5486.800648927689,3341.486328125,-3388.089111328125,84883.1640625,0.9,3311.703369140625,3323.480712890625,45.73081970214844
309,/Users/cjpark/Desktop/ucla_courses/cs260r/assignment4/data/td3_agent_single_v16_progress_reward/td3,97,105236.51077811509,537194,312,5509.166283130646,3443.06787109375,,98148.921875,0.9,3422.802490234375,3422.25439453125,45.448486328125
310,/Users/cjpark/Desktop/ucla_courses/cs260r/assignment4/data/td3_agent_single_v16_progress_reward/td3,97,105236.18580498119,538470,313,5528.82200217247,3902.05078125,,39112.51953125,0.9,3899.571044921875,3887.0537109375,52.05128860473633
311,/Users/cjpark/Desktop/ucla_courses/cs260r/assignment4/data/td3_agent_single_v16_progress_reward/td3,97,105430.09921225082,539737,314,5542.591756105423,3522.8388671875,-3594.03173828125,67490.0,0.91,3530.4619140625,3536.7568359375,46.78721237182617
312,/Users/cjpark/Desktop/ucla_courses/cs260r/assignment4/data/td3_agent_single_v16_progress_reward/td3,97,105447.39381549101,541039,315,5556.697914123535,3623.32373046875,-3662.13330078125,37726.30859375,0.91,3622.514892578125,3619.79052734375,49.41313171386719
313,/Users/cjpark/Desktop/ucla_courses/cs260r/assignment4/data/td3_agent_single_v16_progress_reward/td3,97,105450.16629134704,542334,316,5575.652935266495,3551.275146484375,,85883.375,0.91,3498.920654296875,3492.2392578125,48.22294235229492
314,/Users/cjpark/Desktop/ucla_courses/cs260r/assignment4/data/td3_agent_single_v16_progress_reward/td3,97,105635.94888704435,543620,317,5592.245796203613,3468.1103515625,,73619.8671875,0.92,3463.956298828125,3476.68603515625,45.56797790527344
315,/Users/cjpark/Desktop/ucla_courses/cs260r/assignment4/data/td3_agent_single_v16_progress_reward/td3,97,105638.16899167567,544919,318,5606.336232185364,3855.031494140625,-3878.92724609375,475563.6875,0.92,3840.246337890625,3824.39599609375,52.413551330566406
316,/Users/cjpark/Desktop/ucla_courses/cs260r/assignment4/data/td3_agent_single_v16_progress_reward/td3,97,106386.72289675282,546197,319,5623.544746160507,4134.22265625,-4161.4638671875,27309.625,0.93,4127.0439453125,4119.46044921875,54.070281982421875
317,/Users/cjpark/Desktop/ucla_courses/cs260r/assignment4/data/td3_agent_single_v16_progress_reward/td3,96,106383.72683022404,547540,320,5645.591250896454,3698.99951171875,,109569.515625,0.93,3673.4267578125,3659.54736328125,49.71270751953125
318,/Users/cjpark/Desktop/ucla_courses/cs260r/assignment4/data/td3_agent_single_v16_progress_reward/td3,96,106395.8075877756,548762,321,5666.917659282684,3291.611328125,,100136.5234375,0.93,3320.230712890625,3326.457763671875,44.0888671875
319,/Users/cjpark/Desktop/ucla_courses/cs260r/assignment4/data/td3_agent_single_v16_progress_reward/td3,96,106404.26045673655,550055,322,5686.666131973267,3555.830810546875,-3595.17919921875,56052.234375,0.93,3558.191650390625,3547.55908203125,47.33936309814453
320,/Users/cjpark/Desktop/ucla_courses/cs260r/assignment4/data/td3_agent_single_v16_progress_reward/td3,96,106410.86837997555,551321,323,5700.922787189484,4030.771484375,-4094.42822265625,30580.04296875,0.93,4032.326171875,4032.5703125,52.67137908935547
321,/Users/cjpark/Desktop/ucla_courses/cs260r/assignment4/data/td3_agent_single_v16_progress_reward/td3,96,106423.99389570692,552606,324,5716.018245220184,3597.866455078125,,60966.9765625,0.93,3575.6962890625,3575.61962890625,46.322628021240234
322,/Users/cjpark/Desktop/ucla_courses/cs260r/assignment4/data/td3_agent_single_v16_progress_reward/td3,96,106416.80589017444,553869,325,5729.470015048981,3983.934814453125,-4060.4404296875,65868.859375,0.93,3995.43115234375,4010.091064453125,53.53805923461914
323,/Users/cjpark/Desktop/ucla_courses/cs260r/assignment4/data/td3_agent_single_v16_progress_reward/td3,96,106420.41851205929,555129,326,5743.07802605629,3699.93701171875,-3762.9208984375,50937.1171875,0.93,3710.3193359375,3722.939208984375,51.19964599609375
324,/Users/cjpark/Desktop/ucla_courses/cs260r/assignment4/data/td3_agent_single_v16_progress_reward/td3,96,106431.89684570862,556370,327,5755.6448493003845,3969.17626953125,,51226.53125,0.93,3979.7958984375,3986.1689453125,53.40001678466797
325,/Users/cjpark/Desktop/ucla_courses/cs260r/assignment4/data/td3_agent_single_v16_progress_reward/td3,96,106437.1072323041,557670,328,5769.777394294739,3602.314208984375,,45743.19921875,0.93,3600.87158203125,3597.177490234375,49.89815139770508
326,/Users/cjpark/Desktop/ucla_courses/cs260r/assignment4/data/td3_agent_single_v16_progress_reward/td3,96,106151.2677430547,559620,329,5790.900581121445,3513.203369140625,,43242.16015625,0.92,3507.735595703125,3514.00390625,44.772071838378906
327,/Users/cjpark/Desktop/ucla_courses/cs260r/assignment4/data/td3_agent_single_v16_progress_reward/td3,96,106146.63456164232,560895,330,5804.080972194672,3828.398193359375,-3878.64453125,44194.32421875,0.92,3844.7021484375,3834.37353515625,47.44896697998047
328,/Users/cjpark/Desktop/ucla_courses/cs260r/assignment4/data/td3_agent_single_v16_progress_reward/td3,96,106149.71718344625,562194,331,5818.4670379161835,3309.0673828125,,90037.609375,0.92,3307.6181640625,3293.833984375,46.65305709838867
329,/Users/cjpark/Desktop/ucla_courses/cs260r/assignment4/data/td3_agent_single_v16_progress_reward/td3,96,106160.02711463263,563421,332,5832.2118310928345,3528.78759765625,-3623.444091796875,91838.0,0.92,3600.601318359375,3606.6728515625,47.00311279296875
330,/Users/cjpark/Desktop/ucla_courses/cs260r/assignment4/data/td3_agent_single_v16_progress_reward/td3,96,106150.631784643,564753,333,5846.061543226242,4067.59375,-4109.5234375,96258.0,0.92,4044.93603515625,4042.607666015625,51.806026458740234
331,/Users/cjpark/Desktop/ucla_courses/cs260r/assignment4/data/td3_agent_single_v16_progress_reward/td3,96,106142.83175938275,566086,334,5859.935448169708,3762.160400390625,,101154.265625,0.92,3740.2470703125,3736.651123046875,51.59413528442383
332,/Users/cjpark/Desktop/ucla_courses/cs260r/assignment4/data/td3_agent_single_v16_progress_reward/td3,96,106141.29213001818,567483,335,5880.322560071945,3692.38720703125,-3755.281494140625,65600.1796875,0.92,3682.612060546875,3697.738525390625,49.5384407043457
333,/Users/cjpark/Desktop/ucla_courses/cs260r/assignment4/data/td3_agent_single_v16_progress_reward/td3,96,106142.52654671176,568865,336,5901.465412139893,4050.371337890625,-4124.2666015625,235053.765625,0.92,4079.370849609375,4094.429443359375,51.0457878112793
334,/Users/cjpark/Desktop/ucla_courses/cs260r/assignment4/data/td3_agent_single_v16_progress_reward/td3,96,106143.7596128817,570256,337,5919.603007078171,4136.65283203125,,88520.21875,0.92,4138.56201171875,4131.5078125,55.517669677734375
335,/Users/cjpark/Desktop/ucla_courses/cs260r/assignment4/data/td3_agent_single_v16_progress_reward/td3,96,106134.62461340343,572767,338,5949.870787143707,3697.25439453125,-3721.4541015625,91483.859375,0.92,3666.452880859375,3655.505859375,50.44881057739258
336,/Users/cjpark/Desktop/ucla_courses/cs260r/assignment4/data/td3_agent_single_v16_progress_reward/td3,96,106140.9306838513,574168,339,5965.120920181274,3875.3466796875,,83182.078125,0.92,3857.00048828125,3877.873779296875,52.03181457519531
337,/Users/cjpark/Desktop/ucla_courses/cs260r/assignment4/data/td3_agent_single_v16_progress_reward/td3,96,106132.66835261158,575447,340,5981.0385773181915,4119.99267578125,-4158.45263671875,53374.44140625,0.92,4127.03271484375,4112.716796875,53.98540496826172
338,/Users/cjpark/Desktop/ucla_courses/cs260r/assignment4/data/td3_agent_single_v16_progress_reward/td3,96,106120.53674594966,576805,341,5996.9439170360565,3640.531982421875,-3701.21337890625,51544.71484375,0.92,3651.18310546875,3651.71826171875,46.14179229736328
339,/Users/cjpark/Desktop/ucla_courses/cs260r/assignment4/data/td3_agent_single_v16_progress_reward/td3,96,106110.97557094369,578096,342,6012.2894830703735,3967.33837890625,,69360.984375,0.92,3977.71630859375,3979.58642578125,50.06430435180664
340,/Users/cjpark/Desktop/ucla_courses/cs260r/assignment4/data/td3_agent_single_v16_progress_reward/td3,96,106104.47949536546,579431,343,6027.044234991074,3871.64990234375,-3891.619873046875,85961.2890625,0.92,3836.732177734375,3844.859375,53.541969299316406
341,/Users/cjpark/Desktop/ucla_courses/cs260r/assignment4/data/td3_agent_single_v16_progress_reward/td3,96,106103.29076364152,580720,344,6041.8938682079315,3252.740966796875,,86083.140625,0.92,3234.705810546875,3247.43505859375,46.1391487121582
342,/Users/cjpark/Desktop/ucla_courses/cs260r/assignment4/data/td3_agent_single_v16_progress_reward/td3,96,106601.57375967731,582012,345,6056.808175086975,3649.3017578125,,59343.2109375,0.93,3646.54736328125,3636.77734375,51.475799560546875
343,/Users/cjpark/Desktop/ucla_courses/cs260r/assignment4/data/td3_agent_single_v16_progress_reward/td3,96,106590.10572419569,583260,346,6070.6759333610535,4152.8818359375,,207720.40625,0.93,4133.7255859375,4132.76220703125,55.49379348754883
344,/Users/cjpark/Desktop/ucla_courses/cs260r/assignment4/data/td3_agent_single_v16_progress_reward/td3,96,106589.719627455,584484,347,6084.591076135635,4081.813232421875,,112382.734375,0.93,4070.364990234375,4071.0537109375,58.39091110229492
345,/Users/cjpark/Desktop/ucla_courses/cs260r/assignment4/data/td3_agent_single_v16_progress_reward/td3,96,106596.64392837457,585740,348,6099.272113323212,3502.1708984375,,85269.109375,0.93,3506.632080078125,3528.5068359375,47.25043487548828
346,/Users/cjpark/Desktop/ucla_courses/cs260r/assignment4/data/td3_agent_single_v16_progress_reward/td3,96,106593.96874981548,587018,349,6113.481370210648,3832.9736328125,,65054.87109375,0.93,3863.56982421875,3847.2939453125,51.9716796875
347,/Users/cjpark/Desktop/ucla_courses/cs260r/assignment4/data/td3_agent_single_v16_progress_reward/td3,95,106573.11239181364,588402,350,6131.5150010585785,3741.0185546875,,42679.2265625,0.93,3746.977783203125,3743.053955078125,49.80717468261719
348,/Users/cjpark/Desktop/ucla_courses/cs260r/assignment4/data/td3_agent_single_v16_progress_reward/td3,95,106620.41108992137,589681,351,6149.517621040344,3670.435791015625,-3732.596435546875,269201.0625,0.93,3669.64111328125,3668.3056640625,50.0206413269043
349,/Users/cjpark/Desktop/ucla_courses/cs260r/assignment4/data/td3_agent_single_v16_progress_reward/td3,95,106620.71244730563,590954,352,6165.695428133011,3957.173583984375,,51132.58984375,0.93,3949.10107421875,3953.72900390625,53.37832260131836
350,/Users/cjpark/Desktop/ucla_courses/cs260r/assignment4/data/td3_agent_single_v16_progress_reward/td3,95,106615.0994183618,592221,353,6181.910874128342,4090.317138671875,-4111.6767578125,108995.765625,0.93,4026.4892578125,4044.87451171875,54.628143310546875
351,/Users/cjpark/Desktop/ucla_courses/cs260r/assignment4/data/td3_agent_single_v16_progress_reward/td3,95,106599.63704250072,593542,354,6199.795496225357,3872.50634765625,,61935.6640625,0.93,3891.848388671875,3896.916015625,51.883155822753906
352,/Users/cjpark/Desktop/ucla_courses/cs260r/assignment4/data/td3_agent_single_v16_progress_reward/td3,95,106600.7232494156,594800,355,6221.808035135269,3925.6533203125,,82168.40625,0.93,3971.845947265625,3987.1591796875,50.511390686035156
353,/Users/cjpark/Desktop/ucla_courses/cs260r/assignment4/data/td3_agent_single_v16_progress_reward/td3,95,106605.70637442719,596121,356,6240.502485990524,3902.79541015625,-3946.3720703125,57734.78125,0.93,3897.89990234375,3909.43798828125,52.1826286315918
354,/Users/cjpark/Desktop/ucla_courses/cs260r/assignment4/data/td3_agent_single_v16_progress_reward/td3,95,106573.69495335752,597859,357,6263.352858066559,3282.562255859375,-3330.249755859375,52183.09765625,0.93,3289.9189453125,3292.34814453125,49.412193298339844
355,/Users/cjpark/Desktop/ucla_courses/cs260r/assignment4/data/td3_agent_single_v16_progress_reward/td3,95,106572.89156745687,599130,358,6279.7338490486145,3787.222900390625,,212586.390625,0.93,3803.686279296875,3808.171142578125,52.236839294433594
356,/Users/cjpark/Desktop/ucla_courses/cs260r/assignment4/data/td3_agent_single_v16_progress_reward/td3,95,106559.60586387549,600468,359,6302.113906145096,4370.3544921875,,205882.09375,0.93,4359.18359375,4374.6005859375,57.397090911865234
357,/Users/cjpark/Desktop/ucla_courses/cs260r/assignment4/data/td3_agent_single_v16_progress_reward/td3,95,106540.81126771189,601757,360,6319.437084197998,3740.058349609375,-3778.783203125,73930.125,0.93,3722.696044921875,3733.8671875,52.105323791503906
358,/Users/cjpark/Desktop/ucla_courses/cs260r/assignment4/data/td3_agent_single_v16_progress_reward/td3,95,106251.54976812542,603453,361,6343.045904159546,3350.90966796875,-3406.407958984375,49441.1640625,0.92,3373.83251953125,3371.2939453125,46.48524856567383
359,/Users/cjpark/Desktop/ucla_courses/cs260r/assignment4/data/td3_agent_single_v16_progress_reward/td3,95,106248.76388059484,604722,362,6361.476029157639,3940.578125,,75323.28125,0.92,3955.9091796875,3950.2490234375,54.09836196899414
360,/Users/cjpark/Desktop/ucla_courses/cs260r/assignment4/data/td3_agent_single_v16_progress_reward/td3,95,106238.3448869641,606156,363,6377.634726285934,4117.60595703125,,125377.9375,0.92,4103.23046875,4105.89599609375,52.87556457519531
361,/Users/cjpark/Desktop/ucla_courses/cs260r/assignment4/data/td3_agent_single_v16_progress_reward/td3,95,106239.66593932714,607511,364,6394.489823102951,4281.201171875,-4355.17333984375,295122.0625,0.92,4328.08349609375,4320.4267578125,53.65311813354492
362,/Users/cjpark/Desktop/ucla_courses/cs260r/assignment4/data/td3_agent_single_v16_progress_reward/td3,94,106222.62575651187,608791,365,6409.079618215561,3335.832763671875,-3384.48974609375,79571.7890625,0.92,3346.83251953125,3353.909912109375,49.697425842285156
363,/Users/cjpark/Desktop/ucla_courses/cs260r/assignment4/data/td3_agent_single_v16_progress_reward/td3,94,106213.18107526308,610118,366,6430.0838232040405,3584.916748046875,,52926.453125,0.92,3602.408935546875,3589.498779296875,51.44118118286133
364,/Users/cjpark/Desktop/ucla_courses/cs260r/assignment4/data/td3_agent_single_v16_progress_reward/td3,94,106206.87089380651,611479,367,6449.932375192642,3713.32568359375,-3745.5078125,93991.015625,0.92,3706.807861328125,3708.3154296875,52.155643463134766
365,/Users/cjpark/Desktop/ucla_courses/cs260r/assignment4/data/td3_agent_single_v16_progress_reward/td3,94,106187.23845783104,612741,368,6467.499576091766,3380.327392578125,-3422.5634765625,26578.966796875,0.92,3361.73388671875,3363.85205078125,48.911556243896484
366,/Users/cjpark/Desktop/ucla_courses/cs260r/assignment4/data/td3_agent_single_v16_progress_reward/td3,94,106176.6699927157,614093,369,6486.384632110596,3883.65087890625,-3919.498046875,61882.6640625,0.92,3875.4267578125,3860.3603515625,50.74678421020508
367,/Users/cjpark/Desktop/ucla_courses/cs260r/assignment4/data/td3_agent_single_v16_progress_reward/td3,94,106150.01772646279,615431,370,6501.997422218323,4133.0859375,-4204.0849609375,56556.2734375,0.92,4172.0283203125,4154.42236328125,54.654640197753906
368,/Users/cjpark/Desktop/ucla_courses/cs260r/assignment4/data/td3_agent_single_v16_progress_reward/td3,94,106142.91240815388,616709,371,6517.70835518837,3866.2060546875,-3866.27197265625,71201.046875,0.92,3827.66064453125,3810.46923828125,56.385379791259766
369,/Users/cjpark/Desktop/ucla_courses/cs260r/assignment4/data/td3_agent_single_v16_progress_reward/td3,94,106575.91640872168,618037,372,6531.763386249542,4171.158203125,-4241.07080078125,105043.8515625,0.93,4202.5888671875,4194.85986328125,57.44538879394531
370,/Users/cjpark/Desktop/ucla_courses/cs260r/assignment4/data/td3_agent_single_v16_progress_reward/td3,94,106583.9286004895,619356,373,6545.613969326019,3315.750732421875,,86855.4375,0.93,3339.791015625,3335.739013671875,47.056182861328125
371,/Users/cjpark/Desktop/ucla_courses/cs260r/assignment4/data/td3_agent_single_v16_progress_reward/td3,94,106586.57270598682,620664,374,6561.384316205978,4106.55029296875,,44599.03125,0.93,4078.629638671875,4062.67578125,57.281959533691406
372,/Users/cjpark/Desktop/ucla_courses/cs260r/assignment4/data/td3_agent_single_v16_progress_reward/td3,94,106588.10069423594,621943,375,6575.349453210831,4141.6650390625,-4181.009765625,178939.03125,0.93,4153.63525390625,4144.50537109375,54.90937423706055
373,/Users/cjpark/Desktop/ucla_courses/cs260r/assignment4/data/td3_agent_single_v16_progress_reward/td3,94,106965.88339709576,623244,376,6590.516026258469,3830.28515625,,64386.65625,0.94,3807.043212890625,3807.7099609375,53.030086517333984
374,/Users/cjpark/Desktop/ucla_courses/cs260r/assignment4/data/td3_agent_single_v16_progress_reward/td3,94,107410.43812620934,624526,377,6606.197237968445,3876.3134765625,,72492.828125,0.95,3915.121826171875,3907.951416015625,51.79848861694336
375,/Users/cjpark/Desktop/ucla_courses/cs260r/assignment4/data/td3_agent_single_v16_progress_reward/td3,94,107387.53486931277,625878,378,6621.786399126053,3929.889892578125,,55773.1796875,0.95,3946.23046875,3948.1298828125,56.40391540527344
376,/Users/cjpark/Desktop/ucla_courses/cs260r/assignment4/data/td3_agent_single_v16_progress_reward/td3,94,107391.97332110914,627199,379,6637.257020235062,3860.682373046875,-3900.532470703125,72345.5,0.95,3859.89794921875,3853.489990234375,53.20076370239258
377,/Users/cjpark/Desktop/ucla_courses/cs260r/assignment4/data/td3_agent_single_v16_progress_reward/td3,94,107400.44801425001,628573,380,6653.376433134079,4031.14013671875,-4096.87890625,55098.9375,0.95,4053.3310546875,4060.703369140625,54.94521713256836
378,/Users/cjpark/Desktop/ucla_courses/cs260r/assignment4/data/td3_agent_single_v16_progress_reward/td3,94,107403.97576444983,629816,381,6668.688183069229,3870.334716796875,,32165.5546875,0.95,3875.10791015625,3876.91650390625,52.55117416381836
379,/Users/cjpark/Desktop/ucla_courses/cs260r/assignment4/data/td3_agent_single_v16_progress_reward/td3,94,107708.41556298632,631094,382,6686.808178186417,3775.45166015625,,42610.44921875,0.96,3736.287353515625,3749.207275390625,52.44524002075195
380,/Users/cjpark/Desktop/ucla_courses/cs260r/assignment4/data/td3_agent_single_v16_progress_reward/td3,94,107954.32452915757,632374,383,6704.732483148575,3826.672607421875,,93458.28125,0.97,3795.63330078125,3789.59912109375,51.06321716308594
381,/Users/cjpark/Desktop/ucla_courses/cs260r/assignment4/data/td3_agent_single_v16_progress_reward/td3,94,107952.76425254103,633640,384,6722.068419218063,4011.8212890625,,64017.9296875,0.97,4030.08544921875,4009.0400390625,54.75050354003906
382,/Users/cjpark/Desktop/ucla_courses/cs260r/assignment4/data/td3_agent_single_v16_progress_reward/td3,94,107950.56144095864,634944,385,6736.532400131226,4574.74072265625,,133765.90625,0.97,4568.20166015625,4564.0341796875,61.31531524658203
383,/Users/cjpark/Desktop/ucla_courses/cs260r/assignment4/data/td3_agent_single_v16_progress_reward/td3,94,107910.53838575963,636379,386,6753.347048997879,3860.0712890625,-3890.302978515625,94301.7265625,0.97,3867.90869140625,3866.744140625,54.76995849609375
384,/Users/cjpark/Desktop/ucla_courses/cs260r/assignment4/data/td3_agent_single_v16_progress_reward/td3,94,107903.13930640017,637665,387,6767.665986061096,3917.83642578125,-3981.9375,58317.71484375,0.97,3929.928955078125,3922.620361328125,54.81830596923828
385,/Users/cjpark/Desktop/ucla_courses/cs260r/assignment4/data/td3_agent_single_v16_progress_reward/td3,94,107894.34462811248,638974,388,6783.456923246384,3866.787109375,,68087.75,0.97,3824.712890625,3847.419189453125,54.859317779541016
386,/Users/cjpark/Desktop/ucla_courses/cs260r/assignment4/data/td3_agent_single_v16_progress_reward/td3,94,107886.20433347415,640304,389,6797.561516046524,4722.4853515625,,57332.19921875,0.97,4750.0966796875,4745.32568359375,61.98985290527344
387,/Users/cjpark/Desktop/ucla_courses/cs260r/assignment4/data/td3_agent_single_v16_progress_reward/td3,94,107891.60860905923,641730,390,6813.62172794342,3962.02685546875,,190197.875,0.97,3944.701171875,3944.58935546875,53.9910888671875
388,/Users/cjpark/Desktop/ucla_courses/cs260r/assignment4/data/td3_agent_single_v16_progress_reward/td3,94,107894.65830650894,643019,391,6828.359639167786,3841.5205078125,-3898.313232421875,179377.703125,0.97,3879.0830078125,3881.52001953125,52.27791213989258
389,/Users/cjpark/Desktop/ucla_courses/cs260r/assignment4/data/td3_agent_single_v16_progress_reward/td3,94,107897.18263226008,644319,392,6842.794941902161,4022.21728515625,-4086.72998046875,68842.859375,0.97,4035.51806640625,4035.7646484375,57.4326171875
390,/Users/cjpark/Desktop/ucla_courses/cs260r/assignment4/data/td3_agent_single_v16_progress_reward/td3,94,107891.50886796,645647,393,6858.338505029678,4303.1162109375,-4326.646484375,106471.1875,0.97,4249.412109375,4257.86572265625,58.3107795715332
391,/Users/cjpark/Desktop/ucla_courses/cs260r/assignment4/data/td3_agent_single_v16_progress_reward/td3,94,107881.1506192692,646977,394,6873.41596531868,4047.783935546875,-4129.884765625,62448.94140625,0.97,4077.30322265625,4082.587890625,56.39125061035156
392,/Users/cjpark/Desktop/ucla_courses/cs260r/assignment4/data/td3_agent_single_v16_progress_reward/td3,94,107878.89257115527,648282,395,6888.143806934357,3726.09033203125,,52131.93359375,0.97,3727.051513671875,3714.2939453125,52.48294448852539
