cjunkin/reinforcement-learning/ppo-td3-cartpole/MetaDrive-Tut-20Env-v0/td3/progress.csv
,log_dir,frame_per_second,episode_reward,total_steps,total_episodes,total_time,target_q,actor_loss,critic_loss,success_rate,current_q1,current_q2,reward
0,MetaDrive-Tut-20Env-v0,911,12.266566023686943,2001,2,2.1959779262542725,,,,0.0,,,
1,MetaDrive-Tut-20Env-v0,934,11.883004847288028,3002,3,3.213189125061035,,,,0.0,,,
2,MetaDrive-Tut-20Env-v0,971,9.462942377870005,4531,5,4.664475202560425,,,,0.0,,,
3,MetaDrive-Tut-20Env-v0,1052,9.636792695130163,5532,6,5.25499701499939,,,,0.0,,,
4,MetaDrive-Tut-20Env-v0,1050,9.7491986324242,6533,7,6.218002796173096,,,,0.0,,,
5,MetaDrive-Tut-20Env-v0,1051,8.670010764439173,7948,9,7.55773401260376,,,,0.0,,,
6,MetaDrive-Tut-20Env-v0,1076,8.924809783993815,8949,10,8.309938192367554,,,,0.0,,,
7,MetaDrive-Tut-20Env-v0,1080,8.844579157573426,9950,11,9.204928874969482,,,,0.0,,,
8,MetaDrive-Tut-20Env-v0,1061,7.954631802225207,10036,12,9.453279972076416,0.011339363642036915,,0.0008639978477731347,0.0,0.012352965772151947,0.02243643067777157,0.010233525186777115
9,MetaDrive-Tut-20Env-v0,677,-0.3604649240274006,11007,61,16.24241614341736,0.033525966107845306,-0.040323272347450256,0.2001783847808838,0.0,0.062145743519067764,0.06273534893989563,0.002522056922316551
10,MetaDrive-Tut-20Env-v0,536,-0.3485843481110096,12261,63,22.86706805229187,0.034322574734687805,-0.06609486043453217,0.17218178510665894,0.0,0.05008084326982498,0.02542155422270298,-0.004542167764157057
11,MetaDrive-Tut-20Env-v0,478,-0.6365469391838352,13027,79,27.24821710586548,0.04597238823771477,-0.06137105077505112,0.19513313472270966,0.0,0.02964167296886444,0.039627473801374435,0.00482553755864501
12,MetaDrive-Tut-20Env-v0,423,0.876145039075663,14031,100,33.13740420341492,0.09380044043064117,-0.1372193843126297,0.20949344336986542,0.0,0.08908545970916748,0.09278184920549393,0.013742918148636818
13,MetaDrive-Tut-20Env-v0,385,3.3033205133698518,15020,119,38.92791795730591,0.208187997341156,,0.4788661599159241,0.0,0.14497312903404236,0.15318340063095093,0.010982603766024113
14,MetaDrive-Tut-20Env-v0,356,7.349594118765354,16044,147,44.987770080566406,0.4707839787006378,,0.12243323773145676,0.0,0.4393171966075897,0.4144924283027649,0.07573606073856354
15,MetaDrive-Tut-20Env-v0,335,12.833475373824413,17004,168,50.706655979156494,0.7190567255020142,,0.08763766288757324,0.0,0.6541822552680969,0.6682789325714111,0.12691070139408112
16,MetaDrive-Tut-20Env-v0,317,17.802000100474864,18030,188,56.74980401992798,1.1650054454803467,,0.6814969778060913,0.0,1.143475890159607,1.1907678842544556,0.11659550666809082
17,MetaDrive-Tut-20Env-v0,303,22.633270391655902,19011,205,62.662866830825806,1.7127267122268677,-1.9651063680648804,0.9066828489303589,0.0,1.7634146213531494,1.735103964805603,0.079658143222332
18,MetaDrive-Tut-20Env-v0,291,28.686481717893393,20023,219,68.64677095413208,2.607048511505127,-2.8866190910339355,1.582816481590271,0.0,2.6285157203674316,2.6198043823242188,0.1732964813709259
19,MetaDrive-Tut-20Env-v0,281,38.059079750453236,21024,230,74.55722308158875,3.463674306869507,,2.1299893856048584,0.0,3.533806562423706,3.514970541000366,0.1885717511177063
20,MetaDrive-Tut-20Env-v0,273,45.24572550676996,22035,242,80.43977904319763,4.442187309265137,-5.041214942932129,3.615783452987671,0.0,4.6636223793029785,4.672647476196289,0.1865241527557373
21,MetaDrive-Tut-20Env-v0,266,54.1457110531021,23046,252,86.52619695663452,5.707571506500244,,3.012856960296631,0.0,5.7337188720703125,5.712910175323486,0.32884344458580017
22,MetaDrive-Tut-20Env-v0,260,60.55653992363452,24052,263,92.47439002990723,6.631740570068359,,2.5024166107177734,0.0,6.590367317199707,6.607208728790283,0.28603658080101013
23,MetaDrive-Tut-20Env-v0,254,68.79817632713386,25009,271,98.3818371295929,7.844313621520996,-8.372087478637695,0.5462995767593384,0.0,7.790777683258057,7.833098888397217,0.37269726395606995
24,MetaDrive-Tut-20Env-v0,248,76.08943610276609,26051,281,104.72572207450867,9.393521308898926,-10.190718650817871,1.9137039184570312,0.0,9.96899127960205,9.91321086883545,0.4136391580104828
25,MetaDrive-Tut-20Env-v0,243,83.26593722404257,27093,289,111.30537605285645,9.620363235473633,-10.11674976348877,4.4772491455078125,0.0,9.64754867553711,9.638386726379395,0.3123858869075775
26,MetaDrive-Tut-20Env-v0,239,86.2627092085934,28033,300,116.86695122718811,11.627019882202148,-11.839210510253906,2.5532944202423096,0.0,11.533103942871094,11.628726959228516,0.4060887098312378
27,MetaDrive-Tut-20Env-v0,236,90.15431959047001,29068,311,123.03531312942505,11.613849639892578,,10.296050071716309,0.0,12.15854263305664,12.177360534667969,0.31540465354919434
28,MetaDrive-Tut-20Env-v0,232,94.41935175339493,30116,321,129.33509802818298,13.903316497802734,,2.026791572570801,0.0,13.893677711486816,13.80091381072998,0.4805620312690735
29,MetaDrive-Tut-20Env-v0,230,95.27002362032528,31041,330,134.9547929763794,14.276948928833008,-14.714580535888672,10.113054275512695,0.0,14.856131553649902,14.885449409484863,0.4315594434738159
30,MetaDrive-Tut-20Env-v0,227,94.90512897828992,32050,342,140.8134729862213,14.909180641174316,,2.8320820331573486,0.0,14.899027824401855,14.917168617248535,0.42850014567375183
31,MetaDrive-Tut-20Env-v0,224,97.30654878508761,33037,350,146.9150152206421,16.6993408203125,-17.083946228027344,2.261597156524658,0.0,16.565420150756836,16.579774856567383,0.4792279601097107
32,MetaDrive-Tut-20Env-v0,222,98.460287033099,34113,361,153.16980910301208,18.029682159423828,-18.764244079589844,2.646820068359375,0.0,17.89300537109375,17.888362884521484,0.5452300906181335
33,MetaDrive-Tut-20Env-v0,220,95.81496754477485,35114,372,159.06742906570435,19.2554874420166,,5.19917631149292,0.0,18.805620193481445,18.92444610595703,0.4933585226535797
34,MetaDrive-Tut-20Env-v0,218,95.9514038520608,36081,382,164.80617308616638,18.986061096191406,-19.33675193786621,5.833954334259033,0.0,18.736724853515625,18.870426177978516,0.43600112199783325
35,MetaDrive-Tut-20Env-v0,217,93.27029609585713,37055,393,170.67239594459534,19.84878921508789,-20.072046279907227,3.0243241786956787,0.0,20.256885528564453,20.242897033691406,0.5273967385292053
36,MetaDrive-Tut-20Env-v0,215,95.73915552771683,38167,405,177.4682228565216,22.294322967529297,-23.21794891357422,3.4054760932922363,0.0,22.356603622436523,22.533674240112305,0.567909836769104
37,MetaDrive-Tut-20Env-v0,213,97.58887396067996,39102,414,183.0196840763092,22.801639556884766,,2.9642224311828613,0.0,22.815017700195312,22.834009170532227,0.5685256719589233
38,MetaDrive-Tut-20Env-v0,212,100.10820073974367,40016,421,188.59544587135315,23.47555160522461,,4.472712516784668,0.0,23.0960636138916,23.380767822265625,0.5360146164894104
39,MetaDrive-Tut-20Env-v0,210,103.07559166798126,41049,429,194.65724992752075,25.35972023010254,-25.97675323486328,5.083186626434326,0.0,25.333295822143555,25.21664047241211,0.6086893081665039
40,MetaDrive-Tut-20Env-v0,209,106.18018984321867,42093,440,200.8502697944641,25.841596603393555,-26.42554473876953,8.239606857299805,0.0,26.087282180786133,26.13517189025879,0.6041439175605774
41,MetaDrive-Tut-20Env-v0,208,101.88458440171013,43060,450,206.42190504074097,26.333749771118164,,5.491955280303955,0.0,27.093416213989258,26.873062133789062,0.544798731803894
42,MetaDrive-Tut-20Env-v0,207,105.08973257530533,44070,459,212.50360298156738,27.23751449584961,,4.239038467407227,0.0,27.152809143066406,27.236923217773438,0.5991367101669312
43,MetaDrive-Tut-20Env-v0,206,109.33751166839549,45086,467,218.44827795028687,28.863845825195312,,15.094893455505371,0.0,29.193195343017578,29.137786865234375,0.6696686148643494
44,MetaDrive-Tut-20Env-v0,205,111.49855356289076,46011,475,224.04159212112427,29.929025650024414,-30.516414642333984,4.645115852355957,0.0,29.501834869384766,29.609601974487305,0.7036187052726746
45,MetaDrive-Tut-20Env-v0,204,113.66786513200076,47104,485,230.6046531200409,31.001813888549805,,4.22348690032959,0.0,31.13907241821289,31.121021270751953,0.6893340945243835
46,MetaDrive-Tut-20Env-v0,203,116.21316260817622,48114,493,236.64660906791687,31.65267562866211,,12.76687240600586,0.01,32.210975646972656,31.86969566345215,0.6328206062316895
47,MetaDrive-Tut-20Env-v0,202,118.96053715206968,49081,502,242.34365797042847,31.308704376220703,-31.474580764770508,5.309133052825928,0.01,30.795475006103516,30.679208755493164,0.7464014291763306
48,MetaDrive-Tut-20Env-v0,201,119.33895358573596,50025,509,247.96677899360657,31.69879913330078,-33.00289535522461,10.377670288085938,0.02,31.91437339782715,32.06053924560547,0.5496763586997986
49,MetaDrive-Tut-20Env-v0,200,119.33054732142266,51087,516,254.36570596694946,33.80602264404297,-34.52154541015625,5.348479270935059,0.02,34.33733367919922,34.418785095214844,0.6946013569831848
50,MetaDrive-Tut-20Env-v0,200,118.47858948309346,52055,524,260.0564980506897,34.6592903137207,-35.43876647949219,4.691462516784668,0.03,34.4788818359375,34.53886795043945,0.7373837232589722
51,MetaDrive-Tut-20Env-v0,199,112.89447200318254,53018,534,265.7345550060272,36.10911560058594,,5.865805149078369,0.03,35.975826263427734,36.16722869873047,0.6108959317207336
52,MetaDrive-Tut-20Env-v0,198,116.3625232645211,54065,544,272.23289585113525,35.53980255126953,-36.554847717285156,9.1448974609375,0.03,35.899356842041016,35.99636459350586,0.7128525376319885
53,MetaDrive-Tut-20Env-v0,197,119.53617313685659,55057,550,278.149778842926,35.80044937133789,-36.59223175048828,22.644695281982422,0.04,36.03319549560547,35.86764144897461,0.7659618258476257
54,MetaDrive-Tut-20Env-v0,197,121.2646266995832,56015,557,283.8766372203827,36.99156188964844,-37.28761291503906,18.84175682067871,0.04,37.1292610168457,37.34279251098633,0.6067014336585999
55,MetaDrive-Tut-20Env-v0,196,116.39241214892938,57039,567,290.0425009727478,36.68740463256836,-36.765682220458984,15.387487411499023,0.04,36.452369689941406,36.74005126953125,0.7006338834762573
56,MetaDrive-Tut-20Env-v0,195,119.56911136033634,58003,573,296.08451104164124,37.78895950317383,-39.20564651489258,6.9312825202941895,0.04,38.293148040771484,38.35559844970703,0.7321228981018066
57,MetaDrive-Tut-20Env-v0,195,118.56002208994019,59024,582,302.4626741409302,38.78504180908203,,6.795053958892822,0.04,38.74150848388672,38.791465759277344,0.747904896736145
58,MetaDrive-Tut-20Env-v0,194,120.22430528797895,60060,589,308.64715600013733,39.74883270263672,,10.090173721313477,0.05,39.9102897644043,39.86102294921875,0.7908393740653992
59,MetaDrive-Tut-20Env-v0,194,120.5543738067112,61014,596,314.4115400314331,40.27976989746094,,15.006088256835938,0.04,39.96867370605469,39.797218322753906,0.6650426387786865
60,MetaDrive-Tut-20Env-v0,193,126.43027267295702,62332,602,322.6848609447479,38.125999450683594,,17.069263458251953,0.06,38.91762924194336,38.45196533203125,0.6751757860183716
61,MetaDrive-Tut-20Env-v0,192,128.52561596503406,63210,607,328.0762770175934,40.28242492675781,,5.042695999145508,0.05,40.450557708740234,40.46179962158203,0.7098723649978638
62,MetaDrive-Tut-20Env-v0,192,130.457959579895,64238,611,334.19562911987305,40.99213409423828,,7.019587516784668,0.07,40.7722053527832,40.752685546875,0.7716871500015259
63,MetaDrive-Tut-20Env-v0,191,133.02281235014877,65346,616,341.072998046875,41.20395278930664,,13.792380332946777,0.08,40.27955627441406,40.656471252441406,0.7584675550460815
64,MetaDrive-Tut-20Env-v0,191,136.0486910157523,66003,619,345.40419912338257,40.731040954589844,-41.55122375488281,40.77365493774414,0.08,41.778175354003906,41.485164642333984,0.6868643164634705
65,MetaDrive-Tut-20Env-v0,190,139.0971334455825,67037,624,351.73400807380676,41.931251525878906,-43.01727294921875,11.31596565246582,0.07,41.95454025268555,42.05527877807617,0.6967083811759949
66,MetaDrive-Tut-20Env-v0,190,144.5384609017732,68108,628,358.2041039466858,40.72649383544922,,25.88520050048828,0.08,40.87839126586914,40.81973648071289,0.7315133810043335
67,MetaDrive-Tut-20Env-v0,189,150.18664224278734,69110,632,364.41705203056335,41.3983154296875,,9.627119064331055,0.09,41.211204528808594,41.3944091796875,0.6900071501731873
68,MetaDrive-Tut-20Env-v0,189,154.22836189052762,70042,637,369.93464493751526,40.38479995727539,,8.859442710876465,0.1,40.34056091308594,40.308650970458984,0.6874822378158569
69,MetaDrive-Tut-20Env-v0,188,156.4090478396721,71102,643,376.42877888679504,41.18324279785156,,8.149002075195312,0.11,40.953067779541016,41.08671569824219,0.6832181215286255
70,MetaDrive-Tut-20Env-v0,188,158.36320636275724,72106,648,382.6949849128723,40.58949279785156,,23.45177459716797,0.1,41.41237258911133,41.43023681640625,0.6970037221908569
71,MetaDrive-Tut-20Env-v0,188,160.90574909963024,73079,652,388.63867115974426,41.058387756347656,-41.65101623535156,26.609325408935547,0.12,40.908111572265625,40.90795135498047,0.6834181547164917
72,MetaDrive-Tut-20Env-v0,187,164.2282241938707,74068,655,394.90666007995605,41.294559478759766,,14.277125358581543,0.13,41.82149887084961,41.917449951171875,0.6166523098945618
73,MetaDrive-Tut-20Env-v0,187,168.1759740546673,75124,661,401.48184299468994,41.348724365234375,,9.17870044708252,0.13,41.882110595703125,41.381248474121094,0.7540186643600464
74,MetaDrive-Tut-20Env-v0,186,173.57123388215066,76186,665,408.2728171348572,40.88573455810547,,5.82904052734375,0.13,40.409210205078125,40.62759017944336,0.7792906761169434
75,MetaDrive-Tut-20Env-v0,186,177.70288053051667,77002,668,413.2145531177521,43.6572380065918,,7.788862228393555,0.14,43.22117614746094,43.69985580444336,0.6912732124328613
76,MetaDrive-Tut-20Env-v0,185,178.04236687084983,78134,673,420.3300111293793,43.02122116088867,,11.911552429199219,0.15,42.5227165222168,42.527408599853516,0.7338042855262756
77,MetaDrive-Tut-20Env-v0,185,184.5832833104912,79317,677,427.41968297958374,41.39884948730469,-42.5892448425293,31.4288272857666,0.18,42.132686614990234,41.669090270996094,0.7746313214302063
78,MetaDrive-Tut-20Env-v0,185,185.68228904042124,80095,682,432.0825021266937,41.68715286254883,-41.322811126708984,32.02016067504883,0.19,41.48262023925781,41.27567672729492,0.8016071915626526
79,MetaDrive-Tut-20Env-v0,185,191.107227578411,81162,686,438.54267406463623,44.03154373168945,,14.03579044342041,0.21,44.128360748291016,44.147708892822266,0.6834824085235596
80,MetaDrive-Tut-20Env-v0,184,190.70803999442333,82014,690,443.79755115509033,41.62562942504883,,25.24134635925293,0.21,42.363258361816406,41.989410400390625,0.8186596632003784
81,MetaDrive-Tut-20Env-v0,184,195.4364666133663,83027,693,450.18705201148987,41.88026809692383,-42.52523422241211,10.556160926818848,0.22,42.11651611328125,42.1099967956543,0.7302374243736267
82,MetaDrive-Tut-20Env-v0,184,198.30474077124828,84004,697,456.3242521286011,41.5706787109375,,11.91170597076416,0.22,42.267822265625,41.96034240722656,0.6718418002128601
83,MetaDrive-Tut-20Env-v0,183,195.37909759128695,85189,705,463.4968638420105,45.259010314941406,-45.37297439575195,38.810997009277344,0.22,45.98441696166992,45.956214904785156,0.7502783536911011
84,MetaDrive-Tut-20Env-v0,183,196.3387189593732,86100,710,469.01033997535706,43.79789733886719,,31.50817108154297,0.21,44.909854888916016,44.73910903930664,0.7460954785346985
85,MetaDrive-Tut-20Env-v0,183,192.73124591257766,87087,716,474.977098941803,43.161197662353516,-44.10321807861328,8.852239608764648,0.2,43.121421813964844,43.34960174560547,0.8244456052780151
86,MetaDrive-Tut-20Env-v0,182,193.72025719805507,88165,722,481.8417022228241,42.298789978027344,-43.102813720703125,8.730467796325684,0.2,42.37721633911133,42.244102478027344,0.8099309206008911
87,MetaDrive-Tut-20Env-v0,182,190.8076233178655,89021,726,487.21438097953796,44.26324462890625,-44.5189208984375,17.36069107055664,0.19,44.03765106201172,44.27091979980469,0.7326850891113281
88,MetaDrive-Tut-20Env-v0,182,187.84315045295116,90289,732,494.8341019153595,43.867130279541016,-44.688663482666016,11.718883514404297,0.2,43.50068664550781,43.37162780761719,0.8107722401618958
89,MetaDrive-Tut-20Env-v0,182,187.32770454579918,91375,738,501.1613190174103,43.27754211425781,-44.08586883544922,10.494338035583496,0.2,43.46909713745117,43.404212951660156,0.7619760632514954
90,MetaDrive-Tut-20Env-v0,182,185.07714569753054,92177,744,506.1087820529938,42.290802001953125,-42.505340576171875,15.875043869018555,0.19,42.083251953125,42.366153717041016,0.7496241927146912
91,MetaDrive-Tut-20Env-v0,181,187.97408809106972,93146,748,512.0435969829559,44.22148895263672,,12.528993606567383,0.2,42.90929412841797,43.056949615478516,0.8510250449180603
92,MetaDrive-Tut-20Env-v0,181,178.81585572085817,94272,756,518.7803819179535,44.40613555908203,,13.757842063903809,0.18,44.439693450927734,44.70545959472656,0.7475722432136536
93,MetaDrive-Tut-20Env-v0,181,178.37542966741213,95092,761,523.7979869842529,43.80469512939453,,8.720069885253906,0.18,44.01227569580078,44.05116653442383,0.8701950907707214
94,MetaDrive-Tut-20Env-v0,181,177.86598115820902,96207,765,530.7180359363556,43.45973205566406,-43.213905334472656,15.549137115478516,0.2,42.939697265625,43.27006149291992,0.8125612139701843
95,MetaDrive-Tut-20Env-v0,181,172.41942702769575,97241,772,536.9773879051208,47.33162307739258,-47.602943420410156,14.283416748046875,0.19,46.52356719970703,47.367225646972656,0.7515416741371155
96,MetaDrive-Tut-20Env-v0,180,165.67814487675514,98385,779,543.7482399940491,41.70478057861328,-42.3819465637207,43.44118881225586,0.17,42.63740158081055,42.26342010498047,0.7898419499397278
97,MetaDrive-Tut-20Env-v0,180,164.4254230710993,99016,783,547.6483869552612,45.40872573852539,,5.159360885620117,0.17,45.078895568847656,44.95288848876953,0.7957934737205505
98,MetaDrive-Tut-20Env-v0,180,165.88853270554543,100072,787,554.0250201225281,44.39350891113281,,15.00651741027832,0.17,44.726837158203125,45.23876190185547,0.7218071818351746
99,MetaDrive-Tut-20Env-v0,180,166.56261842969107,101087,791,560.556253194809,43.57916259765625,-44.31987380981445,30.278141021728516,0.15,43.88213348388672,43.98799514770508,0.8371070623397827
100,MetaDrive-Tut-20Env-v0,180,162.05840383154583,102007,796,566.035059928894,43.590118408203125,-43.239952087402344,8.004789352416992,0.15,43.246360778808594,43.4211311340332,0.859423816204071
101,MetaDrive-Tut-20Env-v0,179,165.59291754155046,103354,802,574.2499871253967,44.34482955932617,,13.151041030883789,0.17,43.87852096557617,43.872894287109375,0.7811583876609802
102,MetaDrive-Tut-20Env-v0,179,167.1030677297653,104380,806,580.3807327747345,47.491458892822266,,7.263832092285156,0.18,47.88450241088867,47.3078727722168,0.7536763548851013
103,MetaDrive-Tut-20Env-v0,179,168.2715143754854,105060,809,584.4197051525116,44.84207534790039,,10.332043647766113,0.19,44.69074249267578,44.65188217163086,0.8122960329055786
104,MetaDrive-Tut-20Env-v0,179,169.28820285289683,106029,815,590.4091739654541,45.45359802246094,-46.33102798461914,10.294281005859375,0.19,45.099239349365234,44.535640716552734,0.845625638961792
105,MetaDrive-Tut-20Env-v0,179,169.2066910235104,107285,821,598.1035709381104,45.88008117675781,-45.67294692993164,14.347586631774902,0.21,44.94415283203125,45.75658416748047,0.8285245299339294
106,MetaDrive-Tut-20Env-v0,179,172.69848907690178,108065,824,602.9170401096344,43.030006408691406,-43.92005920410156,12.876541137695312,0.22,43.009605407714844,43.04751968383789,0.6918390989303589
107,MetaDrive-Tut-20Env-v0,179,170.10343863298914,109029,829,608.6805849075317,43.63937759399414,-43.798004150390625,7.796221733093262,0.22,43.66148376464844,43.81663513183594,0.7608120441436768
108,MetaDrive-Tut-20Env-v0,178,170.3837601829872,110032,835,614.8413469791412,44.85145568847656,,9.217522621154785,0.22,45.26438903808594,45.297279357910156,0.7524218559265137
109,MetaDrive-Tut-20Env-v0,178,175.98239207967154,111399,840,623.2776000499725,46.52861785888672,-46.73354721069336,33.595237731933594,0.23,47.51781463623047,47.43505859375,0.6651785373687744
110,MetaDrive-Tut-20Env-v0,178,169.490803143747,112134,847,627.6901891231537,43.30339813232422,,36.101600646972656,0.23,43.710357666015625,43.67757034301758,0.897899866104126
111,MetaDrive-Tut-20Env-v0,178,169.92539883023255,113135,848,633.6811561584473,46.29056930541992,-47.565181732177734,7.116044044494629,0.22,46.58411407470703,46.169639587402344,0.8487632274627686
112,MetaDrive-Tut-20Env-v0,178,174.88424498478705,114035,851,639.3109722137451,44.675270080566406,-45.704345703125,12.816740989685059,0.23,44.866268157958984,45.1973991394043,0.7637376189231873
113,MetaDrive-Tut-20Env-v0,178,183.7195218846568,115313,854,647.5506799221039,43.918670654296875,-44.51903533935547,10.668441772460938,0.25,43.55657958984375,43.870601654052734,0.7332344055175781
114,MetaDrive-Tut-20Env-v0,177,185.30900951170963,116061,856,652.1804578304291,45.54553985595703,-45.47154235839844,11.183266639709473,0.25,45.49363327026367,45.52060317993164,0.8437737226486206
115,MetaDrive-Tut-20Env-v0,177,188.47389249862633,117054,859,658.4882569313049,45.47296142578125,,15.52537727355957,0.26,45.665218353271484,45.527252197265625,0.7598338723182678
116,MetaDrive-Tut-20Env-v0,177,190.1033137293078,118263,864,665.79652094841,44.72773742675781,-44.88603973388672,11.817981719970703,0.26,44.695621490478516,44.9923095703125,0.6958834528923035
117,MetaDrive-Tut-20Env-v0,177,192.91019075604757,119296,867,672.4703438282013,45.25129699707031,,9.920440673828125,0.26,45.49251937866211,45.34944152832031,0.8220279216766357
118,MetaDrive-Tut-20Env-v0,177,193.64257809823607,120053,872,677.0121431350708,44.195491790771484,-44.841800689697266,13.786359786987305,0.25,43.43526077270508,43.451053619384766,0.7774354219436646
119,MetaDrive-Tut-20Env-v0,177,198.2285546473204,121170,876,683.7428588867188,47.43328094482422,,21.246652603149414,0.25,47.51642990112305,47.70676803588867,0.8044759035110474
120,MetaDrive-Tut-20Env-v0,177,203.85896209202147,122070,878,689.5105998516083,44.29298400878906,,14.13631534576416,0.26,43.756439208984375,43.90026092529297,0.7451591491699219
121,MetaDrive-Tut-20Env-v0,176,206.2563423825678,123327,883,697.4838700294495,42.66438293457031,-43.37884521484375,11.619610786437988,0.26,42.00564956665039,42.18193817138672,0.8621617555618286
122,MetaDrive-Tut-20Env-v0,176,206.10781921588014,124200,887,702.8572490215302,44.42364501953125,,15.830595016479492,0.25,43.18304443359375,43.89210891723633,0.7868776321411133
123,MetaDrive-Tut-20Env-v0,176,205.79231101550272,125262,891,709.3788430690765,44.42258071899414,,18.243492126464844,0.27,43.592376708984375,43.92961502075195,0.7680488228797913
124,MetaDrive-Tut-20Env-v0,176,209.20612147804795,126193,895,714.7167809009552,45.64573669433594,-45.658348083496094,10.354049682617188,0.29,45.745521545410156,45.73283767700195,0.7701631784439087
125,MetaDrive-Tut-20Env-v0,176,212.5264566057496,127161,898,720.8942551612854,45.79290008544922,-47.033084869384766,7.317084312438965,0.29,45.7041015625,45.446434020996094,0.7625282406806946
126,MetaDrive-Tut-20Env-v0,176,213.45317686610232,128305,901,727.7238929271698,42.583702087402344,-44.17341995239258,42.140071868896484,0.3,43.50775909423828,43.56277084350586,0.787879228591919
127,MetaDrive-Tut-20Env-v0,176,211.98931881290417,129009,904,732.038624048233,44.08536148071289,-44.0933952331543,22.30896759033203,0.29,43.36530685424805,43.62242889404297,0.7680205702781677
128,MetaDrive-Tut-20Env-v0,176,215.8840999790429,130055,907,738.3806571960449,47.17845153808594,-47.679603576660156,9.627093315124512,0.31,47.165245056152344,46.88921356201172,0.7547630667686462
129,MetaDrive-Tut-20Env-v0,175,217.61252868282992,131129,910,745.2807040214539,45.745018005371094,-47.35745620727539,9.83034896850586,0.31,46.616905212402344,46.25160598754883,0.7812284231185913
130,MetaDrive-Tut-20Env-v0,175,222.98062699143802,132029,912,750.9002130031586,43.311309814453125,-43.466861724853516,12.930838584899902,0.33,42.91664123535156,43.0020751953125,0.7765762805938721
131,MetaDrive-Tut-20Env-v0,175,226.11999718329946,133161,915,757.7740149497986,45.126529693603516,-45.98706817626953,10.1621675491333,0.34,45.20581817626953,44.95226287841797,0.8192393779754639
132,MetaDrive-Tut-20Env-v0,175,230.1453875090756,134256,918,764.5714960098267,42.5216064453125,,33.52967834472656,0.35,42.74313735961914,42.46919250488281,0.8388252854347229
133,MetaDrive-Tut-20Env-v0,175,233.33467700583944,135316,921,771.2026150226593,44.522056579589844,,13.417869567871094,0.36,44.91263198852539,44.6695442199707,0.8190457820892334
134,MetaDrive-Tut-20Env-v0,175,234.25842591099675,136156,923,776.292337179184,46.51853561401367,,13.936893463134766,0.37,46.485530853271484,46.33279037475586,0.8778367042541504
135,MetaDrive-Tut-20Env-v0,175,234.72794784569115,137083,926,781.5801289081573,45.18159484863281,-46.12456512451172,9.615400314331055,0.38,45.78524398803711,45.468971252441406,0.7914522886276245
136,MetaDrive-Tut-20Env-v0,175,237.36045692535788,138003,929,787.3761079311371,42.69208526611328,-42.99342346191406,30.55440330505371,0.39,42.852317810058594,42.589744567871094,0.7813801765441895
137,MetaDrive-Tut-20Env-v0,175,241.95523226604422,139350,933,795.7275381088257,47.060142517089844,,10.01492691040039,0.41,47.21199417114258,47.826507568359375,0.7953245639801025
138,MetaDrive-Tut-20Env-v0,175,246.65742506139145,140325,936,801.4616680145264,45.02262878417969,-45.43630599975586,19.787342071533203,0.44,45.24393081665039,45.08855438232422,0.7630822658538818
139,MetaDrive-Tut-20Env-v0,175,246.91474741655423,141008,938,805.7522990703583,44.110870361328125,,14.449104309082031,0.44,43.942237854003906,44.5735969543457,0.75313401222229
140,MetaDrive-Tut-20Env-v0,174,249.86663113208132,142041,942,812.5479869842529,42.493682861328125,-42.710296630859375,30.05767822265625,0.44,42.033329010009766,42.40538024902344,0.8313307762145996
141,MetaDrive-Tut-20Env-v0,174,255.78876046294633,143065,946,818.8708720207214,43.70716094970703,-44.15957260131836,39.300315856933594,0.46,43.6061897277832,43.804019927978516,0.7804824709892273
142,MetaDrive-Tut-20Env-v0,174,260.96461848733856,144409,949,827.5855112075806,44.89272689819336,-43.76092529296875,27.475059509277344,0.49,43.90718078613281,44.209877014160156,0.8239198327064514
143,MetaDrive-Tut-20Env-v0,174,261.5993537108548,145022,951,831.5754208564758,45.06402587890625,,10.045269966125488,0.48,44.72259521484375,44.546321868896484,0.8499372005462646
144,MetaDrive-Tut-20Env-v0,174,261.637510369542,146283,954,839.2749319076538,45.26911926269531,-45.1414794921875,7.340926170349121,0.49,45.532249450683594,45.9964599609375,0.8603452444076538
145,MetaDrive-Tut-20Env-v0,174,259.38707504150426,147004,957,843.623960018158,44.125030517578125,,14.930974960327148,0.49,43.47740936279297,43.723907470703125,0.7266929745674133
146,MetaDrive-Tut-20Env-v0,174,257.3210637387585,148376,962,851.8851492404938,40.61174774169922,,8.59591293334961,0.5,40.63970947265625,40.42721939086914,0.8104434013366699
147,MetaDrive-Tut-20Env-v0,174,259.9949566763326,149538,965,859.1325290203094,44.306983947753906,,9.720172882080078,0.51,44.536354064941406,44.34436798095703,0.7927735447883606
148,MetaDrive-Tut-20Env-v0,174,259.4876813963811,150220,967,863.212336063385,44.92733383178711,,13.28740406036377,0.52,44.864341735839844,44.88570785522461,0.8512848019599915
149,MetaDrive-Tut-20Env-v0,173,263.1623007167932,151322,971,870.293890953064,44.807743072509766,,9.16910171508789,0.54,45.26350784301758,45.292205810546875,0.8541353940963745
150,MetaDrive-Tut-20Env-v0,173,264.9513199136768,152050,973,874.4943521022797,43.64298629760742,,7.979981899261475,0.56,43.75423812866211,43.73712921142578,0.7943819761276245
151,MetaDrive-Tut-20Env-v0,173,268.75266771482495,153314,976,882.8909621238708,44.84992218017578,,17.714996337890625,0.56,44.65742492675781,44.35344314575195,0.7262240052223206
152,MetaDrive-Tut-20Env-v0,173,269.1072991904253,154211,978,888.606663942337,45.107418060302734,-45.31858825683594,10.678646087646484,0.56,44.49847412109375,44.44530487060547,0.8424774408340454
153,MetaDrive-Tut-20Env-v0,173,272.5795244951851,155279,981,895.026909828186,44.15456771850586,-44.990909576416016,12.993352890014648,0.59,44.13642501831055,43.80467224121094,0.8190689086914062
154,MetaDrive-Tut-20Env-v0,173,272.5901760733617,156038,983,899.3441150188446,44.057289123535156,,33.31427764892578,0.6,45.06318664550781,45.44934844970703,0.7508242726325989
155,MetaDrive-Tut-20Env-v0,173,272.82638997713457,157416,988,907.7160680294037,43.369171142578125,,12.27284049987793,0.61,43.41032409667969,43.37836837768555,0.7637559771537781
156,MetaDrive-Tut-20Env-v0,173,271.5753166440999,158407,992,913.9830329418182,44.7836799621582,-44.44499588012695,13.744195938110352,0.59,43.4589729309082,43.95794677734375,0.7997335195541382
157,MetaDrive-Tut-20Env-v0,173,275.18050117424906,159104,994,918.7713179588318,45.642974853515625,,15.714282035827637,0.59,45.30535125732422,45.282527923583984,0.7958542704582214
158,MetaDrive-Tut-20Env-v0,173,272.09911373798275,160082,998,924.6211950778961,43.42839813232422,,11.609092712402344,0.59,42.485313415527344,42.92824172973633,0.7549939751625061
159,MetaDrive-Tut-20Env-v0,173,272.2488770378264,161033,1001,930.2310869693756,42.735565185546875,-43.11585998535156,11.694686889648438,0.59,42.51640701293945,41.87824249267578,0.7977228164672852
160,MetaDrive-Tut-20Env-v0,173,270.5429272249639,162080,1005,936.4256119728088,43.90705490112305,,11.705367088317871,0.59,44.46086883544922,44.47479248046875,0.7702810764312744
161,MetaDrive-Tut-20Env-v0,173,268.49861632347125,163004,1008,941.6624970436096,44.4832878112793,,10.148418426513672,0.58,44.916690826416016,44.807861328125,0.8205134868621826
162,MetaDrive-Tut-20Env-v0,173,261.7955057273724,164169,1013,948.7374918460846,43.67325210571289,-43.79521179199219,12.140962600708008,0.57,42.71499252319336,42.8912467956543,0.7200512886047363
163,MetaDrive-Tut-20Env-v0,172,263.05045309851647,165014,1015,954.1158599853516,44.44783401489258,,8.83564567565918,0.57,44.38636016845703,44.67921829223633,0.8199108839035034
164,MetaDrive-Tut-20Env-v0,172,261.4576279935852,166341,1019,962.0246188640594,43.732269287109375,-43.90220642089844,13.545743942260742,0.57,43.92805099487305,43.68929672241211,0.8356351852416992
165,MetaDrive-Tut-20Env-v0,172,260.74616565214984,167450,1022,969.2201478481293,45.466312408447266,,12.263771057128906,0.56,45.430908203125,45.30673599243164,0.7016309499740601
166,MetaDrive-Tut-20Env-v0,172,263.1012640456094,168063,1024,973.0846309661865,43.17253494262695,-44.158023834228516,7.273610591888428,0.56,43.80436325073242,43.43796157836914,0.7722769975662231
167,MetaDrive-Tut-20Env-v0,172,263.9696613727338,169265,1027,980.5409519672394,44.62400436401367,-44.6255989074707,18.007366180419922,0.55,44.26822280883789,44.20929718017578,0.7778258323669434
168,MetaDrive-Tut-20Env-v0,172,263.35922771370747,170084,1030,985.394868850708,44.72394943237305,,8.851240158081055,0.56,44.58422088623047,44.14363098144531,0.792717695236206
169,MetaDrive-Tut-20Env-v0,172,262.71102127840317,171005,1033,991.0308480262756,45.21144104003906,-45.979248046875,15.255478858947754,0.56,45.12783432006836,44.462589263916016,0.7687036395072937
170,MetaDrive-Tut-20Env-v0,172,259.75908998876173,172267,1037,998.7349579334259,45.53489303588867,-45.532657623291016,9.80859375,0.54,45.429874420166016,45.328208923339844,0.7988742589950562
171,MetaDrive-Tut-20Env-v0,172,262.8365536546267,173103,1039,1003.882730960846,41.34126281738281,-42.0162239074707,6.318413734436035,0.55,41.91374206542969,41.6436767578125,0.775310218334198
172,MetaDrive-Tut-20Env-v0,172,263.96510326774654,174198,1042,1010.6848108768463,44.28028869628906,,11.044879913330078,0.56,44.475181579589844,43.806312561035156,0.8173183798789978
173,MetaDrive-Tut-20Env-v0,172,264.60881218107266,175018,1044,1015.777724981308,44.262176513671875,,9.730377197265625,0.56,44.68244171142578,44.534908294677734,0.8305803537368774
174,MetaDrive-Tut-20Env-v0,172,262.09748987946784,176049,1048,1021.8898091316223,46.24250793457031,-46.03865432739258,7.36159610748291,0.55,46.182315826416016,46.34912109375,0.8202841877937317
175,MetaDrive-Tut-20Env-v0,172,254.94352819309196,177287,1053,1029.1965491771698,41.77679443359375,-42.05565643310547,68.34557342529297,0.54,42.33578872680664,42.47671890258789,0.8106616735458374
176,MetaDrive-Tut-20Env-v0,172,253.89220811151262,178134,1056,1034.5606698989868,46.52145004272461,,21.865177154541016,0.53,46.38926696777344,46.07966232299805,0.7516053318977356
177,MetaDrive-Tut-20Env-v0,172,251.39808932404046,179578,1060,1042.7952518463135,44.79081344604492,,18.595291137695312,0.52,44.77831268310547,45.142738342285156,0.8124023079872131
178,MetaDrive-Tut-20Env-v0,172,253.78119161597692,180048,1061,1045.4432990550995,43.64180374145508,,16.820453643798828,0.53,44.129554748535156,43.843650817871094,0.8235100507736206
179,MetaDrive-Tut-20Env-v0,172,253.45675659029033,181240,1064,1052.2899730205536,44.614990234375,,10.706089973449707,0.54,45.49574279785156,44.952091217041016,0.7416355609893799
180,MetaDrive-Tut-20Env-v0,172,253.14681117923752,182503,1067,1060.26846408844,45.12357711791992,-45.57422637939453,28.031845092773438,0.53,45.1076774597168,45.15137481689453,0.7513892650604248
181,MetaDrive-Tut-20Env-v0,172,257.03891252255056,183295,1069,1065.4320390224457,45.528236389160156,-45.52783203125,10.276979446411133,0.53,45.776729583740234,45.77609634399414,0.7922868728637695
182,MetaDrive-Tut-20Env-v0,171,255.9778989719449,184149,1072,1070.68993806839,45.413116455078125,-45.09833908081055,10.064902305603027,0.52,45.892845153808594,46.402748107910156,0.7954995632171631
183,MetaDrive-Tut-20Env-v0,171,256.84852371533196,185033,1074,1076.0643858909607,40.3421745300293,-40.894248962402344,32.07536315917969,0.52,41.457275390625,41.37205505371094,0.7788837552070618
184,MetaDrive-Tut-20Env-v0,171,251.50518108799324,186265,1078,1083.4115660190582,44.505367279052734,-44.47230911254883,7.936586856842041,0.54,45.10271453857422,45.23826599121094,0.7516382336616516
185,MetaDrive-Tut-20Env-v0,171,250.38820281193554,187386,1081,1090.6308929920197,42.32295227050781,,17.08230209350586,0.52,41.6376953125,41.170345306396484,0.7871874570846558
186,MetaDrive-Tut-20Env-v0,171,250.822239984819,188122,1083,1095.0365409851074,44.8707275390625,,9.865314483642578,0.52,44.174896240234375,44.24580001831055,0.746863603591919
187,MetaDrive-Tut-20Env-v0,171,251.67308733041162,189012,1086,1100.2116479873657,45.04169464111328,,8.920997619628906,0.54,44.93880844116211,44.41554260253906,0.794644296169281
188,MetaDrive-Tut-20Env-v0,171,255.2827952485347,190208,1089,1107.6548998355865,45.046897888183594,,17.635581970214844,0.55,45.83669662475586,45.505096435546875,0.7775211930274963
189,MetaDrive-Tut-20Env-v0,171,258.7593374268109,191085,1091,1112.9668350219727,46.15143585205078,-46.328887939453125,29.69936752319336,0.56,45.992950439453125,46.15892028808594,0.7837343811988831
190,MetaDrive-Tut-20Env-v0,171,257.6019973132214,192212,1095,1119.8525581359863,43.418514251708984,,27.943408966064453,0.57,43.729244232177734,43.45304870605469,0.8241233825683594
191,MetaDrive-Tut-20Env-v0,171,259.63787396488465,193063,1097,1125.090831041336,44.61326599121094,-45.2282600402832,12.183755874633789,0.57,43.966278076171875,43.929786682128906,0.750898003578186
192,MetaDrive-Tut-20Env-v0,171,257.26546062422244,194260,1101,1132.372102022171,44.0775260925293,,6.805898666381836,0.56,43.62675094604492,43.81373596191406,0.9022982120513916
193,MetaDrive-Tut-20Env-v0,171,260.3264694554552,195257,1104,1138.5698690414429,45.24174499511719,-46.22291564941406,10.598604202270508,0.56,45.12834548950195,44.833919525146484,0.7894725799560547
194,MetaDrive-Tut-20Env-v0,171,262.6416975426896,196130,1107,1143.975702047348,43.80647659301758,,8.305130004882812,0.56,43.44861602783203,44.536048889160156,0.7798289656639099
195,MetaDrive-Tut-20Env-v0,171,265.16809085927923,197190,1110,1150.7574169635773,44.36496353149414,,11.675422668457031,0.57,44.722251892089844,44.8607292175293,0.7837597131729126
196,MetaDrive-Tut-20Env-v0,171,267.70170576396816,198078,1112,1156.4272680282593,43.66649627685547,,9.082191467285156,0.58,43.145057678222656,43.0078125,0.818557858467102
197,MetaDrive-Tut-20Env-v0,171,270.1839793098874,199013,1114,1162.2915167808533,47.99721145629883,-48.682945251464844,17.616628646850586,0.58,46.731475830078125,46.66816711425781,0.7545443773269653
198,MetaDrive-Tut-20Env-v0,171,270.213822521813,200299,1118,1170.6874659061432,48.53339385986328,-49.089500427246094,11.79343318939209,0.58,47.71467971801758,47.9488525390625,0.8049492835998535
199,MetaDrive-Tut-20Env-v0,171,266.7317432643854,201387,1123,1177.5828132629395,46.30121994018555,-46.944480895996094,17.242015838623047,0.57,45.70463180541992,46.33122253417969,0.7473294138908386
200,MetaDrive-Tut-20Env-v0,170,264.0981946321748,202268,1126,1183.2421271800995,45.058990478515625,,8.499336242675781,0.56,45.339569091796875,45.29867172241211,0.791412889957428
201,MetaDrive-Tut-20Env-v0,170,263.3605023615841,203818,1129,1192.3278231620789,47.47112274169922,,6.679333686828613,0.54,47.498687744140625,47.57145690917969,0.8145430684089661
202,MetaDrive-Tut-20Env-v0,170,263.3384887911918,204145,1130,1194.2406198978424,44.31303787231445,-45.73151397705078,11.429441452026367,0.54,44.786895751953125,43.55851745605469,0.7295886278152466
203,MetaDrive-Tut-20Env-v0,170,264.11123603434794,205057,1133,1199.8218579292297,44.935585021972656,-45.19004821777344,11.123991012573242,0.53,45.44428634643555,45.166168212890625,0.8269824981689453
204,MetaDrive-Tut-20Env-v0,170,267.1347748584357,206243,1136,1206.8781039714813,45.12396240234375,-45.53573226928711,9.976234436035156,0.55,45.02785873413086,45.33788299560547,0.7400959730148315
205,MetaDrive-Tut-20Env-v0,170,270.21990532594054,207233,1138,1213.6167840957642,47.084224700927734,-47.43412780761719,9.581195831298828,0.55,46.88901138305664,47.130306243896484,0.762894332408905
206,MetaDrive-Tut-20Env-v0,170,268.9367632375708,208153,1140,1219.1345670223236,45.027915954589844,-45.73525619506836,14.215850830078125,0.55,43.61692428588867,43.703330993652344,0.8272427916526794
207,MetaDrive-Tut-20Env-v0,170,269.6111513012539,209166,1143,1225.0196778774261,46.068721771240234,,8.513650894165039,0.56,46.005027770996094,45.65370178222656,0.7404558062553406
208,MetaDrive-Tut-20Env-v0,170,270.6136105445757,210517,1147,1233.399910211563,43.282432556152344,-43.496864318847656,23.417118072509766,0.56,42.42738723754883,42.33759307861328,0.6787422895431519
209,MetaDrive-Tut-20Env-v0,170,269.9487767227108,211124,1150,1236.96400308609,44.29180145263672,,11.137214660644531,0.57,42.656646728515625,43.4395751953125,0.774064838886261
210,MetaDrive-Tut-20Env-v0,170,276.55529234712304,212212,1152,1244.4140231609344,46.470680236816406,,13.399230003356934,0.58,46.68426513671875,46.353363037109375,0.7821274995803833
211,MetaDrive-Tut-20Env-v0,170,278.8375389054207,213236,1155,1250.499039888382,46.556861877441406,,10.115142822265625,0.59,46.33568572998047,46.62318801879883,0.7796435356140137
212,MetaDrive-Tut-20Env-v0,170,280.91725023708796,214275,1158,1256.7056739330292,45.771522521972656,-45.06416320800781,23.836326599121094,0.61,45.246212005615234,45.4134521484375,0.7438716292381287
213,MetaDrive-Tut-20Env-v0,170,284.02567430060367,215042,1160,1261.6379141807556,44.00423049926758,,14.569604873657227,0.62,44.59783172607422,44.16197204589844,0.8187434673309326
214,MetaDrive-Tut-20Env-v0,170,282.3964717360361,216083,1163,1267.9831449985504,45.7186164855957,-46.557796478271484,9.690622329711914,0.6,45.39350509643555,45.6153678894043,0.8729996681213379
215,MetaDrive-Tut-20Env-v0,170,282.33696184478123,217143,1166,1274.5004210472107,46.27845764160156,-46.58079147338867,9.851268768310547,0.6,45.736602783203125,45.58222961425781,0.7998181581497192
216,MetaDrive-Tut-20Env-v0,170,278.9894885721219,218083,1169,1280.5343079566956,46.047698974609375,-46.45306396484375,12.246450424194336,0.59,45.52503967285156,45.730079650878906,0.7912752032279968
217,MetaDrive-Tut-20Env-v0,170,280.4313585405721,219238,1172,1287.5990760326385,45.91461944580078,,12.89883804321289,0.6,46.294185638427734,46.39699935913086,0.8036412000656128
218,MetaDrive-Tut-20Env-v0,170,281.60249833310536,220343,1175,1294.378685951233,45.762596130371094,-46.06309127807617,7.13244104385376,0.6,45.61983108520508,45.83811950683594,0.7731499671936035
219,MetaDrive-Tut-20Env-v0,170,282.6118864326016,221233,1177,1299.805568933487,47.978721618652344,-48.370208740234375,28.39803695678711,0.6,48.60078048706055,48.425453186035156,0.8158383369445801
220,MetaDrive-Tut-20Env-v0,170,284.55886145042973,222413,1180,1306.9835398197174,44.398399353027344,-45.261905670166016,13.715051651000977,0.61,43.83247375488281,43.806304931640625,0.8292220830917358
221,MetaDrive-Tut-20Env-v0,170,281.305738243969,223172,1183,1311.4956851005554,45.598907470703125,,11.660476684570312,0.6,46.287689208984375,46.0588264465332,0.8527784943580627
222,MetaDrive-Tut-20Env-v0,170,281.0078410093252,224134,1186,1317.8505220413208,45.92121887207031,,8.26262092590332,0.57,46.15667724609375,46.21382141113281,0.8099992871284485
223,MetaDrive-Tut-20Env-v0,170,281.99489945268596,225054,1188,1323.6816430091858,44.919071197509766,,14.284872055053711,0.58,45.5160026550293,45.658599853515625,0.758043110370636
224,MetaDrive-Tut-20Env-v0,169,282.6041707822085,226164,1191,1330.924810886383,44.807945251464844,,16.510469436645508,0.57,45.00166702270508,45.196067810058594,0.9603720903396606
225,MetaDrive-Tut-20Env-v0,169,285.8108659306916,227099,1193,1336.8746848106384,47.103050231933594,-47.9976921081543,11.367818832397461,0.58,47.725494384765625,48.22342300415039,0.7929001450538635
226,MetaDrive-Tut-20Env-v0,169,287.51586290894187,228499,1196,1345.5462110042572,44.460205078125,-45.045501708984375,7.872184753417969,0.58,44.28337860107422,44.35448455810547,0.8387826085090637
227,MetaDrive-Tut-20Env-v0,169,289.71528671787286,229175,1198,1349.5581970214844,44.21302795410156,-44.55369567871094,10.78953742980957,0.6,43.381839752197266,43.85763168334961,0.8067613840103149
228,MetaDrive-Tut-20Env-v0,169,292.2868522294739,230080,1200,1354.7908420562744,43.65526580810547,,12.715453147888184,0.61,43.87144088745117,43.537811279296875,0.8098269701004028
229,MetaDrive-Tut-20Env-v0,169,289.5424105294176,231367,1204,1362.3727951049805,46.49136734008789,-47.44184112548828,11.904024124145508,0.61,47.77154541015625,47.26872253417969,0.8237720727920532
230,MetaDrive-Tut-20Env-v0,169,290.31012232354334,232119,1206,1366.476870059967,43.94860076904297,-44.92502975463867,9.341601371765137,0.63,44.16241455078125,44.33098602294922,0.7878490686416626
231,MetaDrive-Tut-20Env-v0,169,287.66290738814416,233187,1210,1372.4949009418488,46.18724822998047,-46.82218551635742,23.819705963134766,0.63,46.468536376953125,45.79515838623047,0.7533348798751831
232,MetaDrive-Tut-20Env-v0,169,287.00896628231544,234036,1212,1377.6955440044403,48.027645111083984,,9.452879905700684,0.63,47.93138122558594,47.6870002746582,0.7808787822723389
233,MetaDrive-Tut-20Env-v0,169,287.03395727934276,235043,1214,1384.166972875595,50.02800369262695,-50.76190185546875,9.374641418457031,0.63,49.993900299072266,49.80356216430664,0.824199914932251
234,MetaDrive-Tut-20Env-v0,169,286.3911659991728,236051,1216,1390.21342420578,48.38051986694336,-48.26274871826172,10.553519248962402,0.64,48.354530334472656,48.9288444519043,0.8943502902984619
235,MetaDrive-Tut-20Env-v0,169,290.4609025620682,237345,1219,1397.7373459339142,47.31495666503906,-48.51392364501953,9.025918960571289,0.66,48.399322509765625,48.30659484863281,0.8179836273193359
236,MetaDrive-Tut-20Env-v0,169,294.8084338408671,238300,1221,1403.7705671787262,46.70183181762695,,9.602961540222168,0.68,46.6882209777832,46.0010986328125,0.7871391773223877
237,MetaDrive-Tut-20Env-v0,169,295.25970775163665,239092,1223,1408.4210999011993,46.297279357910156,,10.034048080444336,0.69,46.694793701171875,46.925235748291016,0.7736767530441284
238,MetaDrive-Tut-20Env-v0,169,297.8721151374772,240346,1226,1416.2784428596497,50.761024475097656,,10.083656311035156,0.71,50.795894622802734,50.55059051513672,0.7747992277145386
239,MetaDrive-Tut-20Env-v0,169,298.8760181134384,241242,1229,1421.8741600513458,49.46904754638672,,40.90711212158203,0.73,50.50165557861328,50.79662322998047,0.8229592442512512
240,MetaDrive-Tut-20Env-v0,169,298.7279035679549,242005,1231,1426.4958639144897,48.38636779785156,-49.15837478637695,10.808528900146484,0.72,47.94729995727539,48.4161491394043,0.8903855681419373
241,MetaDrive-Tut-20Env-v0,169,300.99226004056277,243359,1234,1434.8275859355927,47.775081634521484,-48.43770980834961,8.889604568481445,0.74,48.21969985961914,47.56069564819336,0.859178364276886
242,MetaDrive-Tut-20Env-v0,169,301.6016796657169,244222,1236,1439.8407979011536,47.74542999267578,,15.776191711425781,0.74,47.814056396484375,48.065006256103516,0.7286076545715332
243,MetaDrive-Tut-20Env-v0,169,298.4353882170975,245443,1239,1447.5801219940186,46.66306686401367,-47.634864807128906,15.903726577758789,0.73,46.662837982177734,47.03593444824219,0.8059093356132507
244,MetaDrive-Tut-20Env-v0,169,296.98736554436596,246248,1242,1452.5156500339508,47.32817077636719,,13.815793991088867,0.71,47.15399169921875,47.02446746826172,0.814945638179779
245,MetaDrive-Tut-20Env-v0,169,296.98166751684096,247392,1245,1459.6265110969543,49.53145217895508,,8.726154327392578,0.71,49.58335876464844,49.401424407958984,0.8247839212417603
246,MetaDrive-Tut-20Env-v0,169,296.55175644434144,248206,1248,1464.4672420024872,47.17254638671875,,9.96737289428711,0.71,47.059226989746094,47.23931121826172,0.8312394022941589
247,MetaDrive-Tut-20Env-v0,169,296.7542722661765,249295,1251,1471.2619910240173,47.870601654052734,-48.074058532714844,12.468144416809082,0.72,47.617279052734375,47.69636154174805,0.8041509389877319
248,MetaDrive-Tut-20Env-v0,169,294.3505216245901,250069,1253,1475.7449090480804,45.78342819213867,-45.951011657714844,10.283191680908203,0.72,45.74278259277344,45.67247009277344,0.8822137117385864
249,MetaDrive-Tut-20Env-v0,169,294.94352533761077,251006,1256,1481.2008612155914,47.28573989868164,,15.852578163146973,0.73,47.03926467895508,47.186859130859375,0.8637380003929138
250,MetaDrive-Tut-20Env-v0,169,291.30076361680005,252028,1260,1487.9729249477386,45.60028076171875,,74.30081939697266,0.71,45.08040237426758,46.05670166015625,0.7576970458030701
251,MetaDrive-Tut-20Env-v0,169,290.8374053770502,253351,1264,1496.4468190670013,46.01488494873047,-46.31897735595703,9.927602767944336,0.7,45.57533264160156,46.15421676635742,0.8303024172782898
252,MetaDrive-Tut-20Env-v0,169,294.4429874092626,254328,1266,1502.4964580535889,45.46683120727539,,11.740316390991211,0.71,45.03068542480469,45.050010681152344,0.7667261362075806
253,MetaDrive-Tut-20Env-v0,169,294.9588454583289,255227,1268,1507.9055190086365,48.464839935302734,-48.593650817871094,47.23231506347656,0.72,47.58033752441406,47.585609436035156,0.8099951148033142
254,MetaDrive-Tut-20Env-v0,169,297.44968133612804,256041,1270,1512.7550189495087,48.166709899902344,-48.001861572265625,10.965784072875977,0.73,47.337093353271484,47.56270980834961,0.7943723797798157
255,MetaDrive-Tut-20Env-v0,169,299.3239615141996,257005,1272,1519.0772578716278,46.96377944946289,-46.499420166015625,39.053016662597656,0.73,47.74249267578125,48.00287628173828,0.8085893988609314
256,MetaDrive-Tut-20Env-v0,169,300.3043362512724,258087,1275,1525.5915188789368,46.004493713378906,-46.027950286865234,16.135982513427734,0.74,46.157772064208984,46.47713088989258,0.7479313611984253
257,MetaDrive-Tut-20Env-v0,169,299.7274225836596,259043,1277,1531.3319339752197,48.664649963378906,-49.011817932128906,13.27691650390625,0.74,48.607177734375,48.92721939086914,0.9002780318260193
258,MetaDrive-Tut-20Env-v0,169,298.04402956298395,260069,1280,1537.5364530086517,48.75292205810547,-49.65727996826172,16.21834945678711,0.74,49.80487823486328,49.2269287109375,0.8180294036865234
259,MetaDrive-Tut-20Env-v0,169,299.36098769312525,261487,1284,1546.0853328704834,47.64669418334961,-48.16172790527344,36.6701774597168,0.75,47.29985809326172,47.55808639526367,0.7949951887130737
260,MetaDrive-Tut-20Env-v0,169,302.4598268084116,262024,1285,1549.450474023819,47.35478591918945,,11.963961601257324,0.76,46.968482971191406,46.97944259643555,0.7982180118560791
261,MetaDrive-Tut-20Env-v0,169,300.96760162054545,263101,1288,1556.112864971161,47.44955825805664,-47.89984130859375,40.754539489746094,0.76,48.667423248291016,48.14543533325195,0.7929639220237732
262,MetaDrive-Tut-20Env-v0,169,299.75356131395796,264229,1291,1562.9564452171326,47.78261947631836,-48.84236526489258,10.885974884033203,0.77,48.10053253173828,47.992706298828125,0.7705725431442261
263,MetaDrive-Tut-20Env-v0,168,301.4709399926159,265161,1293,1569.8015348911285,49.28093338012695,-49.9715461730957,11.82327651977539,0.76,48.786346435546875,49.134605407714844,0.8318690657615662
264,MetaDrive-Tut-20Env-v0,168,298.7626803190534,266296,1296,1576.4215490818024,48.69625473022461,,8.12302017211914,0.76,48.5180549621582,48.1341667175293,0.7946391105651855
265,MetaDrive-Tut-20Env-v0,168,298.34532469323955,267280,1299,1582.523954153061,47.8779182434082,,10.394396781921387,0.75,47.445701599121094,47.78959655761719,0.8079243898391724
266,MetaDrive-Tut-20Env-v0,168,301.3459047513205,268069,1301,1588.0110681056976,47.160377502441406,-47.2957763671875,8.991453170776367,0.74,46.72359848022461,47.03670120239258,0.7934694886207581
267,MetaDrive-Tut-20Env-v0,168,301.65811745103764,269274,1304,1595.3785321712494,45.25459289550781,,22.94098663330078,0.74,45.900352478027344,45.82373046875,0.7934021353721619
268,MetaDrive-Tut-20Env-v0,168,305.0611460961178,270288,1306,1602.1285419464111,48.43913269042969,,16.05297088623047,0.74,48.42715072631836,48.01468276977539,0.7807765007019043
269,MetaDrive-Tut-20Env-v0,168,309.6996183452824,271249,1308,1608.200397014618,48.854312896728516,-49.668914794921875,7.842663288116455,0.75,49.26982116699219,48.72020721435547,0.7622976899147034
270,MetaDrive-Tut-20Env-v0,168,310.6203630887185,272148,1310,1613.683618068695,49.50355911254883,,10.402095794677734,0.75,49.348533630371094,49.98963165283203,0.8383210301399231
271,MetaDrive-Tut-20Env-v0,168,310.83943376046983,273118,1312,1619.7591450214386,47.5984001159668,,7.103752613067627,0.75,47.44425964355469,47.367347717285156,0.7651727199554443
272,MetaDrive-Tut-20Env-v0,168,310.1416760055422,274071,1314,1625.7183969020844,49.76939392089844,-50.92475891113281,10.576438903808594,0.75,50.147037506103516,49.40115737915039,0.7967745661735535
273,MetaDrive-Tut-20Env-v0,168,308.18226020631135,275282,1317,1632.794883966446,49.18735122680664,,7.892043590545654,0.75,49.54644775390625,49.74100875854492,0.7940570116043091
274,MetaDrive-Tut-20Env-v0,168,308.74156634975475,276123,1319,1637.9147679805756,48.35187911987305,-49.19384765625,13.501192092895508,0.75,48.692684173583984,48.66709899902344,0.9151226282119751
275,MetaDrive-Tut-20Env-v0,168,305.77608033943,277409,1323,1645.8935170173645,47.147186279296875,-47.85411071777344,17.32463836669922,0.73,46.78519821166992,46.535831451416016,0.7772703170776367
276,MetaDrive-Tut-20Env-v0,168,305.2171141893247,278206,1325,1650.6676120758057,50.42355728149414,,8.578773498535156,0.73,50.684635162353516,50.35627746582031,0.8040935397148132
277,MetaDrive-Tut-20Env-v0,168,304.3113152153894,279046,1328,1655.9348459243774,46.209068298339844,,27.395923614501953,0.72,46.117950439453125,46.15473937988281,0.7313765287399292
278,MetaDrive-Tut-20Env-v0,168,303.76019039317725,280020,1330,1661.7890570163727,47.957435607910156,,6.883846759796143,0.72,48.091670989990234,48.03378677368164,0.8096531629562378
279,MetaDrive-Tut-20Env-v0,168,305.8121449527664,281514,1333,1670.9506528377533,50.32073211669922,,30.427478790283203,0.73,50.21754837036133,49.81401443481445,0.7633867859840393
280,MetaDrive-Tut-20Env-v0,168,303.7049701038043,282147,1335,1674.5973191261292,50.63538360595703,-50.61664581298828,16.581748962402344,0.73,49.7607307434082,50.703609466552734,0.7713867425918579
281,MetaDrive-Tut-20Env-v0,168,302.0993871293916,283154,1338,1680.7530040740967,49.05054473876953,,19.266334533691406,0.74,50.24309539794922,49.9393196105957,0.8271939754486084
282,MetaDrive-Tut-20Env-v0,168,305.5437489011306,284459,1341,1688.7090427875519,48.249149322509766,-47.93829345703125,7.673883438110352,0.76,48.15410232543945,48.43915557861328,0.7808351516723633
283,MetaDrive-Tut-20Env-v0,168,307.34228888746816,285437,1343,1694.8967258930206,46.233577728271484,-46.038352966308594,23.0786075592041,0.76,46.838130950927734,46.43082809448242,0.7934190034866333
284,MetaDrive-Tut-20Env-v0,168,308.3042800280619,286329,1345,1700.396430015564,47.96426010131836,-49.231502532958984,9.544187545776367,0.77,48.659271240234375,48.27401351928711,0.7520473003387451
285,MetaDrive-Tut-20Env-v0,168,312.62143481470264,287592,1348,1708.3171389102936,47.13618087768555,,10.236673355102539,0.77,47.00191879272461,47.92564010620117,0.8405228853225708
286,MetaDrive-Tut-20Env-v0,168,313.12585664665636,288206,1350,1712.0605731010437,49.4554557800293,,11.264946937561035,0.77,49.299949645996094,48.82158279418945,0.7483149766921997
287,MetaDrive-Tut-20Env-v0,168,314.5020103621719,289290,1352,1718.7701740264893,49.132659912109375,,11.854776382446289,0.77,49.6198844909668,49.23979949951172,0.78239905834198
288,MetaDrive-Tut-20Env-v0,168,315.1200937662868,290048,1354,1723.2099912166595,51.4679069519043,,14.403385162353516,0.77,51.74138259887695,50.68568801879883,0.7750551700592041
289,MetaDrive-Tut-20Env-v0,168,317.6260923158124,291108,1356,1730.0819671154022,48.545814514160156,,11.265547752380371,0.77,49.69944763183594,49.737117767333984,0.7811676859855652
290,MetaDrive-Tut-20Env-v0,168,321.17287765966745,292040,1358,1735.6732201576233,46.54739761352539,,6.726309299468994,0.78,46.616058349609375,46.99586868286133,0.8183321952819824
291,MetaDrive-Tut-20Env-v0,168,327.7821143102059,293502,1361,1745.275846004486,49.82174301147461,,6.233053207397461,0.81,50.68103790283203,49.590335845947266,0.7887969017028809
292,MetaDrive-Tut-20Env-v0,168,327.65842632179044,294306,1363,1750.0745871067047,51.41386413574219,,5.382194519042969,0.82,51.83653259277344,51.506439208984375,0.7954897880554199
293,MetaDrive-Tut-20Env-v0,168,327.4328030518021,295282,1365,1756.0212578773499,48.13304138183594,,11.369441986083984,0.83,47.610321044921875,47.77124786376953,0.7701661586761475
294,MetaDrive-Tut-20Env-v0,168,329.10225860874846,296411,1367,1763.2630388736725,51.50400924682617,-52.553749084472656,9.332103729248047,0.83,52.02701187133789,51.7525749206543,0.8043913245201111
295,MetaDrive-Tut-20Env-v0,168,328.1153934349247,297440,1369,1769.4952669143677,46.303165435791016,,9.210189819335938,0.83,46.368553161621094,46.685081481933594,0.8386824131011963
296,MetaDrive-Tut-20Env-v0,168,329.9298083179524,298584,1371,1776.626610994339,49.107078552246094,,7.943265914916992,0.83,48.857810974121094,48.82442092895508,0.8175886273384094
297,MetaDrive-Tut-20Env-v0,168,330.0305788347027,299043,1372,1779.5199229717255,48.32167053222656,-49.32688903808594,8.95325756072998,0.84,48.492515563964844,48.35026550292969,0.7896115779876709
298,MetaDrive-Tut-20Env-v0,167,332.9703926089958,300122,1374,1786.4582979679108,46.81892395019531,,8.828384399414062,0.84,46.357627868652344,46.66493225097656,0.8030564785003662
299,MetaDrive-Tut-20Env-v0,167,334.7781487801161,301181,1376,1793.3569641113281,48.31841278076172,-48.99152374267578,12.655927658081055,0.84,49.17091369628906,48.476993560791016,0.7217046022415161
300,MetaDrive-Tut-20Env-v0,167,337.0332936457479,302220,1378,1799.897253036499,47.60210418701172,,31.48453140258789,0.85,48.26734924316406,47.93537521362305,0.7630825042724609
301,MetaDrive-Tut-20Env-v0,167,335.99830225125515,303225,1381,1805.9476568698883,49.396568298339844,-49.774024963378906,7.848940372467041,0.84,49.38811492919922,48.994422912597656,0.7738742232322693
302,MetaDrive-Tut-20Env-v0,167,336.1187738782361,304061,1383,1810.6595089435577,46.55152130126953,-47.2159538269043,28.173372268676758,0.84,47.34075164794922,47.38519287109375,0.7949436902999878
303,MetaDrive-Tut-20Env-v0,167,335.82745327957406,305025,1385,1816.6896200180054,46.29011154174805,-47.11659622192383,8.578587532043457,0.84,46.369510650634766,46.14205551147461,0.8415641784667969
304,MetaDrive-Tut-20Env-v0,167,334.27584071088523,306007,1388,1822.6057751178741,48.7693977355957,-49.835906982421875,15.408292770385742,0.84,48.95280075073242,48.82490539550781,0.8096361756324768
305,MetaDrive-Tut-20Env-v0,167,336.17362418124424,307381,1391,1831.1011571884155,48.43687438964844,-48.6397819519043,15.805412292480469,0.85,48.29193115234375,48.81037139892578,0.8232569098472595
306,MetaDrive-Tut-20Env-v0,167,335.9395526523408,308441,1393,1837.9827480316162,52.30484390258789,-52.48723602294922,9.956527709960938,0.87,51.23564529418945,51.562286376953125,0.7209213972091675
307,MetaDrive-Tut-20Env-v0,167,337.1686486739207,309297,1395,1843.3121070861816,47.22177505493164,-47.71947479248047,11.56330394744873,0.87,47.3275146484375,47.32917404174805,0.840694010257721
308,MetaDrive-Tut-20Env-v0,167,338.84427507044916,310230,1397,1849.1956279277802,50.213592529296875,,10.073872566223145,0.87,49.861427307128906,49.72157669067383,0.7316715121269226
309,MetaDrive-Tut-20Env-v0,167,339.8006941645778,311083,1399,1854.2260131835938,46.8472785949707,-46.92222595214844,13.698450088500977,0.88,47.276161193847656,47.547691345214844,0.7737684845924377
310,MetaDrive-Tut-20Env-v0,167,337.6584651932386,312147,1402,1860.8955597877502,48.524658203125,-48.19023513793945,23.745319366455078,0.88,48.67521667480469,49.05788040161133,0.7267974615097046
311,MetaDrive-Tut-20Env-v0,167,333.85127637097935,313377,1405,1868.233479976654,49.6324462890625,-49.5118408203125,11.564521789550781,0.87,49.01129913330078,49.045616149902344,0.7736726999282837
312,MetaDrive-Tut-20Env-v0,167,330.3709580368876,314009,1407,1872.1689450740814,51.49757766723633,-51.48652648925781,9.920413970947266,0.86,51.971797943115234,51.80293273925781,0.7913892269134521
313,MetaDrive-Tut-20Env-v0,167,331.3385599388299,315368,1410,1880.6780440807343,51.98008346557617,,21.996517181396484,0.85,52.08421325683594,51.95237350463867,0.7608795762062073
314,MetaDrive-Tut-20Env-v0,167,329.9467999345386,316204,1412,1885.8783810138702,49.804786682128906,,15.65276050567627,0.84,50.61750030517578,50.51325988769531,0.780364990234375
315,MetaDrive-Tut-20Env-v0,167,330.8958864015486,317235,1414,1892.301332950592,46.82154083251953,-47.30439758300781,11.318315505981445,0.84,46.75529861450195,46.27378845214844,0.7753822207450867
316,MetaDrive-Tut-20Env-v0,167,329.51831359197627,318145,1417,1897.7428159713745,50.360008239746094,-50.52184295654297,16.096799850463867,0.82,49.54176330566406,49.50324249267578,0.7537035346031189
317,MetaDrive-Tut-20Env-v0,167,331.35509017661235,319233,1419,1904.482990026474,46.830413818359375,-47.2520637512207,11.411821365356445,0.82,47.115257263183594,47.19371795654297,0.7522386908531189
318,MetaDrive-Tut-20Env-v0,167,332.574227972498,320204,1422,1910.4700300693512,47.86595916748047,,16.767353057861328,0.83,48.339454650878906,48.18268585205078,0.8017022609710693
319,MetaDrive-Tut-20Env-v0,167,330.7575471390113,321316,1425,1916.7881529331207,49.393856048583984,,6.639677047729492,0.83,49.04474639892578,49.3979606628418,0.7877323627471924
320,MetaDrive-Tut-20Env-v0,167,333.94184627449255,322463,1427,1924.400889158249,47.19118881225586,-47.111473083496094,13.505228996276855,0.84,47.18360900878906,47.92118835449219,0.8117687106132507
321,MetaDrive-Tut-20Env-v0,167,337.3787879040133,323330,1429,1929.912927865982,48.84355163574219,,9.351890563964844,0.84,48.94237518310547,48.66051483154297,0.7567035555839539
322,MetaDrive-Tut-20Env-v0,167,338.66113564811513,324307,1431,1935.8696639537811,50.44468307495117,-51.03846740722656,7.901313781738281,0.84,49.61841583251953,49.612060546875,0.7431643009185791
323,MetaDrive-Tut-20Env-v0,167,335.1744947863117,325027,1433,1940.0886640548706,48.761566162109375,-49.108028411865234,8.429695129394531,0.84,48.8580207824707,48.3856201171875,0.874987006187439
324,MetaDrive-Tut-20Env-v0,167,338.2378634986305,326412,1436,1948.9078471660614,46.3459587097168,,18.43968963623047,0.83,47.1259651184082,47.09669876098633,0.8489835858345032
325,MetaDrive-Tut-20Env-v0,167,341.0469317837125,327326,1438,1954.3014268875122,50.752925872802734,,15.994928359985352,0.84,49.913978576660156,49.94979476928711,0.9208835959434509
326,MetaDrive-Tut-20Env-v0,167,338.2742991698441,328554,1441,1961.645602941513,49.10868835449219,,17.551624298095703,0.83,49.83877182006836,50.16498947143555,0.8298529386520386
327,MetaDrive-Tut-20Env-v0,167,340.3807704966186,329137,1442,1965.4942200183868,50.55467987060547,-51.14170455932617,11.193472862243652,0.83,51.14360809326172,50.813968658447266,0.7498666048049927
328,MetaDrive-Tut-20Env-v0,167,339.3800962168059,330168,1444,1971.870187997818,49.47707748413086,,9.917749404907227,0.83,49.199676513671875,49.2042236328125,0.8030699491500854
329,MetaDrive-Tut-20Env-v0,167,339.44008399111,331386,1447,1979.4745421409607,49.085296630859375,,8.410796165466309,0.83,48.89159393310547,49.151729583740234,0.8108673095703125
330,MetaDrive-Tut-20Env-v0,167,338.74079766699833,332532,1450,1986.656082868576,47.795291900634766,,7.073076248168945,0.83,47.630615234375,48.432640075683594,0.8071126937866211
331,MetaDrive-Tut-20Env-v0,167,338.54388643753265,333513,1452,1992.8511989116669,48.180519104003906,-48.77446746826172,14.391277313232422,0.83,48.89788818359375,48.6450080871582,0.8313674926757812
332,MetaDrive-Tut-20Env-v0,167,339.20715882953095,334017,1453,1995.956860780716,48.18216323852539,-48.62761688232422,14.070292472839355,0.83,48.637535095214844,48.76983642578125,0.7709619998931885
333,MetaDrive-Tut-20Env-v0,167,337.64766558688405,335436,1456,2004.4032719135284,49.07011032104492,,6.439294815063477,0.83,48.83353042602539,49.066070556640625,0.8176956176757812
334,MetaDrive-Tut-20Env-v0,167,335.9511067557735,336091,1458,2008.2011308670044,48.954463958740234,-49.51734924316406,10.224607467651367,0.83,48.47645950317383,47.91026306152344,0.8322100639343262
335,MetaDrive-Tut-20Env-v0,167,329.80417618594834,337323,1462,2015.5897970199585,50.53934097290039,-50.3597412109375,13.564596176147461,0.82,51.58768844604492,51.98775100708008,0.8870904445648193
336,MetaDrive-Tut-20Env-v0,167,328.68727088311795,338245,1464,2021.110300064087,48.830684661865234,-49.514530181884766,9.673288345336914,0.82,49.486995697021484,49.01612854003906,0.8008977174758911
337,MetaDrive-Tut-20Env-v0,167,329.8534097346101,339295,1466,2027.9100630283356,50.21865463256836,-50.65807342529297,9.446846961975098,0.82,50.423587799072266,49.60560607910156,0.8496610522270203
338,MetaDrive-Tut-20Env-v0,167,327.01704259532846,340063,1468,2032.6261649131775,49.931602478027344,-50.60232162475586,8.074853897094727,0.81,50.01747131347656,50.081138610839844,0.8006194829940796
339,MetaDrive-Tut-20Env-v0,167,323.44305760698956,341284,1471,2040.0456330776215,48.25261688232422,,9.600973129272461,0.81,48.685489654541016,49.07292938232422,0.8537672758102417
340,MetaDrive-Tut-20Env-v0,167,319.3388812032457,342336,1474,2046.5935130119324,49.817298889160156,,10.933273315429688,0.8,50.34000778198242,50.29331970214844,0.7791340351104736
341,MetaDrive-Tut-20Env-v0,167,318.7167400176171,343332,1476,2053.019867181778,48.33592987060547,,9.216385841369629,0.8,48.77066421508789,48.843833923339844,0.7813524007797241
342,MetaDrive-Tut-20Env-v0,167,318.9093005425333,344265,1478,2059.155616044998,49.43818664550781,-49.17558288574219,14.453598022460938,0.8,49.14613342285156,49.14341735839844,0.8143998384475708
343,MetaDrive-Tut-20Env-v0,167,319.5369996929392,345175,1481,2064.7318320274353,50.11663055419922,-50.51972961425781,7.900309085845947,0.81,50.429962158203125,50.387271881103516,0.6996303796768188
344,MetaDrive-Tut-20Env-v0,167,320.96467926491556,346225,1483,2071.106847047806,52.52949142456055,-52.395206451416016,10.498664855957031,0.81,52.98346710205078,52.69490051269531,0.8454721570014954
345,MetaDrive-Tut-20Env-v0,167,322.4630801422545,347397,1485,2078.7041578292847,46.91657638549805,-47.94721221923828,24.404888153076172,0.81,47.57603073120117,47.20429229736328,0.8537045121192932
346,MetaDrive-Tut-20Env-v0,167,320.52932909439414,348178,1487,2083.4034831523895,49.74732208251953,,6.267270088195801,0.8,49.265777587890625,49.87446594238281,0.7937883138656616
347,MetaDrive-Tut-20Env-v0,167,325.42177901112865,349338,1489,2090.6327250003815,49.591182708740234,,11.34901237487793,0.8,49.80192947387695,48.89453125,0.7836845517158508
348,MetaDrive-Tut-20Env-v0,167,322.1202684546981,350067,1491,2095.1334619522095,49.957122802734375,-49.332679748535156,12.23139476776123,0.79,49.33715057373047,50.171241760253906,0.7296600937843323
349,MetaDrive-Tut-20Env-v0,167,322.26342715210774,351532,1494,2104.0037281513214,49.0019416809082,,8.535017013549805,0.79,49.06128692626953,48.43825912475586,0.7600979804992676
350,MetaDrive-Tut-20Env-v0,167,321.2719740205571,352019,1495,2106.7141501903534,49.55670166015625,-50.2580680847168,10.870150566101074,0.79,50.84375762939453,49.82033920288086,0.7947882413864136
351,MetaDrive-Tut-20Env-v0,167,321.02770770329596,353553,1498,2116.2522950172424,49.83482360839844,-50.60781478881836,14.730447769165039,0.77,49.654762268066406,49.229698181152344,0.8124158978462219
352,MetaDrive-Tut-20Env-v0,167,322.9229877250376,354220,1499,2120.5188760757446,48.1114501953125,,8.841176986694336,0.77,47.81453323364258,47.615657806396484,0.7926866412162781
353,MetaDrive-Tut-20Env-v0,167,324.9034906244787,355383,1501,2127.4258239269257,47.57112121582031,-48.21397399902344,14.263343811035156,0.78,46.824974060058594,46.72393798828125,0.7733047008514404
354,MetaDrive-Tut-20Env-v0,167,324.27046916124965,356407,1503,2133.2274799346924,47.10089874267578,-47.401126861572266,10.533716201782227,0.79,47.41803741455078,47.62762451171875,0.8792869448661804
355,MetaDrive-Tut-20Env-v0,167,328.1418013939538,357178,1504,2138.0823199748993,49.08868408203125,,12.954416275024414,0.8,49.87946319580078,49.9400749206543,0.8411943316459656
356,MetaDrive-Tut-20Env-v0,167,327.99559603461273,358548,1506,2146.085329055786,50.36663818359375,,6.908322334289551,0.8,50.5428581237793,50.544498443603516,0.850864052772522
357,MetaDrive-Tut-20Env-v0,167,328.9275769685304,359377,1508,2150.8110058307648,50.08513641357422,-50.48909378051758,10.236080169677734,0.81,49.26224899291992,49.21800994873047,0.7783492803573608
358,MetaDrive-Tut-20Env-v0,167,328.13833324736754,360186,1509,2155.144824028015,50.45299530029297,,6.962342739105225,0.81,50.601890563964844,50.33946990966797,0.823300838470459
359,MetaDrive-Tut-20Env-v0,167,327.5651925323735,361309,1511,2162.3278760910034,50.56496047973633,-51.232357025146484,12.183675765991211,0.81,50.946041107177734,51.2765998840332,0.8023521900177002
360,MetaDrive-Tut-20Env-v0,167,326.2384699312231,362187,1513,2167.4397790431976,49.99040603637695,-49.98368453979492,9.367158889770508,0.82,50.6338996887207,50.59295654296875,0.8206983804702759
361,MetaDrive-Tut-20Env-v0,167,328.1297830706634,363414,1516,2175.1496381759644,50.018089294433594,,10.039377212524414,0.83,50.353240966796875,48.92321014404297,0.7447651624679565
362,MetaDrive-Tut-20Env-v0,167,324.81571992028125,364432,1519,2180.995507001877,49.576045989990234,,17.022754669189453,0.83,50.64488220214844,49.96753692626953,0.813504159450531
363,MetaDrive-Tut-20Env-v0,167,326.7377276580355,365432,1521,2186.9929609298706,50.35894775390625,,13.193658828735352,0.84,50.73301696777344,50.73943328857422,0.8092190623283386
364,MetaDrive-Tut-20Env-v0,167,326.6073402791449,366249,1523,2191.965234041214,47.118873596191406,-47.80838394165039,7.262655258178711,0.83,47.07232666015625,46.70430374145508,0.7517133355140686
365,MetaDrive-Tut-20Env-v0,167,317.6588782675763,367123,1527,2197.372528076172,48.533477783203125,-48.02375030517578,9.649134635925293,0.8,48.778724670410156,48.93037033081055,0.7635015249252319
366,MetaDrive-Tut-20Env-v0,167,318.4171860137913,368068,1529,2203.4041771888733,51.29887390136719,,6.042559623718262,0.81,50.97927474975586,51.34722137451172,0.7534244060516357
367,MetaDrive-Tut-20Env-v0,167,317.2092242192369,369400,1532,2211.388580083847,49.555179595947266,,15.281620025634766,0.81,48.445350646972656,48.847015380859375,0.758698582649231
368,MetaDrive-Tut-20Env-v0,167,319.86033094640766,370357,1534,2217.2304282188416,47.86881637573242,-48.98871612548828,11.440301895141602,0.82,48.252071380615234,48.092491149902344,0.7779594659805298
369,MetaDrive-Tut-20Env-v0,167,318.14851569560784,371198,1536,2222.3622488975525,50.66874313354492,,12.788443565368652,0.82,49.962459564208984,50.78300094604492,0.7825215458869934
370,MetaDrive-Tut-20Env-v0,167,316.4765600492226,372418,1539,2229.9179010391235,49.01355743408203,,83.23371887207031,0.81,49.00851058959961,48.402034759521484,0.7110983729362488
371,MetaDrive-Tut-20Env-v0,166,318.14442846298095,373273,1541,2235.279417991638,46.35683059692383,-46.15141677856445,9.254989624023438,0.82,46.38775634765625,47.363224029541016,0.8848483562469482
372,MetaDrive-Tut-20Env-v0,166,317.53550009176354,374307,1543,2242.007551908493,51.5295524597168,-52.68442153930664,8.452590942382812,0.82,52.50932693481445,52.462520599365234,0.8083510994911194
373,MetaDrive-Tut-20Env-v0,166,316.40345138394974,375073,1545,2246.5643520355225,47.018775939941406,-47.853607177734375,8.452670097351074,0.82,47.159454345703125,46.86693572998047,0.8370826244354248
374,MetaDrive-Tut-20Env-v0,166,316.27724054945605,376123,1548,2252.663953065872,49.97230911254883,-49.623409271240234,11.932046890258789,0.82,49.68283462524414,49.980682373046875,0.7919111847877502
375,MetaDrive-Tut-20Env-v0,166,317.0744163144236,377094,1550,2258.4780468940735,49.285362243652344,,6.397978782653809,0.83,49.68380355834961,49.428497314453125,0.8293121457099915
376,MetaDrive-Tut-20Env-v0,166,316.50507663385804,378549,1553,2267.461937189102,49.860801696777344,-49.971275329589844,11.711614608764648,0.83,50.06550216674805,50.544281005859375,0.8090941905975342
377,MetaDrive-Tut-20Env-v0,166,317.2662199911132,379456,1555,2273.008297920227,49.40435791015625,,6.511338710784912,0.83,49.24639892578125,49.670257568359375,0.7911859750747681
378,MetaDrive-Tut-20Env-v0,166,318.6003145863259,380002,1556,2276.8544161319733,48.3917121887207,,15.867511749267578,0.83,48.706695556640625,48.78833770751953,0.7810646891593933
379,MetaDrive-Tut-20Env-v0,166,320.3814471703329,381046,1558,2283.081843852997,47.78080749511719,,9.93449592590332,0.83,47.68159484863281,47.772705078125,0.7383269667625427
380,MetaDrive-Tut-20Env-v0,166,323.2441496223153,382469,1561,2291.597284078598,51.297428131103516,-52.109344482421875,10.931180953979492,0.83,50.81652069091797,50.5791015625,0.7774883508682251
381,MetaDrive-Tut-20Env-v0,166,322.46684674441536,383199,1563,2295.9056780338287,50.006649017333984,-50.672096252441406,27.005088806152344,0.83,48.44635772705078,49.31770324707031,0.7797040939331055
382,MetaDrive-Tut-20Env-v0,166,320.7555620380176,384492,1566,2303.4563550949097,48.33782958984375,,19.535503387451172,0.83,48.44156265258789,48.630252838134766,0.7480342984199524
383,MetaDrive-Tut-20Env-v0,166,320.08156340511465,385039,1568,2306.903188943863,48.76612091064453,-48.76000213623047,9.662321090698242,0.83,49.02006530761719,49.184181213378906,0.8073216676712036
384,MetaDrive-Tut-20Env-v0,166,320.3051945455255,386436,1571,2315.578901052475,48.26585388183594,,22.67681121826172,0.82,48.08318328857422,47.891021728515625,0.749577522277832
385,MetaDrive-Tut-20Env-v0,166,321.5972852757616,387046,1572,2319.2777020931244,50.99931335449219,,7.277336597442627,0.82,49.93079376220703,50.73785400390625,0.8658692240715027
386,MetaDrive-Tut-20Env-v0,166,322.7858816182811,388451,1575,2327.6728689670563,50.43959426879883,-51.457191467285156,15.748703002929688,0.83,50.28334426879883,49.709041595458984,0.7853073477745056
387,MetaDrive-Tut-20Env-v0,166,318.1028462536678,389227,1577,2332.218257188797,50.42402267456055,-50.85508728027344,9.790830612182617,0.83,50.63235855102539,50.91513442993164,0.7741802334785461
388,MetaDrive-Tut-20Env-v0,166,321.4918902476995,390452,1580,2339.674716234207,48.6047248840332,,10.88872241973877,0.83,48.33319854736328,48.438873291015625,0.807037353515625
389,MetaDrive-Tut-20Env-v0,166,322.4026876639699,391023,1581,2343.680655002594,49.31492233276367,-50.38936996459961,10.250129699707031,0.83,49.55461883544922,49.60557174682617,0.8506593704223633
390,MetaDrive-Tut-20Env-v0,166,322.8658595114293,392065,1583,2350.298863172531,50.15790557861328,-50.78569030761719,12.211889266967773,0.82,49.763450622558594,49.41292953491211,0.7447873950004578
391,MetaDrive-Tut-20Env-v0,166,322.5887979190343,393260,1585,2358.104154109955,48.99198913574219,,12.541952133178711,0.82,49.25361251831055,48.94119644165039,0.7996077537536621
392,MetaDrive-Tut-20Env-v0,166,321.1170590199813,394367,1588,2364.550621986389,49.3990364074707,-48.99519729614258,31.007896423339844,0.83,50.097991943359375,50.72480010986328,0.8518611788749695
393,MetaDrive-Tut-20Env-v0,166,321.5282725075986,395077,1590,2368.907122850418,51.25711441040039,-49.813758850097656,14.20097541809082,0.84,50.42699432373047,51.054386138916016,0.7847167253494263
394,MetaDrive-Tut-20Env-v0,166,319.4306607314653,396197,1592,2375.6984210014343,51.54558181762695,-51.47032165527344,10.2352294921875,0.84,50.66810989379883,51.40650939941406,0.7510685324668884
395,MetaDrive-Tut-20Env-v0,166,321.4179645141214,397352,1594,2383.237797021866,49.34931564331055,,30.144744873046875,0.84,49.83282470703125,50.191062927246094,0.8118264079093933
396,MetaDrive-Tut-20Env-v0,166,322.86428440180475,398372,1596,2389.537197113037,47.87397003173828,,20.748043060302734,0.85,48.21342849731445,47.38447189331055,0.6708986163139343
397,MetaDrive-Tut-20Env-v0,166,321.6448826522999,399416,1598,2395.813042163849,47.878868103027344,,17.091909408569336,0.86,48.454776763916016,47.90917205810547,0.7640821933746338
398,MetaDrive-Tut-20Env-v0,166,315.6639778681309,400010,1600,2399.0989990234375,49.17045974731445,,10.258161544799805,0.85,48.989540100097656,49.0093879699707,0.7312847375869751
399,MetaDrive-Tut-20Env-v0,166,317.4961767653826,401482,1603,2408.403949022293,50.69635009765625,,10.106781959533691,0.84,50.19686508178711,50.39163589477539,0.7523083090782166
400,MetaDrive-Tut-20Env-v0,166,316.2373780543933,402275,1604,2413.126843214035,49.8412971496582,-50.697914123535156,10.373088836669922,0.84,48.956260681152344,49.23876190185547,0.7950360178947449
401,MetaDrive-Tut-20Env-v0,166,314.1483359208564,403605,1608,2420.9638159275055,48.285194396972656,-48.85663986206055,19.953624725341797,0.83,47.38018035888672,47.521305084228516,0.7756404876708984
402,MetaDrive-Tut-20Env-v0,166,315.90755241651647,404200,1609,2424.669021844864,50.148414611816406,,14.30600357055664,0.83,50.10865783691406,50.06566619873047,0.7371810078620911
403,MetaDrive-Tut-20Env-v0,166,315.3224737474964,405504,1612,2432.758968114853,50.755470275878906,,9.082934379577637,0.83,50.130889892578125,50.63459014892578,0.7461115121841431
404,MetaDrive-Tut-20Env-v0,166,315.7016905423982,406326,1614,2437.64696598053,48.249961853027344,,14.802730560302734,0.83,48.2258415222168,48.47691345214844,0.7215129137039185
405,MetaDrive-Tut-20Env-v0,166,316.5846922748604,407529,1616,2445.4292311668396,48.20148849487305,-48.6906852722168,11.229888916015625,0.83,47.160980224609375,47.408180236816406,0.7778654098510742
406,MetaDrive-Tut-20Env-v0,166,317.8172172368941,408228,1618,2449.536293029785,49.95171356201172,,15.41433334350586,0.83,49.40114974975586,49.506797790527344,0.7407993078231812
407,MetaDrive-Tut-20Env-v0,166,316.24285851738273,409351,1621,2456.207554101944,47.091651916503906,-47.02739715576172,7.535305500030518,0.82,47.323516845703125,47.975433349609375,0.7788643836975098
408,MetaDrive-Tut-20Env-v0,166,318.9956733033133,410487,1623,2463.2980740070343,48.33932113647461,-48.52281188964844,18.859716415405273,0.83,48.329856872558594,48.01640701293945,0.8039696216583252
409,MetaDrive-Tut-20Env-v0,166,324.9179655566839,411478,1625,2469.333914041519,47.85921859741211,,14.745576858520508,0.85,46.8322868347168,47.95415115356445,0.7841015458106995
410,MetaDrive-Tut-20Env-v0,166,328.380978907273,412141,1626,2473.3257110118866,47.15967559814453,-48.04529571533203,15.701967239379883,0.86,47.515838623046875,46.722713470458984,0.8575645089149475
411,MetaDrive-Tut-20Env-v0,166,324.5010467488275,413338,1629,2480.5725071430206,49.110721588134766,,8.995559692382812,0.85,49.482994079589844,49.43930435180664,0.8049895763397217
412,MetaDrive-Tut-20Env-v0,166,326.0867896414995,414434,1631,2487.223841905594,50.361122131347656,,9.597932815551758,0.85,49.92311096191406,49.70490264892578,0.780674934387207
413,MetaDrive-Tut-20Env-v0,166,323.9148359031553,415434,1633,2493.3028399944305,49.700599670410156,,14.602004051208496,0.85,49.739688873291016,49.56108856201172,0.7509362101554871
414,MetaDrive-Tut-20Env-v0,166,325.04105587708966,416049,1634,2497.0122129917145,48.269893646240234,-48.5993537902832,26.285358428955078,0.85,48.78954315185547,48.56382751464844,0.7116150259971619
415,MetaDrive-Tut-20Env-v0,166,324.70580243925144,417097,1636,2503.339324235916,49.963172912597656,-50.506221771240234,39.68431854248047,0.85,50.319366455078125,49.910526275634766,0.8170762062072754
416,MetaDrive-Tut-20Env-v0,166,320.88962671892614,418240,1640,2510.4063589572906,49.662723541259766,,29.564067840576172,0.84,49.57424545288086,49.89527893066406,0.7599427700042725
417,MetaDrive-Tut-20Env-v0,166,317.28894572840204,419384,1643,2517.2805359363556,47.91434860229492,,11.200876235961914,0.83,48.02082824707031,47.95565414428711,0.8353424072265625
418,MetaDrive-Tut-20Env-v0,166,317.9576056679587,420008,1644,2521.0521941184998,47.0567512512207,,24.563316345214844,0.83,47.069358825683594,46.92319107055664,0.7737224698066711
419,MetaDrive-Tut-20Env-v0,166,318.1159296813717,421289,1647,2528.5665562152863,49.01885986328125,-49.72474670410156,11.134378433227539,0.83,48.90627670288086,48.82624816894531,0.8417266011238098
420,MetaDrive-Tut-20Env-v0,166,319.17617493485915,422290,1649,2534.8520679473877,46.48283004760742,,10.814041137695312,0.83,46.948455810546875,47.17002868652344,0.7827192544937134
421,MetaDrive-Tut-20Env-v0,166,321.5613965519986,423579,1651,2542.619048833847,45.641849517822266,-45.87482452392578,8.162565231323242,0.83,45.91495132446289,46.660423278808594,0.8438162803649902
422,MetaDrive-Tut-20Env-v0,166,320.88151709684286,424504,1653,2548.3101830482483,46.957550048828125,,8.546384811401367,0.83,46.530452728271484,46.411399841308594,0.7508374452590942
423,MetaDrive-Tut-20Env-v0,166,322.7039541131088,425105,1654,2551.9895210266113,44.88240051269531,-43.28082275390625,13.655538558959961,0.83,43.971923828125,45.40313720703125,0.7560344934463501
424,MetaDrive-Tut-20Env-v0,166,320.33588784800486,426434,1657,2559.8111181259155,47.62482833862305,,35.80857849121094,0.83,48.32640838623047,47.60735321044922,0.8033671379089355
425,MetaDrive-Tut-20Env-v0,166,319.7161666531298,427273,1659,2564.914397954941,46.993656158447266,-47.64960861206055,41.6068000793457,0.83,47.542633056640625,46.66672897338867,0.7884658575057983
426,MetaDrive-Tut-20Env-v0,166,318.94986193622043,428292,1662,2571.3020479679108,47.520057678222656,,9.979381561279297,0.82,46.688419342041016,47.06037902832031,0.7469974160194397
427,MetaDrive-Tut-20Env-v0,166,319.71567360806495,429218,1664,2577.0025022029877,48.10795211791992,,8.261778831481934,0.82,47.00507354736328,47.486175537109375,0.7683103084564209
428,MetaDrive-Tut-20Env-v0,166,320.542934923011,430055,1666,2582.266086101532,47.355533599853516,-48.401939392089844,6.976531028747559,0.82,48.16841506958008,47.74428939819336,0.7978397011756897
429,MetaDrive-Tut-20Env-v0,166,322.60382570025746,431205,1668,2589.1318349838257,47.98548889160156,-48.45698165893555,24.24294090270996,0.83,48.873008728027344,48.54518127441406,0.8042817711830139
430,MetaDrive-Tut-20Env-v0,166,323.61827013337546,432152,1670,2594.8315620422363,48.407493591308594,,14.013437271118164,0.84,48.02582550048828,48.242366790771484,0.8175216913223267
431,MetaDrive-Tut-20Env-v0,166,324.3897370566292,433318,1672,2602.2994301319122,46.324371337890625,,23.499469757080078,0.84,45.63376998901367,45.69801330566406,0.7803360819816589
432,MetaDrive-Tut-20Env-v0,166,322.07216070169574,434359,1675,2608.2563819885254,49.238563537597656,-50.009979248046875,13.50312614440918,0.83,50.45329666137695,50.16436004638672,0.7996457815170288
433,MetaDrive-Tut-20Env-v0,166,325.7350215647839,435504,1677,2615.7410061359406,46.72728729248047,,7.62309455871582,0.83,47.005130767822266,47.23272705078125,0.717987596988678
434,MetaDrive-Tut-20Env-v0,166,325.64413078984774,436385,1679,2620.860392808914,48.63121032714844,-49.520721435546875,14.618162155151367,0.84,47.91477966308594,47.95266342163086,0.7324881553649902
435,MetaDrive-Tut-20Env-v0,166,325.11470292359627,437523,1681,2628.02032995224,48.253662109375,-48.362213134765625,17.31410789489746,0.83,47.22202682495117,47.951210021972656,0.7786318063735962
436,MetaDrive-Tut-20Env-v0,166,324.06884085141144,438420,1683,2633.4681520462036,46.049781799316406,,8.57662582397461,0.83,45.87336730957031,46.29598617553711,0.8564363121986389
437,MetaDrive-Tut-20Env-v0,166,316.3087192495525,439227,1687,2638.050976037979,47.97713088989258,-49.54698181152344,8.66678237915039,0.81,47.733787536621094,47.59817123413086,0.7056381106376648
438,MetaDrive-Tut-20Env-v0,166,314.5721201752798,440298,1690,2644.2085518836975,44.930416107177734,,13.511127471923828,0.81,44.04684829711914,44.375099182128906,0.8395947217941284
439,MetaDrive-Tut-20Env-v0,166,317.4396684402545,441452,1692,2651.8329241275787,45.35770797729492,,9.637853622436523,0.81,45.453125,45.7806396484375,0.7747862339019775
440,MetaDrive-Tut-20Env-v0,166,313.88213469561435,442203,1694,2656.196806192398,48.21234130859375,-48.398704528808594,12.797920227050781,0.81,48.550662994384766,49.329132080078125,0.6836608648300171
441,MetaDrive-Tut-20Env-v0,166,313.4822498635202,443074,1696,2661.5593490600586,44.950836181640625,,8.289413452148438,0.81,45.25611114501953,44.4656982421875,0.8171117305755615
442,MetaDrive-Tut-20Env-v0,166,313.6320214118112,444013,1698,2667.38977599144,47.333438873291016,-47.471248626708984,33.774375915527344,0.81,47.582984924316406,47.48472595214844,0.7720522880554199
443,MetaDrive-Tut-20Env-v0,166,316.4062561713052,445069,1700,2673.761286020279,48.28376007080078,-48.66274642944336,14.259356498718262,0.82,48.695560455322266,47.90679168701172,0.8231146931648254
444,MetaDrive-Tut-20Env-v0,166,316.49761314405094,446309,1703,2681.673196077347,49.23056411743164,-49.4979133605957,9.336668014526367,0.83,47.932952880859375,48.67672348022461,0.7623040080070496
445,MetaDrive-Tut-20Env-v0,166,319.26617496754864,447262,1705,2687.5777399539948,48.06306457519531,,17.19477081298828,0.84,48.552703857421875,48.28759002685547,0.8346164226531982
446,MetaDrive-Tut-20Env-v0,166,316.70971288238803,448012,1708,2692.1646819114685,46.89463424682617,,8.655985832214355,0.82,46.55652618408203,46.772117614746094,0.7767921686172485
447,MetaDrive-Tut-20Env-v0,166,315.94328073656686,449211,1711,2699.3038420677185,48.51290512084961,-48.309425354003906,30.069564819335938,0.8,48.28247833251953,48.14436721801758,0.8679068088531494
448,MetaDrive-Tut-20Env-v0,166,316.0025256388324,450261,1713,2705.575611114502,47.475223541259766,-48.346378326416016,19.152835845947266,0.8,47.32797622680664,47.18472671508789,0.7508955001831055
449,MetaDrive-Tut-20Env-v0,166,315.96417153391826,451285,1715,2712.074044942856,47.254364013671875,-47.038570404052734,19.976049423217773,0.8,47.82307815551758,47.328086853027344,0.7507695555686951
450,MetaDrive-Tut-20Env-v0,166,318.26744328194997,452435,1717,2719.5456969738007,47.444332122802734,-47.57776641845703,7.120872974395752,0.79,47.67924880981445,47.418846130371094,0.8510301113128662
451,MetaDrive-Tut-20Env-v0,166,323.0584180578033,453496,1719,2725.8778438568115,47.39431381225586,,29.551551818847656,0.8,47.09130096435547,47.16227340698242,0.844289243221283
452,MetaDrive-Tut-20Env-v0,166,323.0531010711392,454064,1720,2729.4920880794525,46.76397705078125,,17.12655258178711,0.8,46.681339263916016,46.53693389892578,0.7974215745925903
453,MetaDrive-Tut-20Env-v0,166,314.53855762329925,455491,1725,2738.253720998764,48.219383239746094,-49.02059555053711,10.816179275512695,0.77,49.4212760925293,49.502010345458984,0.8674126267433167
454,MetaDrive-Tut-20Env-v0,166,315.3697462518526,456439,1727,2744.2058489322662,46.397552490234375,-46.94932556152344,25.514394760131836,0.77,46.213951110839844,45.75189971923828,0.7857522964477539
455,MetaDrive-Tut-20Env-v0,166,315.47070161915866,457176,1729,2748.53489613533,45.87335968017578,,7.599972724914551,0.77,45.970821380615234,45.681236267089844,0.7083133459091187
456,MetaDrive-Tut-20Env-v0,166,315.7372311278787,458029,1731,2753.93049120903,46.047996520996094,-46.389625549316406,9.116268157958984,0.77,46.5250244140625,46.618648529052734,0.7526440024375916
457,MetaDrive-Tut-20Env-v0,166,315.9226552707462,459297,1734,2761.861942052841,46.69078063964844,-46.23247528076172,17.966150283813477,0.77,46.65953063964844,46.79534149169922,0.7552357912063599
458,MetaDrive-Tut-20Env-v0,166,317.5275648621741,460485,1737,2769.2846310138702,48.546573638916016,-48.56501770019531,10.861064910888672,0.76,48.27712631225586,48.20988845825195,0.8094885349273682
459,MetaDrive-Tut-20Env-v0,166,317.63816922625256,461510,1740,2775.6617200374603,47.194950103759766,,11.152643203735352,0.76,47.264583587646484,47.76973342895508,0.7595180869102478
460,MetaDrive-Tut-20Env-v0,166,319.86175003064625,462043,1741,2779.091322183609,47.14014434814453,-47.32179260253906,7.951681613922119,0.77,47.7042121887207,48.09731674194336,0.8006641864776611
461,MetaDrive-Tut-20Env-v0,166,322.77072870308,463567,1744,2789.2320759296417,45.7197380065918,-45.20643615722656,6.744179725646973,0.77,45.669647216796875,46.316951751708984,0.7689158916473389
462,MetaDrive-Tut-20Env-v0,166,323.03892624337294,464143,1746,2792.63893198967,47.73226547241211,-48.6519889831543,9.784643173217773,0.78,47.92320251464844,48.123722076416016,0.72352534532547
463,MetaDrive-Tut-20Env-v0,166,320.30952171181724,465580,1750,2801.4901571273804,48.23126983642578,,19.643259048461914,0.77,48.6237678527832,48.8035888671875,0.7012358903884888
464,MetaDrive-Tut-20Env-v0,166,320.3132489192564,466100,1751,2804.6740448474884,46.18476104736328,,24.70231819152832,0.77,45.696529388427734,45.97822570800781,0.7413217425346375
465,MetaDrive-Tut-20Env-v0,166,317.87754529482646,467294,1754,2811.8716740608215,47.728145599365234,,10.202478408813477,0.77,47.37913131713867,47.67002868652344,0.853188693523407
466,MetaDrive-Tut-20Env-v0,166,320.03917070105905,468293,1756,2818.3046691417694,50.18461990356445,-49.73630905151367,12.01078987121582,0.77,51.06818389892578,50.983741760253906,0.7757827639579773
467,MetaDrive-Tut-20Env-v0,166,316.26675644006446,469052,1759,2822.725294113159,46.654396057128906,,10.44788646697998,0.76,46.85710525512695,46.58550262451172,0.8027122616767883
468,MetaDrive-Tut-20Env-v0,166,319.74922531689697,470249,1762,2830.810245037079,47.499942779541016,-47.29026794433594,8.278630256652832,0.77,47.04743194580078,46.68754577636719,0.7690433263778687
469,MetaDrive-Tut-20Env-v0,166,318.97685987680615,471045,1764,2835.3597490787506,47.720672607421875,-48.143653869628906,12.352813720703125,0.77,48.40546417236328,48.77353286743164,0.8347569108009338
470,MetaDrive-Tut-20Env-v0,166,319.76227306866855,472446,1767,2844.0038142204285,47.732696533203125,,9.12403678894043,0.77,47.07009506225586,47.07797622680664,0.8900490999221802
471,MetaDrive-Tut-20Env-v0,166,315.70602115830434,473332,1770,2849.0757591724396,50.72236633300781,,6.535192489624023,0.75,50.13801574707031,51.08519744873047,0.7956106662750244
472,MetaDrive-Tut-20Env-v0,166,314.88543571283685,474508,1773,2856.583461046219,46.94306182861328,,10.386892318725586,0.76,47.69769287109375,47.49199295043945,0.8040255308151245
473,MetaDrive-Tut-20Env-v0,166,317.5696469454194,475628,1775,2863.4463968276978,47.308349609375,,37.681304931640625,0.76,47.995880126953125,48.06484603881836,0.7234998345375061
474,MetaDrive-Tut-20Env-v0,166,316.82734846754835,476203,1776,2867.0791358947754,48.866180419921875,-48.17149353027344,13.797567367553711,0.76,48.848819732666016,49.679473876953125,0.7693870067596436
475,MetaDrive-Tut-20Env-v0,166,317.55542007456756,477301,1778,2873.8350310325623,47.7715950012207,-48.48086166381836,13.892724990844727,0.76,47.22068786621094,47.20072937011719,0.7445456385612488
476,MetaDrive-Tut-20Env-v0,166,319.21008176841895,478491,1780,2881.220150947571,47.98723220825195,-47.93021011352539,10.585980415344238,0.75,47.574195861816406,47.78073501586914,0.8265749216079712
477,MetaDrive-Tut-20Env-v0,166,318.85039636565585,479036,1781,2884.60294508934,47.979591369628906,,11.593650817871094,0.76,47.40581130981445,47.580406188964844,0.8156428933143616
478,MetaDrive-Tut-20Env-v0,166,323.24559249465887,480390,1784,2893.3647651672363,49.65361022949219,,5.791999340057373,0.78,50.13097381591797,49.80683135986328,0.8071712851524353
479,MetaDrive-Tut-20Env-v0,165,325.53435061417053,481011,1786,2897.6755061149597,48.03565216064453,-49.404232025146484,6.078716278076172,0.78,48.149845123291016,47.449790954589844,0.8141555786132812
480,MetaDrive-Tut-20Env-v0,165,328.6530765449229,482323,1789,2905.6192297935486,50.166908264160156,-51.891883850097656,20.487220764160156,0.78,50.89519119262695,50.63768005371094,0.7773414850234985
481,MetaDrive-Tut-20Env-v0,165,329.22114654754296,483167,1791,2911.1344649791718,47.71603012084961,-48.331356048583984,7.947999000549316,0.78,47.732810974121094,47.96788787841797,0.7890613079071045
482,MetaDrive-Tut-20Env-v0,165,327.87064469099295,484016,1793,2916.05229306221,46.84184265136719,,13.062348365783691,0.78,46.778480529785156,46.95178985595703,0.8110305666923523
483,MetaDrive-Tut-20Env-v0,165,323.4526429087416,485044,1797,2922.248100042343,50.58065414428711,,7.763792514801025,0.76,50.15534210205078,50.39259338378906,0.7377432584762573
484,MetaDrive-Tut-20Env-v0,165,324.0333796366833,486179,1800,2929.5160858631134,48.32744216918945,-48.039024353027344,17.99613380432129,0.76,48.81320571899414,49.15742492675781,0.7600682377815247
485,MetaDrive-Tut-20Env-v0,165,323.04275786062203,487318,1803,2936.4859161376953,51.499061584472656,,23.87582778930664,0.76,52.44554138183594,51.950016021728516,0.8284627795219421
486,MetaDrive-Tut-20Env-v0,165,325.1437495986013,488461,1805,2943.922960996628,49.20249557495117,-49.6730842590332,13.076761245727539,0.76,49.31175994873047,49.737274169921875,0.8317894339561462
487,MetaDrive-Tut-20Env-v0,165,327.6862141116505,489246,1807,2948.791615009308,46.064353942871094,,32.082061767578125,0.78,45.279136657714844,45.44637680053711,0.7006816267967224
488,MetaDrive-Tut-20Env-v0,165,328.1760350558658,490298,1810,2955.2003979682922,50.35573959350586,,14.199268341064453,0.79,50.3240966796875,48.87614440917969,0.7666840553283691
489,MetaDrive-Tut-20Env-v0,165,328.72856775035484,491026,1812,2959.6681530475616,50.03321075439453,,6.794100284576416,0.79,50.41190719604492,50.33622360229492,0.8290520906448364
490,MetaDrive-Tut-20Env-v0,165,324.5001924273786,492205,1815,2966.8525669574738,47.45949172973633,-47.341651916503906,15.202116012573242,0.78,47.226985931396484,47.280887603759766,0.7390837669372559
491,MetaDrive-Tut-20Env-v0,165,322.9242437959063,493431,1818,2974.5265069007874,49.55846405029297,-50.024620056152344,33.43544006347656,0.8,48.86068344116211,49.00459671020508,0.7114214897155762
492,MetaDrive-Tut-20Env-v0,165,320.76926024891304,494256,1820,2979.518518924713,48.965633392333984,,13.980823516845703,0.8,48.88245391845703,48.99005126953125,0.7107130885124207
493,MetaDrive-Tut-20Env-v0,165,325.2084851619105,495352,1823,2986.164299964905,50.399784088134766,,18.865007400512695,0.82,50.889305114746094,50.76118850708008,0.7833750247955322
494,MetaDrive-Tut-20Env-v0,165,328.40915820864205,496434,1825,2993.346116065979,50.65886306762695,,9.218055725097656,0.82,50.705413818359375,50.808895111083984,0.777023196220398
495,MetaDrive-Tut-20Env-v0,165,326.97485309250175,497178,1827,2997.8337440490723,49.50770568847656,,5.699749946594238,0.82,49.792728424072266,49.46368408203125,0.8318086266517639
496,MetaDrive-Tut-20Env-v0,165,326.4943476239343,498114,1830,3003.2033100128174,47.09774398803711,,10.694344520568848,0.81,46.66182327270508,47.11673355102539,0.7820249795913696
497,MetaDrive-Tut-20Env-v0,165,325.1138899541193,499530,1833,3012.081050157547,47.89402770996094,,14.01727294921875,0.81,48.257850646972656,48.24230194091797,0.7514527440071106
