cjunkin/reinforcement-learning/ppo-td3-cartpole/MetaDrive-Tut-10Env-v0/td3/progress.csv
,log_dir,frame_per_second,episode_reward,total_steps,total_episodes,total_time,target_q,actor_loss,critic_loss,success_rate,current_q1,current_q2,reward
0,MetaDrive-Tut-10Env-v0,1354,5.878747608852151,1334,2,0.9850571155548096,,,,0.0,,,
1,MetaDrive-Tut-10Env-v0,1349,7.3626693914272865,2335,3,1.7304210662841797,,,,0.0,,,
2,MetaDrive-Tut-10Env-v0,1432,8.37639784917609,3336,4,2.329280138015747,,,,0.0,,,
3,MetaDrive-Tut-10Env-v0,1342,8.673529801466497,4337,5,3.2304792404174805,,,,0.0,,,
4,MetaDrive-Tut-10Env-v0,1362,8.384385235983412,5307,6,3.8940553665161133,,,,0.0,,,
5,MetaDrive-Tut-10Env-v0,1391,9.111744750097955,6308,7,4.532063007354736,,,,0.0,,,
6,MetaDrive-Tut-10Env-v0,1388,9.167579830579637,7309,8,5.265782117843628,,,,0.0,,,
7,MetaDrive-Tut-10Env-v0,1413,9.572242756701478,8310,9,5.87891411781311,,,,0.0,,,
8,MetaDrive-Tut-10Env-v0,1415,9.72107865865243,9311,10,6.58004093170166,,,,0.0,,,
9,MetaDrive-Tut-10Env-v0,1369,10.176903955547528,10060,11,7.3458251953125,0.011004969477653503,,0.0005289725959300995,0.0,0.006419342011213303,0.016088876873254776,0.009900757111608982
10,MetaDrive-Tut-10Env-v0,807,0.39793942677661615,11022,57,13.6532621383667,0.07239425927400589,,0.0060410937294363976,0.0,0.04922349378466606,0.04820169135928154,0.02013026550412178
11,MetaDrive-Tut-10Env-v0,618,-0.034717426471690654,12001,77,19.413439989089966,-0.0004919758066534996,-0.08335841447114944,0.7205192446708679,0.0,0.0800190418958664,0.09551192820072174,-0.05211248993873596
12,MetaDrive-Tut-10Env-v0,510,3.5244251916216203,13007,96,25.456629991531372,0.11124281585216522,-0.17469985783100128,0.3596895933151245,0.0,0.14978528022766113,0.15025700628757477,0.011670132167637348
13,MetaDrive-Tut-10Env-v0,444,7.496680944785686,14005,117,31.482372283935547,0.39394351840019226,-0.5059702396392822,0.5472382307052612,0.0,0.41331198811531067,0.37091419100761414,0.07341418415307999
14,MetaDrive-Tut-10Env-v0,399,13.433609558804847,15035,140,37.63730716705322,0.8760720491409302,-0.9328657984733582,0.43848419189453125,0.0,0.7383962273597717,0.7462478280067444,0.11586499214172363
15,MetaDrive-Tut-10Env-v0,368,20.090305527825056,16025,158,43.45992398262024,1.444021224975586,-1.6156480312347412,1.3709152936935425,0.0,1.4607088565826416,1.4208588600158691,0.10000995546579361
16,MetaDrive-Tut-10Env-v0,343,27.889403753511697,17076,176,49.70459699630737,2.4311413764953613,,0.7133481502532959,0.0,2.366410493850708,2.4794301986694336,0.21119001507759094
17,MetaDrive-Tut-10Env-v0,325,30.38282692287221,18043,194,55.416274309158325,3.204817295074463,-3.4511420726776123,0.2658882737159729,0.0,3.19943904876709,3.143275260925293,0.2178526520729065
18,MetaDrive-Tut-10Env-v0,310,33.78494417949476,19033,209,61.24819302558899,3.9508590698242188,-4.225748062133789,0.9207899570465088,0.0,3.927165985107422,3.931979179382324,0.18013840913772583
19,MetaDrive-Tut-10Env-v0,298,38.58586217100687,20059,224,67.20132827758789,5.002925872802734,-5.084378242492676,3.4695301055908203,0.0,4.790277004241943,4.798500061035156,0.19896787405014038
20,MetaDrive-Tut-10Env-v0,288,43.97607625309154,21044,237,73.05842304229736,6.14840030670166,,0.41028642654418945,0.0,6.15024995803833,6.1774678230285645,0.3342845141887665
21,MetaDrive-Tut-10Env-v0,279,49.086332189317055,22027,248,78.88462519645691,7.410085678100586,-7.565698146820068,4.182912826538086,0.0,7.1793413162231445,7.1979827880859375,0.34196457266807556
22,MetaDrive-Tut-10Env-v0,271,58.08023802759152,23117,258,85.24958109855652,8.086450576782227,-8.50261116027832,6.1197099685668945,0.0,8.19975757598877,8.175500869750977,0.2784503698348999
23,MetaDrive-Tut-10Env-v0,264,62.87564576648219,24060,269,90.9114260673523,9.546181678771973,,4.399214744567871,0.0,9.4281644821167,9.488346099853516,0.37166106700897217
24,MetaDrive-Tut-10Env-v0,258,65.85721392603385,25027,280,96.7240309715271,10.656513214111328,-11.00712776184082,3.8263325691223145,0.0,10.608695983886719,10.638002395629883,0.42859113216400146
25,MetaDrive-Tut-10Env-v0,253,73.2212977788923,26058,290,102.92295813560486,11.419363975524902,,4.371440887451172,0.0,10.878682136535645,10.835474014282227,0.3845338523387909
26,MetaDrive-Tut-10Env-v0,248,77.57906347733662,27040,300,108.66672110557556,12.87857437133789,,7.884157657623291,0.0,12.750738143920898,12.656379699707031,0.37357673048973083
27,MetaDrive-Tut-10Env-v0,244,84.90583817718307,28063,309,114.74626111984253,14.169565200805664,-14.487665176391602,2.898865222930908,0.0,13.923232078552246,13.907238960266113,0.4360479712486267
28,MetaDrive-Tut-10Env-v0,240,90.01075999727131,29046,319,120.52550029754639,15.521464347839355,,2.3296802043914795,0.0,15.54311752319336,15.310277938842773,0.4482230842113495
29,MetaDrive-Tut-10Env-v0,237,90.82757999864006,30074,330,126.6560971736908,17.100139617919922,,13.483336448669434,0.0,17.287109375,17.29664421081543,0.4812155067920685
30,MetaDrive-Tut-10Env-v0,234,95.00013414866694,31088,341,132.63074111938477,17.420860290527344,,12.092941284179688,0.0,17.421823501586914,17.406204223632812,0.46234118938446045
31,MetaDrive-Tut-10Env-v0,231,95.00357420387218,32022,350,138.32226824760437,19.660888671875,,2.3514673709869385,0.0,20.055131912231445,20.04427719116211,0.583757221698761
32,MetaDrive-Tut-10Env-v0,228,94.192746798389,33055,361,144.50746822357178,19.72785186767578,-20.11404800415039,9.118865966796875,0.0,19.470407485961914,19.43902587890625,0.5125297904014587
33,MetaDrive-Tut-10Env-v0,225,98.36367679987976,34116,371,151.0810661315918,21.630340576171875,,3.107572078704834,0.0,21.559572219848633,21.619644165039062,0.6495299339294434
34,MetaDrive-Tut-10Env-v0,223,98.43408570601409,35010,381,156.31965017318726,23.178661346435547,,18.368732452392578,0.0,23.093534469604492,23.12090492248535,0.5231278538703918
35,MetaDrive-Tut-10Env-v0,220,103.67081433901716,36199,386,163.89957213401794,23.823820114135742,-24.891542434692383,6.411376953125,0.03,24.06483268737793,24.20294761657715,0.5796000957489014
36,MetaDrive-Tut-10Env-v0,217,110.87674137022313,37210,388,170.69705820083618,25.255767822265625,,17.76397705078125,0.05,25.28657341003418,25.329195022583008,0.6034227013587952
37,MetaDrive-Tut-10Env-v0,215,115.32744236373848,38223,391,177.20283126831055,25.20054817199707,-25.615299224853516,6.797370910644531,0.07,25.436885833740234,25.429176330566406,0.5542955994606018
38,MetaDrive-Tut-10Env-v0,214,120.79342559922641,39061,394,182.3194842338562,26.954092025756836,-27.641468048095703,18.124507904052734,0.08,26.52801513671875,26.528451919555664,0.6281933784484863
39,MetaDrive-Tut-10Env-v0,212,124.80196611941372,40184,398,189.077778339386,27.14208221435547,,9.478397369384766,0.1,27.291839599609375,27.354846954345703,0.6579223275184631
40,MetaDrive-Tut-10Env-v0,210,132.26766016216584,41230,400,195.66989707946777,28.297164916992188,,10.863853454589844,0.12,28.037710189819336,28.067319869995117,0.6299271583557129
41,MetaDrive-Tut-10Env-v0,209,138.61521734208972,42014,402,200.6367621421814,29.01679801940918,,15.928997039794922,0.14,29.518516540527344,29.50238037109375,0.5687123537063599
42,MetaDrive-Tut-10Env-v0,208,143.5773290103206,43059,405,206.7361080646515,30.28026580810547,-31.444555282592773,4.428511619567871,0.16,30.559524536132812,30.698688507080078,0.5940026044845581
43,MetaDrive-Tut-10Env-v0,206,149.36022286205855,44317,408,214.30303120613098,29.433256149291992,-30.06167221069336,3.1133627891540527,0.18,29.138072967529297,29.023494720458984,0.610790491104126
44,MetaDrive-Tut-10Env-v0,205,153.30041222473128,45080,410,219.02437925338745,32.1113395690918,,5.983081817626953,0.19,32.28684616088867,32.25878143310547,0.6119979619979858
45,MetaDrive-Tut-10Env-v0,204,158.999108295192,46233,414,225.8779821395874,33.6840705871582,-34.826229095458984,12.231243133544922,0.21,33.890716552734375,33.876319885253906,0.651111900806427
46,MetaDrive-Tut-10Env-v0,203,165.40220758091024,47411,417,232.7226641178131,33.543155670166016,-33.94856262207031,16.378639221191406,0.24,32.843994140625,32.903099060058594,0.6735946536064148
47,MetaDrive-Tut-10Env-v0,203,168.89753544809938,48112,420,236.66499519348145,34.00495910644531,,27.664432525634766,0.26,34.19050598144531,34.31957244873047,0.5191490650177002
48,MetaDrive-Tut-10Env-v0,201,177.81400458113046,49458,423,245.02703619003296,34.337852478027344,,18.068891525268555,0.29,34.666507720947266,34.89569854736328,0.5881528258323669
49,MetaDrive-Tut-10Env-v0,201,180.87287821461234,50041,425,248.40854406356812,36.3780632019043,-36.92047119140625,12.23447036743164,0.3,35.97496795654297,36.203575134277344,0.6880258917808533
50,MetaDrive-Tut-10Env-v0,200,186.6643097931825,51158,429,255.37021327018738,36.1937370300293,,10.525598526000977,0.31,35.6971549987793,35.697479248046875,0.6981534361839294
51,MetaDrive-Tut-10Env-v0,199,192.6369709031146,52107,431,261.05921816825867,36.662147521972656,-37.801002502441406,5.243899345397949,0.33,36.312904357910156,36.46083450317383,0.6487363576889038
52,MetaDrive-Tut-10Env-v0,198,198.2880133436369,53371,436,268.6134159564972,36.27494812011719,-36.93138122558594,8.596673965454102,0.35,36.24412536621094,36.08623123168945,0.6959561109542847
53,MetaDrive-Tut-10Env-v0,198,203.94866165460942,54210,438,273.4781150817871,38.77350616455078,,9.880163192749023,0.37,38.939701080322266,38.92157745361328,0.5715094804763794
54,MetaDrive-Tut-10Env-v0,197,209.0872909515866,55253,441,280.06841802597046,37.51445770263672,-37.84492874145508,5.633291244506836,0.38,37.44101333618164,37.32606887817383,0.6816424131393433
55,MetaDrive-Tut-10Env-v0,196,215.95769943721524,56322,444,286.80615615844727,38.080772399902344,,15.80186939239502,0.39,37.70536804199219,37.70041275024414,0.6770173907279968
56,MetaDrive-Tut-10Env-v0,195,220.4751207756139,57289,446,292.557578086853,39.27158737182617,-39.849609375,29.468929290771484,0.41,38.93128967285156,38.829673767089844,0.639080286026001
57,MetaDrive-Tut-10Env-v0,194,228.60560668627855,58483,449,299.9638202190399,38.53421401977539,-39.136573791503906,34.26113510131836,0.43,38.50395202636719,38.396175384521484,0.620720624923706
58,MetaDrive-Tut-10Env-v0,194,230.7833232161572,59156,452,304.2018370628357,38.56482696533203,,6.753628730773926,0.43,38.0139274597168,38.133296966552734,0.7222297191619873
59,MetaDrive-Tut-10Env-v0,193,235.88800852202158,60010,455,309.3799991607666,39.732566833496094,,28.158523559570312,0.44,40.337867736816406,40.45289993286133,0.5496878027915955
60,MetaDrive-Tut-10Env-v0,193,241.12886490010953,61052,458,315.64712500572205,38.81903839111328,,19.985506057739258,0.46,38.237239837646484,38.27973175048828,0.6544762849807739
61,MetaDrive-Tut-10Env-v0,192,247.7348031849764,62023,460,321.5207669734955,41.557273864746094,-42.13962173461914,5.7155985832214355,0.48,41.5250358581543,41.56912612915039,0.6056708693504333
62,MetaDrive-Tut-10Env-v0,192,251.47718537997844,63035,463,327.66480326652527,41.731781005859375,-42.485355377197266,20.499324798583984,0.5,41.66389083862305,41.46306610107422,0.6935610175132751
63,MetaDrive-Tut-10Env-v0,191,257.64910850866056,64149,467,334.21376729011536,41.227542877197266,-41.506263732910156,8.34359359741211,0.52,40.907066345214844,40.75215148925781,0.7017667293548584
64,MetaDrive-Tut-10Env-v0,191,261.7263950376606,65155,471,340.06201910972595,41.57207489013672,-42.17223358154297,21.069194793701172,0.54,41.57808303833008,41.752227783203125,0.6730015277862549
65,MetaDrive-Tut-10Env-v0,191,267.78615155484067,66416,476,347.3257312774658,41.77806091308594,,5.676851749420166,0.56,42.1518440246582,42.16537857055664,0.7238864898681641
66,MetaDrive-Tut-10Env-v0,190,273.04263795263984,67192,481,351.98392605781555,41.12775421142578,,38.68596267700195,0.56,40.92302703857422,41.142704010009766,0.7040343880653381
67,MetaDrive-Tut-10Env-v0,190,277.57192629191286,68075,483,357.5097360610962,41.433284759521484,-42.283878326416016,17.59347152709961,0.57,41.73708724975586,41.69472885131836,0.7252779006958008
68,MetaDrive-Tut-10Env-v0,189,280.57806889374865,69196,486,364.4909052848816,41.010711669921875,,15.13492202758789,0.56,41.78287124633789,41.5594482421875,0.7188326716423035
69,MetaDrive-Tut-10Env-v0,189,278.32310993791737,70028,488,369.3992052078247,42.90785217285156,,28.69091033935547,0.56,43.36742401123047,43.515830993652344,0.6788623332977295
70,MetaDrive-Tut-10Env-v0,188,276.113355199185,71385,493,377.72756004333496,43.398704528808594,-44.23802947998047,19.575937271118164,0.55,43.269744873046875,43.65190887451172,0.7092893123626709
71,MetaDrive-Tut-10Env-v0,188,279.8674554801236,72441,495,384.4440939426422,44.65386962890625,-44.88232421875,10.265838623046875,0.56,43.565887451171875,43.46379470825195,0.731370747089386
72,MetaDrive-Tut-10Env-v0,187,287.649855545762,73477,497,391.0554220676422,43.08053970336914,-43.39019775390625,11.160787582397461,0.58,42.57146072387695,42.81669998168945,0.7231075763702393
73,MetaDrive-Tut-10Env-v0,187,283.37442492055044,74040,499,394.3618381023407,41.940711975097656,,9.849250793457031,0.57,41.24068069458008,41.26186752319336,0.7426632642745972
74,MetaDrive-Tut-10Env-v0,187,280.2895511501497,75073,502,400.6430079936981,42.05803298950195,-42.64597702026367,25.79046058654785,0.56,41.52058792114258,41.63088607788086,0.6673814654350281
75,MetaDrive-Tut-10Env-v0,186,284.745742576394,76116,504,407.31600427627563,43.45897674560547,,12.601818084716797,0.57,43.04115295410156,43.35057067871094,0.7389055490493774
76,MetaDrive-Tut-10Env-v0,186,283.906790312781,77454,507,415.4366981983185,43.859458923339844,,41.93476867675781,0.58,44.595211029052734,44.33729553222656,0.7566400766372681
77,MetaDrive-Tut-10Env-v0,186,284.91422050203,78307,509,420.50986218452454,44.653953552246094,-45.426395416259766,6.778205871582031,0.58,45.00653076171875,44.65979766845703,0.6919809579849243
78,MetaDrive-Tut-10Env-v0,186,285.8076330638113,79061,512,424.87118220329285,45.74086380004883,-46.53052520751953,6.044155120849609,0.59,45.89620590209961,46.009742736816406,0.7068746089935303
79,MetaDrive-Tut-10Env-v0,185,287.06606059951804,80140,514,431.9174962043762,45.223289489746094,,12.849323272705078,0.57,44.8134765625,44.806427001953125,0.771323561668396
80,MetaDrive-Tut-10Env-v0,185,290.57342434291553,81163,516,438.48714804649353,46.86860656738281,-47.83609390258789,8.581656455993652,0.57,47.87477493286133,47.76891326904297,0.6982044577598572
81,MetaDrive-Tut-10Env-v0,184,291.98234238906775,82118,518,444.26858019828796,44.03928756713867,,7.959744453430176,0.57,44.07757568359375,44.12105178833008,0.7353668212890625
82,MetaDrive-Tut-10Env-v0,184,296.3384178681587,83085,520,450.04529213905334,45.851768493652344,-46.57660675048828,37.187286376953125,0.58,45.81587219238281,45.83811569213867,0.7067317962646484
83,MetaDrive-Tut-10Env-v0,184,294.25352890042535,84255,523,457.1945641040802,45.8760986328125,-47.29399871826172,48.5534553527832,0.57,46.334468841552734,46.290672302246094,0.6813759803771973
84,MetaDrive-Tut-10Env-v0,184,298.2674714775361,85454,526,464.1904721260071,45.761863708496094,,8.363808631896973,0.59,46.32044982910156,46.28342056274414,0.7586214542388916
85,MetaDrive-Tut-10Env-v0,183,301.4659514204137,86309,528,469.4927291870117,47.224830627441406,-47.709503173828125,17.568790435791016,0.6,46.53511047363281,46.492156982421875,0.7505565881729126
86,MetaDrive-Tut-10Env-v0,183,300.6492677839017,87164,530,474.4934730529785,46.69113540649414,,15.586078643798828,0.61,46.04404067993164,46.06476593017578,0.7982614040374756
87,MetaDrive-Tut-10Env-v0,183,300.6476295767846,88046,534,479.6337971687317,46.170501708984375,,11.784805297851562,0.61,46.54441452026367,46.45454788208008,0.8034219145774841
88,MetaDrive-Tut-10Env-v0,183,301.0425307080689,89062,536,485.74653816223145,47.23188400268555,,18.69824981689453,0.61,47.33087921142578,47.04849624633789,0.6727260947227478
89,MetaDrive-Tut-10Env-v0,183,303.73278858056597,90425,539,493.82312297821045,47.40032958984375,-48.495548248291016,8.888141632080078,0.62,46.96918869018555,47.04908752441406,0.6964209675788879
90,MetaDrive-Tut-10Env-v0,182,303.57628957724756,91358,541,499.48196721076965,48.60268783569336,,28.904380798339844,0.63,48.1922607421875,48.13459014892578,0.6432315707206726
91,MetaDrive-Tut-10Env-v0,182,301.538401115109,92346,544,505.15557312965393,48.30875778198242,,8.110794067382812,0.64,48.105224609375,48.62669372558594,0.787251889705658
92,MetaDrive-Tut-10Env-v0,182,299.46666111633766,93028,546,508.9379572868347,47.39799499511719,,11.130674362182617,0.64,46.963253021240234,47.356788635253906,0.7963903546333313
93,MetaDrive-Tut-10Env-v0,182,300.07595573184034,94286,550,516.7793180942535,49.696964263916016,,45.438262939453125,0.64,49.946075439453125,49.918785095214844,0.7503384947776794
94,MetaDrive-Tut-10Env-v0,182,300.0492353897574,95390,553,523.2282292842865,50.34950637817383,,14.519569396972656,0.66,49.06764221191406,49.46312713623047,0.7613815665245056
95,MetaDrive-Tut-10Env-v0,181,305.92992753711604,96461,555,530.4989252090454,48.53823471069336,-48.926673889160156,18.14944076538086,0.68,48.57448959350586,48.76376724243164,0.6652333736419678
96,MetaDrive-Tut-10Env-v0,181,304.86314872144476,97273,558,535.0845041275024,49.569332122802734,-49.06156539916992,12.174747467041016,0.68,48.75072479248047,48.73565673828125,0.7334768772125244
97,MetaDrive-Tut-10Env-v0,181,304.8025144735286,98280,560,541.0819721221924,49.17791748046875,,7.565844535827637,0.68,48.79903030395508,48.84050369262695,0.7398141622543335
98,MetaDrive-Tut-10Env-v0,181,305.6998997765328,99169,562,546.3447880744934,51.384429931640625,-51.323097229003906,24.94890022277832,0.69,51.08953857421875,51.11692428588867,0.6980029940605164
99,MetaDrive-Tut-10Env-v0,181,309.8666813852856,100187,564,552.4646122455597,50.11781692504883,-50.976802825927734,11.843460083007812,0.7,50.730072021484375,50.58503341674805,0.7477366328239441
100,MetaDrive-Tut-10Env-v0,181,309.01323326440297,101131,567,557.9605700969696,51.20819854736328,-51.67577362060547,24.452804565429688,0.7,50.88326644897461,50.80138397216797,0.8222730159759521
101,MetaDrive-Tut-10Env-v0,180,313.2157262200008,102192,569,564.6689522266388,52.06183624267578,,31.674930572509766,0.71,53.38532257080078,53.168548583984375,0.7247314453125
102,MetaDrive-Tut-10Env-v0,180,316.37099335954406,103318,572,571.5081331729889,51.245059967041016,,11.048965454101562,0.72,51.267391204833984,51.177330017089844,0.7697081565856934
103,MetaDrive-Tut-10Env-v0,180,319.2132011105212,104257,575,577.2281150817871,51.282752990722656,-51.94343566894531,21.14853286743164,0.73,50.83026123046875,50.58619689941406,0.8961626887321472
104,MetaDrive-Tut-10Env-v0,180,320.6252072627958,105124,578,582.1382341384888,52.40840530395508,,7.699615955352783,0.74,51.78170394897461,52.15227508544922,0.7122860550880432
105,MetaDrive-Tut-10Env-v0,180,325.73819003525784,106181,580,588.7456140518188,52.446929931640625,-52.853004455566406,15.992837905883789,0.76,52.638492584228516,52.45258331298828,0.7874471545219421
106,MetaDrive-Tut-10Env-v0,180,324.29407210240197,107347,583,595.6045141220093,53.67721939086914,-54.053489685058594,32.63669204711914,0.77,53.63108825683594,53.737098693847656,0.7316868901252747
107,MetaDrive-Tut-10Env-v0,179,327.6651328985043,108418,585,602.3902170658112,52.56122589111328,,8.826957702636719,0.78,52.239234924316406,52.31514358520508,0.7092254161834717
108,MetaDrive-Tut-10Env-v0,179,326.04789378540846,109032,587,605.9315090179443,51.08760070800781,,22.417783737182617,0.79,51.34418487548828,51.20735168457031,0.8123766183853149
109,MetaDrive-Tut-10Env-v0,179,325.7329022199163,110031,591,611.8086810112,53.18988037109375,-54.5844841003418,39.058555603027344,0.79,53.76128387451172,53.82831573486328,0.7550572156906128
110,MetaDrive-Tut-10Env-v0,179,326.90734401502795,111005,593,618.1670610904694,52.82616424560547,-53.256256103515625,28.29835319519043,0.8,52.39610290527344,52.2055549621582,0.6816458702087402
111,MetaDrive-Tut-10Env-v0,179,325.7707982799906,112403,596,626.8730790615082,53.082984924316406,-53.646366119384766,19.08277702331543,0.8,53.28067398071289,53.342384338378906,0.7787249088287354
112,MetaDrive-Tut-10Env-v0,179,326.46198412898633,113241,598,631.8445541858673,56.46205520629883,-56.50709915161133,10.132464408874512,0.81,55.1224365234375,55.66326141357422,0.7611445188522339
113,MetaDrive-Tut-10Env-v0,179,325.5377443985314,114228,601,637.372935295105,55.46680450439453,,7.779750823974609,0.82,55.6241455078125,56.20780563354492,0.7906625866889954
114,MetaDrive-Tut-10Env-v0,179,323.2692762825644,115420,604,644.5062870979309,54.63542175292969,,13.80862808227539,0.81,55.38273620605469,54.9222297668457,0.8354660272598267
115,MetaDrive-Tut-10Env-v0,178,325.6059619964289,116501,606,651.0938551425934,53.3941535949707,-53.62331771850586,16.236766815185547,0.81,53.2900390625,52.797115325927734,0.7607659101486206
116,MetaDrive-Tut-10Env-v0,178,322.80448185753073,117401,609,656.2644491195679,54.389373779296875,-55.21435546875,14.557146072387695,0.8,54.24988555908203,54.79829025268555,0.752086877822876
117,MetaDrive-Tut-10Env-v0,178,323.86714226438596,118256,612,661.0290682315826,55.10256576538086,,10.396125793457031,0.81,55.243019104003906,55.374454498291016,0.7314153909683228
118,MetaDrive-Tut-10Env-v0,178,323.49616967692396,119316,614,667.7872741222382,54.31629943847656,,13.072949409484863,0.83,54.22554016113281,54.445491790771484,0.773627519607544
119,MetaDrive-Tut-10Env-v0,178,321.98553003021595,120248,616,673.5212731361389,54.365623474121094,,21.007991790771484,0.83,54.14175033569336,54.382591247558594,0.7775857448577881
120,MetaDrive-Tut-10Env-v0,178,322.0016008147631,121159,618,679.029146194458,56.040191650390625,-56.48075485229492,7.402682781219482,0.83,55.85150909423828,55.735042572021484,0.7698435187339783
121,MetaDrive-Tut-10Env-v0,178,319.5103358452735,122146,621,684.7152650356293,55.783695220947266,,10.48928451538086,0.83,56.16436767578125,56.30055236816406,0.7087725400924683
122,MetaDrive-Tut-10Env-v0,178,319.2040310518651,123253,624,691.2612459659576,56.37000274658203,-57.00860595703125,9.744903564453125,0.83,55.91059875488281,55.88312530517578,0.7947540283203125
123,MetaDrive-Tut-10Env-v0,178,319.0687940059347,124060,626,696.0929090976715,56.20176696777344,,10.927318572998047,0.83,55.55152130126953,56.21469497680664,0.7595505714416504
124,MetaDrive-Tut-10Env-v0,178,319.28080303114376,125384,629,703.8822672367096,54.594970703125,,49.88539123535156,0.83,55.01539993286133,54.74989318847656,0.6291650533676147
125,MetaDrive-Tut-10Env-v0,178,317.79592088811506,126223,632,708.7787981033325,56.18967819213867,-57.316776275634766,5.202352523803711,0.83,56.27702331542969,55.91765594482422,0.7489672899246216
126,MetaDrive-Tut-10Env-v0,177,323.26467315525684,127059,634,713.978716135025,56.2116584777832,-56.40496063232422,13.438309669494629,0.85,55.3380126953125,55.151214599609375,0.821820080280304
127,MetaDrive-Tut-10Env-v0,177,322.2693984393898,128283,637,721.2805309295654,56.70180130004883,-57.24074935913086,9.762672424316406,0.85,57.3418083190918,57.58415222167969,0.7764593362808228
128,MetaDrive-Tut-10Env-v0,177,321.4640517863784,129038,639,725.5212981700897,58.14455795288086,,8.572595596313477,0.85,58.61505126953125,58.926002502441406,0.7664381265640259
129,MetaDrive-Tut-10Env-v0,177,322.47664458963686,130338,642,733.2684471607208,57.000396728515625,,15.536563873291016,0.86,57.470279693603516,56.935272216796875,0.7892746925354004
130,MetaDrive-Tut-10Env-v0,177,321.23929530549816,131214,645,738.2677512168884,55.477882385253906,,9.184396743774414,0.86,55.88993835449219,55.82238006591797,0.6643415689468384
131,MetaDrive-Tut-10Env-v0,177,323.4441169336333,132166,647,744.1075420379639,55.35026931762695,,7.322858810424805,0.87,55.37499237060547,54.950538635253906,0.7909722924232483
132,MetaDrive-Tut-10Env-v0,177,322.319094531102,133322,651,750.7105481624603,56.82014083862305,,10.638547897338867,0.87,57.06359100341797,57.19798278808594,0.8749184608459473
133,MetaDrive-Tut-10Env-v0,177,323.74133135761303,134253,653,756.3766961097717,56.814144134521484,-57.87335205078125,28.764053344726562,0.87,57.716514587402344,58.03706741333008,0.7736064195632935
134,MetaDrive-Tut-10Env-v0,177,318.35940015429225,135427,655,763.0120923519135,57.18177032470703,-57.805633544921875,41.060829162597656,0.85,57.322566986083984,57.35572052001953,0.7305155396461487
135,MetaDrive-Tut-10Env-v0,177,321.4267368885461,136386,657,768.9865500926971,56.38261032104492,,20.26616668701172,0.86,56.1492919921875,56.11513137817383,0.7416725754737854
136,MetaDrive-Tut-10Env-v0,177,321.62138597085425,137162,659,773.5495250225067,56.6638069152832,,10.754518508911133,0.86,56.348365783691406,56.697540283203125,0.7159433364868164
137,MetaDrive-Tut-10Env-v0,177,322.5959050344473,138045,661,779.1307101249695,56.530242919921875,-57.17312240600586,10.228687286376953,0.86,56.42179489135742,56.76316452026367,0.8028097152709961
138,MetaDrive-Tut-10Env-v0,177,321.06793540113847,139197,664,786.1086430549622,57.8289680480957,-59.19446563720703,22.902843475341797,0.86,58.715518951416016,59.03306198120117,0.7798329591751099
139,MetaDrive-Tut-10Env-v0,177,322.1743230915122,140184,667,791.6832172870636,57.71659469604492,,47.525577545166016,0.87,57.65603256225586,57.70259094238281,0.7371400594711304
140,MetaDrive-Tut-10Env-v0,177,318.99308042403936,141319,670,798.2066960334778,57.46963119506836,-57.82081985473633,9.226001739501953,0.87,57.62867736816406,57.37128448486328,0.8122189044952393
141,MetaDrive-Tut-10Env-v0,177,320.1083948473241,142086,672,802.7324821949005,58.98955535888672,,6.6294846534729,0.88,58.905879974365234,58.82176971435547,0.7954242825508118
142,MetaDrive-Tut-10Env-v0,176,320.16745461923495,143046,675,808.2601580619812,56.858665466308594,,12.682385444641113,0.88,57.013484954833984,57.09247970581055,0.8220235109329224
143,MetaDrive-Tut-10Env-v0,176,324.3017516918061,144472,678,817.0102829933167,57.75664520263672,,7.960409164428711,0.89,57.463287353515625,57.508514404296875,0.7623003721237183
144,MetaDrive-Tut-10Env-v0,176,318.8640584828541,145287,681,821.8304841518402,57.58903121948242,-58.383941650390625,8.062641143798828,0.88,58.41667175292969,58.40708923339844,0.7536666393280029
145,MetaDrive-Tut-10Env-v0,176,321.1769187144809,146239,683,827.6737442016602,56.4071159362793,-56.503841400146484,11.70291519165039,0.88,55.738582611083984,55.61208724975586,0.7997710108757019
146,MetaDrive-Tut-10Env-v0,176,319.12176498081203,147039,685,832.3929889202118,57.62752151489258,-57.43342208862305,24.00638771057129,0.88,57.17606735229492,56.78188705444336,0.7492124438285828
147,MetaDrive-Tut-10Env-v0,176,323.56117320306373,148336,688,840.2246699333191,57.603248596191406,,35.081871032714844,0.89,57.48484420776367,57.12953567504883,0.7118616104125977
148,MetaDrive-Tut-10Env-v0,176,322.7214692739635,149116,691,844.6717932224274,57.160987854003906,,8.99917984008789,0.89,57.33399200439453,57.42597579956055,0.7239992022514343
149,MetaDrive-Tut-10Env-v0,176,320.9956747346495,150518,694,853.4068982601166,58.64653015136719,,8.330242156982422,0.89,58.52580261230469,58.633296966552734,0.7234697341918945
150,MetaDrive-Tut-10Env-v0,176,322.03927382863054,151438,696,859.255264043808,57.91936492919922,,32.87644958496094,0.89,58.86121368408203,59.05684280395508,0.6765424013137817
151,MetaDrive-Tut-10Env-v0,176,324.2039221105204,152044,697,863.1050691604614,54.82294464111328,,11.959810256958008,0.89,54.2436637878418,54.7057991027832,0.6769957542419434
152,MetaDrive-Tut-10Env-v0,176,325.43758811257055,153256,700,870.4233222007751,58.474727630615234,,9.410562515258789,0.89,57.5274658203125,57.65308380126953,0.7485907673835754
153,MetaDrive-Tut-10Env-v0,175,328.37985473522343,154270,702,877.0557911396027,58.67412567138672,,8.70134162902832,0.89,59.23554229736328,59.104644775390625,0.7683337330818176
154,MetaDrive-Tut-10Env-v0,175,326.1246238408953,155253,705,883.2697851657867,56.49102783203125,-57.1676139831543,9.104321479797363,0.89,56.71724319458008,56.86335754394531,0.794371485710144
155,MetaDrive-Tut-10Env-v0,175,325.27266833969804,156092,707,888.1591351032257,56.80342102050781,,23.75658416748047,0.89,55.94963455200195,56.079917907714844,0.7321392297744751
156,MetaDrive-Tut-10Env-v0,175,329.60055351410125,157181,709,894.9166479110718,57.845855712890625,-57.233184814453125,6.745047092437744,0.9,57.61564254760742,58.03382873535156,0.7827548980712891
157,MetaDrive-Tut-10Env-v0,175,328.5258178852249,158459,713,902.7927150726318,58.03829574584961,-58.725669860839844,8.945806503295898,0.9,58.024658203125,58.140541076660156,0.7898847460746765
158,MetaDrive-Tut-10Env-v0,175,325.5205950080084,159143,715,906.6929831504822,56.59726333618164,-57.317508697509766,10.745792388916016,0.9,56.91012954711914,57.023529052734375,0.8666228652000427
159,MetaDrive-Tut-10Env-v0,175,325.8856005838075,160400,718,914.3652973175049,57.951541900634766,,7.8420562744140625,0.9,57.57680130004883,57.570770263671875,0.7604435682296753
160,MetaDrive-Tut-10Env-v0,175,326.6215817285016,161202,720,919.0728342533112,56.58163070678711,,22.88595962524414,0.91,56.79969024658203,57.03070831298828,0.7628664970397949
161,MetaDrive-Tut-10Env-v0,175,327.63239789563823,162184,722,924.9731011390686,57.158058166503906,,12.488067626953125,0.91,57.435813903808594,57.70512771606445,0.7051156759262085
162,MetaDrive-Tut-10Env-v0,175,328.7702893780934,163302,725,931.3753132820129,58.953712463378906,,15.312416076660156,0.91,58.86067199707031,59.186241149902344,0.8030316829681396
163,MetaDrive-Tut-10Env-v0,175,332.1694332865703,164552,727,939.1813502311707,57.940425872802734,,12.185282707214355,0.91,57.276309967041016,57.30572509765625,0.7881429195404053
164,MetaDrive-Tut-10Env-v0,175,333.02531210944085,165161,728,943.0449752807617,59.29464340209961,-59.969970703125,7.634378433227539,0.91,58.83043670654297,59.16151809692383,0.7889919877052307
165,MetaDrive-Tut-10Env-v0,175,334.15910822931926,166111,730,948.7370381355286,57.78058624267578,-58.920814514160156,12.0511474609375,0.91,58.05604934692383,57.972084045410156,0.7030362486839294
166,MetaDrive-Tut-10Env-v0,175,336.97808065355423,167324,733,955.7277982234955,58.00483703613281,,14.12789535522461,0.92,57.8530158996582,57.658485412597656,0.7795473337173462
167,MetaDrive-Tut-10Env-v0,175,335.00449230777633,168036,735,960.163731098175,58.5252799987793,,9.368866920471191,0.91,58.869441986083984,59.07417678833008,0.7839429378509521
168,MetaDrive-Tut-10Env-v0,174,335.6516365777319,169467,738,968.9117419719696,59.57524108886719,-60.09798049926758,9.014144897460938,0.91,59.74338150024414,59.77457809448242,0.7589564323425293
169,MetaDrive-Tut-10Env-v0,174,336.5359955701977,170288,740,973.7049071788788,58.08892822265625,,22.95816421508789,0.91,57.97119140625,57.92517852783203,0.731152355670929
170,MetaDrive-Tut-10Env-v0,174,337.17984591038424,171199,742,979.5137960910797,58.2710075378418,-59.15035629272461,14.340032577514648,0.91,58.3731803894043,58.27311325073242,0.8160156607627869
171,MetaDrive-Tut-10Env-v0,174,338.15002748147606,172025,744,984.3349812030792,56.06297302246094,-56.549461364746094,11.5348539352417,0.91,55.883426666259766,56.252891540527344,0.7938259243965149
172,MetaDrive-Tut-10Env-v0,174,339.4723535280838,173111,746,991.3436081409454,56.530330657958984,-57.389163970947266,13.427836418151855,0.91,57.46225357055664,56.798583984375,0.810165286064148
173,MetaDrive-Tut-10Env-v0,174,339.27720176140247,174159,749,997.2027111053467,60.04473114013672,-59.659523010253906,28.377574920654297,0.91,59.33266830444336,59.35307693481445,0.8021538853645325
174,MetaDrive-Tut-10Env-v0,174,338.19804872523935,175185,752,1003.0108811855316,56.83677291870117,-56.822044372558594,32.917137145996094,0.92,56.52591323852539,56.46531677246094,0.765419065952301
175,MetaDrive-Tut-10Env-v0,174,341.53075941373413,176123,754,1008.8722109794617,58.28327941894531,-58.26207733154297,8.40543270111084,0.93,57.80325698852539,57.53015899658203,0.7344304323196411
176,MetaDrive-Tut-10Env-v0,174,337.27634449127834,177325,758,1015.64528632164,57.552452087402344,-57.330204010009766,13.337580680847168,0.93,57.60962677001953,57.415740966796875,0.7195252776145935
177,MetaDrive-Tut-10Env-v0,174,336.2123580697889,178326,759,1021.9280531406403,57.4658088684082,,10.330811500549316,0.92,56.753662109375,56.999996185302734,0.7529135942459106
178,MetaDrive-Tut-10Env-v0,174,336.0747222602876,179304,761,1027.9198589324951,59.1312255859375,,10.299785614013672,0.92,59.156986236572266,59.18189239501953,0.8161454796791077
179,MetaDrive-Tut-10Env-v0,174,337.6771933104537,180283,763,1033.9194822311401,58.374786376953125,-59.04076385498047,8.78161334991455,0.92,58.319114685058594,58.49193572998047,0.7840533256530762
180,MetaDrive-Tut-10Env-v0,174,335.6183778455377,181440,767,1040.5857410430908,57.74280548095703,,8.78475570678711,0.91,57.48381805419922,58.014129638671875,0.8515886068344116
181,MetaDrive-Tut-10Env-v0,174,337.76512768849267,182055,768,1044.4670190811157,58.34608840942383,-57.87371826171875,5.071418762207031,0.91,57.75584411621094,57.87271499633789,0.7310153245925903
182,MetaDrive-Tut-10Env-v0,174,338.78755468592715,183332,771,1052.2176251411438,59.71973419189453,,15.112717628479004,0.91,59.30295944213867,59.38175964355469,0.6892663240432739
183,MetaDrive-Tut-10Env-v0,174,340.16915944766714,184317,773,1058.2110421657562,58.94963836669922,-58.389442443847656,12.328546524047852,0.91,57.94996643066406,58.00604248046875,0.8448227643966675
184,MetaDrive-Tut-10Env-v0,174,340.2770059397189,185380,776,1064.6069231033325,59.15488815307617,,9.98812484741211,0.91,59.191200256347656,58.86048889160156,0.7496275901794434
185,MetaDrive-Tut-10Env-v0,174,337.25662336258154,186111,778,1068.7488629817963,58.470497131347656,-59.328895568847656,13.157590866088867,0.91,58.51266860961914,58.94877243041992,0.7490304708480835
186,MetaDrive-Tut-10Env-v0,174,341.7438572251641,187084,780,1074.592808008194,60.28595733642578,,25.204833984375,0.92,59.115814208984375,59.55034255981445,0.7733867764472961
187,MetaDrive-Tut-10Env-v0,173,342.88308943562265,188492,783,1083.5232350826263,59.48456573486328,,11.5296630859375,0.92,60.2462043762207,59.48175048828125,0.7569244503974915
188,MetaDrive-Tut-10Env-v0,173,342.88823855634115,189340,785,1088.4525182247162,58.416629791259766,,21.497283935546875,0.92,58.02861022949219,57.803646087646484,0.7648813128471375
189,MetaDrive-Tut-10Env-v0,173,345.1217983684224,190353,787,1094.5879940986633,60.2703971862793,-60.8729248046875,7.584275245666504,0.92,61.28500747680664,61.34544372558594,0.7316681146621704
190,MetaDrive-Tut-10Env-v0,173,343.70137874931294,191224,789,1099.760573387146,57.95835494995117,,7.2645721435546875,0.92,57.79136276245117,57.813941955566406,0.8114194869995117
191,MetaDrive-Tut-10Env-v0,173,349.3900243001615,192342,791,1106.657376050949,57.422977447509766,,9.539615631103516,0.93,56.99965286254883,56.7391357421875,0.8135560750961304
192,MetaDrive-Tut-10Env-v0,173,350.26113219833,193350,793,1112.8089983463287,58.11880874633789,,27.341796875,0.93,58.68367004394531,59.06120300292969,0.7169020771980286
193,MetaDrive-Tut-10Env-v0,173,348.7715157268257,194235,795,1118.0074491500854,59.889400482177734,-60.991878509521484,40.00231170654297,0.93,60.33683395385742,60.703521728515625,0.8213621973991394
194,MetaDrive-Tut-10Env-v0,173,341.8258960340116,195150,798,1123.3560571670532,58.22054672241211,,10.995193481445312,0.92,58.58498764038086,58.26359176635742,0.7159799933433533
195,MetaDrive-Tut-10Env-v0,173,342.1941183388606,196616,801,1132.2228271961212,59.489219665527344,,8.398818969726562,0.92,59.93243408203125,59.98858642578125,0.759063184261322
196,MetaDrive-Tut-10Env-v0,173,342.1273674313303,197096,802,1135.1016991138458,58.191585540771484,,14.676118850708008,0.92,57.87374496459961,58.37117004394531,0.7943832874298096
197,MetaDrive-Tut-10Env-v0,173,346.25420257416846,198088,804,1141.1256880760193,56.50699234008789,,26.61145782470703,0.93,57.20746994018555,56.84965515136719,0.74415522813797
198,MetaDrive-Tut-10Env-v0,173,345.36382532033576,199422,807,1149.317514181137,57.453102111816406,,9.597759246826172,0.93,57.06476974487305,57.22200012207031,0.7767413854598999
199,MetaDrive-Tut-10Env-v0,173,343.206022353966,200272,809,1154.2420361042023,56.06502914428711,,8.193937301635742,0.93,56.13956069946289,56.62699890136719,0.730925977230072
200,MetaDrive-Tut-10Env-v0,173,347.63973432509397,201344,812,1161.1023449897766,59.369041442871094,,9.139957427978516,0.93,59.7947998046875,59.65122985839844,0.7644721269607544
201,MetaDrive-Tut-10Env-v0,173,346.08644173908635,202149,814,1165.8361961841583,56.97037887573242,-57.14988327026367,8.987117767333984,0.93,57.29895782470703,57.16324234008789,0.720268189907074
202,MetaDrive-Tut-10Env-v0,173,347.8354338982943,203135,817,1172.231611251831,58.185359954833984,-57.58061599731445,22.70706558227539,0.91,57.76637268066406,57.548797607421875,0.7525791525840759
203,MetaDrive-Tut-10Env-v0,173,344.2264224662386,204236,820,1178.8292653560638,59.08894348144531,,12.58947467803955,0.9,58.680397033691406,58.73284149169922,0.8794446587562561
204,MetaDrive-Tut-10Env-v0,173,343.2664766459742,205085,822,1183.8872120380402,56.263404846191406,-57.28287887573242,25.037805557250977,0.9,56.358741760253906,56.292091369628906,0.777125358581543
205,MetaDrive-Tut-10Env-v0,173,345.76761889812065,206130,824,1190.559591293335,58.687171936035156,,10.261272430419922,0.9,58.54351043701172,59.25312805175781,0.7890701293945312
206,MetaDrive-Tut-10Env-v0,173,344.8469164302197,207531,827,1199.3326363563538,58.981842041015625,-59.29923629760742,7.01348876953125,0.9,58.75059509277344,59.033111572265625,0.7982136607170105
207,MetaDrive-Tut-10Env-v0,173,343.63825581205776,208063,828,1202.568359375,54.34742736816406,-54.54997253417969,10.675103187561035,0.9,53.52259826660156,53.9619026184082,0.7273684144020081
208,MetaDrive-Tut-10Env-v0,172,346.2805501014576,209259,830,1210.3788571357727,57.25338363647461,-58.06806945800781,15.375227928161621,0.9,57.33787155151367,57.019168853759766,0.7637676000595093
209,MetaDrive-Tut-10Env-v0,172,347.1448794515818,210272,832,1216.5036871433258,58.667633056640625,,10.699079513549805,0.9,57.81810760498047,57.60645294189453,0.7741275429725647
210,MetaDrive-Tut-10Env-v0,172,347.03842816960974,211180,835,1221.592588186264,58.209808349609375,,9.874570846557617,0.91,57.923095703125,58.15907669067383,0.7940167784690857
211,MetaDrive-Tut-10Env-v0,172,344.9342694750135,212234,838,1227.8649661540985,57.50585174560547,,14.06911849975586,0.9,56.956729888916016,57.26826477050781,0.7717545032501221
212,MetaDrive-Tut-10Env-v0,172,344.9406021067693,213089,840,1232.831820011139,55.830665588378906,-57.68299102783203,10.577581405639648,0.9,56.67330551147461,56.89565658569336,0.7926972508430481
213,MetaDrive-Tut-10Env-v0,172,342.687755275855,214174,843,1239.0522150993347,54.28303146362305,,10.329719543457031,0.9,54.79494857788086,55.204750061035156,0.7450308203697205
214,MetaDrive-Tut-10Env-v0,172,340.2342719654025,215290,846,1245.8098871707916,58.542476654052734,,10.977191925048828,0.89,57.53160858154297,57.35710144042969,0.8047458529472351
215,MetaDrive-Tut-10Env-v0,172,341.23300166244246,216162,848,1250.9642639160156,57.494895935058594,,19.22115707397461,0.89,57.71292495727539,57.361915588378906,0.7525945901870728
216,MetaDrive-Tut-10Env-v0,172,342.49903574155616,217013,850,1255.9092543125153,56.55567932128906,-56.912837982177734,14.532665252685547,0.89,56.997989654541016,56.79669952392578,0.7060722708702087
217,MetaDrive-Tut-10Env-v0,172,344.3469889765394,218108,853,1262.6202912330627,58.3833122253418,,11.280757904052734,0.89,58.101985931396484,58.304420471191406,0.7259465456008911
218,MetaDrive-Tut-10Env-v0,172,344.0415402338226,219058,856,1268.0270080566406,57.47023391723633,,11.489604949951172,0.9,57.90928649902344,57.84537124633789,0.782796323299408
219,MetaDrive-Tut-10Env-v0,172,348.21920966362325,220330,858,1276.208200931549,54.938621520996094,,13.185722351074219,0.9,54.68223571777344,55.396629333496094,0.7491536140441895
220,MetaDrive-Tut-10Env-v0,172,348.7736432150455,221133,860,1280.8213992118835,56.98260498046875,-57.417869567871094,7.013828754425049,0.91,57.26819610595703,57.11687088012695,0.810751736164093
221,MetaDrive-Tut-10Env-v0,172,347.55673157902527,222286,862,1288.1267042160034,57.0085334777832,,6.616005897521973,0.91,57.17674255371094,56.87405776977539,0.7994601130485535
222,MetaDrive-Tut-10Env-v0,172,347.3540269296356,223028,864,1292.3413271903992,55.99174880981445,,10.225712776184082,0.91,55.74304962158203,55.59550857543945,0.7198530435562134
223,MetaDrive-Tut-10Env-v0,172,348.44771857555884,224119,867,1298.5415313243866,55.79207992553711,-55.96708679199219,7.568318843841553,0.92,55.41319274902344,55.37195587158203,0.7257698178291321
224,MetaDrive-Tut-10Env-v0,172,344.80928774955674,225082,870,1304.26669216156,57.20050811767578,,10.539654731750488,0.91,57.5938720703125,57.734893798828125,0.802222490310669
225,MetaDrive-Tut-10Env-v0,172,341.6663269314933,226198,873,1310.6691982746124,56.316314697265625,,10.606146812438965,0.91,55.51504898071289,55.720069885253906,0.8319152593612671
226,MetaDrive-Tut-10Env-v0,172,340.670274073067,227055,876,1315.9686300754547,57.25507354736328,-57.63127517700195,10.259982109069824,0.9,56.97005844116211,57.310577392578125,0.7282394766807556
227,MetaDrive-Tut-10Env-v0,172,342.8172310431184,228090,878,1322.3012630939484,56.95283126831055,,10.51624870300293,0.9,57.06682205200195,57.08155059814453,0.7768957614898682
228,MetaDrive-Tut-10Env-v0,172,341.00613805558015,229209,881,1328.7493960857391,57.272804260253906,-57.876380920410156,22.831560134887695,0.9,56.52983093261719,56.477142333984375,0.8006066679954529
229,MetaDrive-Tut-10Env-v0,172,338.2591492643594,230204,883,1334.8702380657196,57.87025451660156,,8.80921745300293,0.9,57.55946350097656,57.775638580322266,0.7933189868927002
230,MetaDrive-Tut-10Env-v0,172,337.2131189344476,231328,886,1341.3445303440094,58.022953033447266,,7.852558135986328,0.9,58.03882598876953,57.805084228515625,0.8200391530990601
231,MetaDrive-Tut-10Env-v0,172,337.218649906172,232310,888,1347.4094700813293,55.23346710205078,,13.088882446289062,0.9,54.73448181152344,54.6075553894043,0.7010512351989746
232,MetaDrive-Tut-10Env-v0,172,337.12382541613385,233461,890,1354.6524412631989,57.776611328125,-58.94166564941406,10.289224624633789,0.9,58.24261474609375,58.275272369384766,0.8025140762329102
233,MetaDrive-Tut-10Env-v0,172,334.7737032630588,234181,892,1358.957288980484,55.26110076904297,-56.42689895629883,7.949292182922363,0.9,54.53168869018555,54.90837478637695,0.8518819212913513
234,MetaDrive-Tut-10Env-v0,172,334.5621076378848,235007,894,1363.9567580223083,54.91606903076172,-54.92369079589844,8.350193977355957,0.9,55.11457824707031,55.01422119140625,0.7383749485015869
235,MetaDrive-Tut-10Env-v0,172,339.5050490284518,236415,897,1372.7985773086548,58.09996795654297,-58.493003845214844,7.584967613220215,0.91,58.64878845214844,58.991668701171875,0.8268016576766968
236,MetaDrive-Tut-10Env-v0,172,339.0497863210894,237274,899,1377.9794900417328,57.18463134765625,,9.51408576965332,0.91,57.88169860839844,57.54087829589844,0.7577036619186401
237,MetaDrive-Tut-10Env-v0,172,336.07952750306885,238393,902,1384.5204322338104,55.51805114746094,-54.932151794433594,21.861618041992188,0.9,55.459564208984375,55.067596435546875,0.7297168374061584
238,MetaDrive-Tut-10Env-v0,172,333.9553318477621,239134,904,1388.7152562141418,55.66631317138672,,10.036332130432129,0.9,55.144264221191406,55.33733367919922,0.8040823340415955
239,MetaDrive-Tut-10Env-v0,172,335.9658472072115,240192,906,1395.316466331482,54.015987396240234,,10.120223999023438,0.9,54.25349044799805,54.19812774658203,0.8300501108169556
240,MetaDrive-Tut-10Env-v0,172,333.2614134279122,241309,909,1402.1773052215576,56.88960266113281,-58.178504943847656,13.021272659301758,0.89,57.54161834716797,57.53321075439453,0.7869706749916077
241,MetaDrive-Tut-10Env-v0,172,331.1539514554704,242019,911,1406.207640171051,58.4910888671875,-58.92654037475586,10.830007553100586,0.9,59.0444221496582,58.65778350830078,0.8322681188583374
242,MetaDrive-Tut-10Env-v0,172,332.28674224318814,243194,914,1413.5688741207123,56.13801193237305,,6.484949111938477,0.89,56.022499084472656,55.696014404296875,0.7736837863922119
243,MetaDrive-Tut-10Env-v0,172,331.2432649334516,244285,917,1420.2295460700989,58.01906967163086,-58.48754119873047,8.180553436279297,0.9,57.793701171875,57.96872329711914,0.7675023078918457
244,MetaDrive-Tut-10Env-v0,171,333.61713779366437,245487,920,1427.755585193634,57.15364074707031,-57.395355224609375,11.78664493560791,0.9,56.78483963012695,57.25386047363281,0.7790427803993225
245,MetaDrive-Tut-10Env-v0,171,335.86904830034206,246151,921,1431.9913532733917,58.437110900878906,-59.462581634521484,10.667125701904297,0.9,58.800071716308594,58.85441589355469,0.7816534042358398
246,MetaDrive-Tut-10Env-v0,171,334.7112252371381,247113,923,1437.7075021266937,56.13369369506836,-56.343406677246094,17.573833465576172,0.9,55.92854309082031,55.894630432128906,0.7560522556304932
247,MetaDrive-Tut-10Env-v0,171,333.63038138877755,248114,925,1443.8870601654053,55.08770751953125,,12.580026626586914,0.9,55.84101486206055,55.39729309082031,0.7874176502227783
248,MetaDrive-Tut-10Env-v0,171,330.06329122713714,249026,928,1449.4963130950928,53.541133880615234,,23.804813385009766,0.88,53.7454833984375,53.52799987792969,0.7489396333694458
249,MetaDrive-Tut-10Env-v0,171,322.77665548013397,250048,932,1455.537171125412,54.56690216064453,,10.14576244354248,0.87,54.84587097167969,54.770381927490234,0.8532887697219849
250,MetaDrive-Tut-10Env-v0,171,325.89841499539716,251240,934,1463.01810836792,56.02738952636719,,6.560565948486328,0.87,56.1897087097168,55.87403869628906,0.7319883108139038
251,MetaDrive-Tut-10Env-v0,171,323.68324172697754,252216,937,1468.6912171840668,56.68434143066406,,8.833690643310547,0.86,56.45178985595703,56.45269775390625,0.7460142970085144
252,MetaDrive-Tut-10Env-v0,171,323.59168969788027,253252,940,1474.8172543048859,56.816810607910156,,7.686982154846191,0.86,56.28420639038086,56.6341552734375,0.8396208882331848
253,MetaDrive-Tut-10Env-v0,171,324.1787325957839,254369,942,1481.6109981536865,55.29509735107422,-56.091522216796875,10.891654968261719,0.86,55.130279541015625,55.28575134277344,0.7391010522842407
254,MetaDrive-Tut-10Env-v0,171,323.9992614948091,255163,944,1486.42183303833,54.607704162597656,-54.562870025634766,11.353557586669922,0.86,55.035247802734375,55.162776947021484,0.7893425226211548
255,MetaDrive-Tut-10Env-v0,171,325.23152244922886,256292,946,1493.2392120361328,56.89505386352539,,7.096584320068359,0.86,57.548213958740234,57.8592414855957,0.7907938957214355
256,MetaDrive-Tut-10Env-v0,171,324.13837957168806,257443,949,1500.123975276947,57.23570251464844,-57.75168228149414,7.826114654541016,0.85,57.34551239013672,57.37879180908203,0.7607703804969788
257,MetaDrive-Tut-10Env-v0,171,324.1349384677856,258146,951,1504.4875600337982,53.84834671020508,,12.09901237487793,0.84,54.029388427734375,54.4522705078125,0.8046787977218628
258,MetaDrive-Tut-10Env-v0,171,325.2056804476903,259344,953,1511.9469771385193,55.8891487121582,,8.412336349487305,0.84,55.963008880615234,56.107261657714844,0.7877709865570068
259,MetaDrive-Tut-10Env-v0,171,326.15535541417296,260259,955,1517.3572800159454,56.403656005859375,-57.23707580566406,9.871261596679688,0.84,56.65436935424805,56.65370559692383,0.8833797574043274
260,MetaDrive-Tut-10Env-v0,171,327.21149193285834,261443,957,1524.7587599754333,59.05590057373047,-58.79769515991211,10.342049598693848,0.84,58.50145721435547,58.47671127319336,0.8471812009811401
261,MetaDrive-Tut-10Env-v0,171,327.2098507090172,262078,958,1528.8551349639893,56.1270637512207,,13.937187194824219,0.84,56.559654235839844,56.419898986816406,0.7534294128417969
262,MetaDrive-Tut-10Env-v0,171,323.4879615883838,263275,962,1535.7902221679688,57.284820556640625,-56.95726776123047,7.233898162841797,0.83,56.96643829345703,57.0642204284668,0.7592496871948242
263,MetaDrive-Tut-10Env-v0,171,325.68186143113877,264298,964,1542.0725951194763,55.09038162231445,,13.670068740844727,0.83,54.71906661987305,55.236976623535156,0.7510195970535278
264,MetaDrive-Tut-10Env-v0,171,326.9326007301503,265197,966,1547.3782241344452,54.78252410888672,-54.89358901977539,12.07631778717041,0.83,54.63274383544922,54.65745544433594,0.7864834070205688
265,MetaDrive-Tut-10Env-v0,171,327.70243901331037,266054,968,1552.4167323112488,55.34988784790039,,10.396652221679688,0.83,55.42131805419922,55.84634780883789,0.7810057401657104
266,MetaDrive-Tut-10Env-v0,171,327.7947887418572,267383,972,1560.2421021461487,58.47609329223633,-59.01545715332031,9.970148086547852,0.83,58.33584213256836,58.52234649658203,0.7953245639801025
267,MetaDrive-Tut-10Env-v0,171,328.84300616504123,268390,974,1566.4467701911926,54.34169006347656,,6.3898162841796875,0.83,54.383548736572266,54.06512451171875,0.7169329524040222
268,MetaDrive-Tut-10Env-v0,171,332.81745854054475,269409,976,1572.7241501808167,55.722225189208984,-56.318485260009766,13.186172485351562,0.85,54.74846649169922,54.78631591796875,0.803827702999115
269,MetaDrive-Tut-10Env-v0,171,332.50399641627547,270448,978,1579.174966096878,56.420143127441406,,12.602442741394043,0.85,57.01076889038086,56.87954330444336,0.7986140251159668
270,MetaDrive-Tut-10Env-v0,171,334.5224051792522,271090,979,1583.314105272293,56.982181549072266,,17.504419326782227,0.85,56.74668502807617,57.216251373291016,0.7607511878013611
271,MetaDrive-Tut-10Env-v0,171,335.8404348876057,272525,982,1591.83531332016,54.754371643066406,-55.833499908447266,9.246990203857422,0.85,54.209564208984375,54.458824157714844,0.7266923189163208
272,MetaDrive-Tut-10Env-v0,171,336.05736178775146,273433,984,1597.2015511989594,54.78055953979492,-54.27113342285156,5.448251724243164,0.85,54.046390533447266,53.9590950012207,0.7983458638191223
273,MetaDrive-Tut-10Env-v0,171,334.3215211914736,274026,986,1600.5059163570404,54.72261428833008,,10.311100959777832,0.84,54.46769714355469,54.00457000732422,0.9385502934455872
274,MetaDrive-Tut-10Env-v0,171,333.4510955926151,275391,989,1608.5694851875305,54.535972595214844,-55.21195983886719,4.638339996337891,0.84,54.751522064208984,54.76768112182617,0.8018646240234375
275,MetaDrive-Tut-10Env-v0,171,332.3687046494703,276270,991,1613.663758277893,53.43049240112305,,13.632360458374023,0.84,53.72617721557617,53.65540313720703,0.7829667329788208
276,MetaDrive-Tut-10Env-v0,171,333.3468729990267,277447,993,1621.007668018341,56.419586181640625,-56.93281555175781,4.894000053405762,0.84,56.988677978515625,56.572906494140625,0.7911879420280457
277,MetaDrive-Tut-10Env-v0,171,333.4265574702425,278232,995,1625.3684520721436,56.545413970947266,,7.393482208251953,0.84,56.688636779785156,56.57939529418945,0.7279723882675171
278,MetaDrive-Tut-10Env-v0,171,328.5782985936032,279270,998,1631.5466270446777,54.07423782348633,,7.162199974060059,0.83,53.65122604370117,53.500244140625,0.7676264047622681
279,MetaDrive-Tut-10Env-v0,171,329.6077960712391,280133,1000,1636.5959112644196,55.16265869140625,-55.33259963989258,7.3556599617004395,0.83,54.46468734741211,54.51057815551758,0.8231788873672485
280,MetaDrive-Tut-10Env-v0,171,331.85393869969215,281316,1003,1643.9141099452972,55.619972229003906,,6.139389991760254,0.84,56.01353454589844,55.66288757324219,0.8132996559143066
281,MetaDrive-Tut-10Env-v0,171,331.1072748139645,282228,1005,1649.2298092842102,55.772979736328125,,6.3462090492248535,0.84,55.688968658447266,55.577064514160156,0.7543972134590149
282,MetaDrive-Tut-10Env-v0,171,332.1055260228404,283511,1008,1656.9307351112366,55.347450256347656,-55.99384689331055,12.790422439575195,0.85,55.414100646972656,55.29928207397461,0.8087828159332275
283,MetaDrive-Tut-10Env-v0,171,332.82323303443263,284005,1009,1659.9257040023804,52.85748291015625,-52.6674919128418,9.593940734863281,0.85,53.074764251708984,53.05779266357422,0.8207090497016907
284,MetaDrive-Tut-10Env-v0,171,334.8311853787365,285055,1012,1666.7863130569458,56.56202697753906,-56.902198791503906,12.500228881835938,0.84,55.45937728881836,55.62841796875,0.7806954383850098
285,MetaDrive-Tut-10Env-v0,171,335.2902752824648,286324,1015,1674.2462711334229,55.74181365966797,,20.942535400390625,0.85,56.54658889770508,56.48921203613281,0.8090260028839111
286,MetaDrive-Tut-10Env-v0,170,335.34136281779394,287194,1017,1679.5259263515472,55.302982330322266,,4.4773077964782715,0.86,55.106719970703125,54.97873306274414,0.7659292221069336
287,MetaDrive-Tut-10Env-v0,171,333.4010433846109,288259,1020,1685.4578261375427,55.518707275390625,-55.87400817871094,10.914616584777832,0.87,54.6528205871582,54.729557037353516,0.7521678805351257
288,MetaDrive-Tut-10Env-v0,171,329.3060272663718,289216,1023,1690.7777149677277,55.547332763671875,,8.485011100769043,0.86,54.71979522705078,55.27814865112305,0.8067978024482727
289,MetaDrive-Tut-10Env-v0,171,325.89904917775345,290299,1026,1696.7914502620697,54.992225646972656,-55.05604934692383,6.1666388511657715,0.86,55.01042556762695,54.9659538269043,0.7403011322021484
290,MetaDrive-Tut-10Env-v0,171,328.7158947950777,291144,1028,1702.0045282840729,53.4039306640625,,10.030256271362305,0.87,53.93755340576172,53.97938919067383,0.7420605421066284
291,MetaDrive-Tut-10Env-v0,171,328.98593679843003,292156,1031,1707.6947872638702,54.5833625793457,,9.38886547088623,0.88,55.306182861328125,55.014034271240234,0.7084487676620483
292,MetaDrive-Tut-10Env-v0,171,331.1210765744956,293323,1033,1714.9068722724915,54.44426345825195,-55.21495056152344,7.379746437072754,0.88,54.44134521484375,54.37769317626953,0.844182014465332
293,MetaDrive-Tut-10Env-v0,171,328.47643016828107,294192,1035,1719.9880712032318,52.49979019165039,,16.38107681274414,0.88,53.122276306152344,53.31244659423828,0.7155358195304871
294,MetaDrive-Tut-10Env-v0,171,332.36047931659107,295283,1038,1726.6098172664642,52.82189178466797,-52.96495819091797,7.012142658233643,0.89,52.821617126464844,52.475341796875,0.7234178185462952
295,MetaDrive-Tut-10Env-v0,171,332.1329211690632,296163,1040,1731.827802181244,54.050167083740234,-54.55841064453125,9.42660140991211,0.89,53.7503662109375,54.17092514038086,0.7703750729560852
296,MetaDrive-Tut-10Env-v0,170,334.6273491659771,297435,1042,1739.9010202884674,55.74010467529297,-56.86857604980469,4.462972640991211,0.89,55.6115608215332,56.2625732421875,0.7798309326171875
297,MetaDrive-Tut-10Env-v0,170,334.4071926165533,298370,1045,1745.3677611351013,54.830482482910156,,11.906801223754883,0.89,55.157257080078125,55.006141662597656,0.7935987114906311
298,MetaDrive-Tut-10Env-v0,170,333.05250896451815,299115,1047,1749.845564365387,54.39781951904297,-54.381996154785156,12.701967239379883,0.89,52.68976593017578,53.055294036865234,0.818191647529602
299,MetaDrive-Tut-10Env-v0,170,337.68635247207976,300280,1049,1757.5187599658966,53.89446258544922,,6.09963321685791,0.9,53.993709564208984,54.160640716552734,0.7883234620094299
300,MetaDrive-Tut-10Env-v0,170,335.40282132832397,301449,1052,1764.3011112213135,53.90243911743164,-55.35906219482422,7.882515907287598,0.91,54.893917083740234,54.88797378540039,0.8786832094192505
301,MetaDrive-Tut-10Env-v0,170,337.28525217744624,302506,1054,1771.0166289806366,54.718502044677734,,7.20945930480957,0.91,55.414512634277344,55.07944869995117,0.8056904673576355
302,MetaDrive-Tut-10Env-v0,170,339.3975343852713,303190,1055,1775.3020570278168,54.19771194458008,,8.556558609008789,0.91,53.92052459716797,53.52474594116211,0.7707653045654297
303,MetaDrive-Tut-10Env-v0,170,338.6471308853493,304322,1057,1782.041915178299,54.622276306152344,,8.068018913269043,0.91,54.876129150390625,54.75617218017578,0.8188464045524597
304,MetaDrive-Tut-10Env-v0,170,338.8536421123946,305181,1059,1787.5641911029816,55.37285614013672,-55.54812240600586,5.131344318389893,0.92,55.044334411621094,55.025917053222656,0.7966551184654236
305,MetaDrive-Tut-10Env-v0,170,343.48706575430407,306463,1061,1795.7826540470123,55.905601501464844,-56.302852630615234,14.292384147644043,0.92,57.28247833251953,57.358253479003906,0.8229594230651855
306,MetaDrive-Tut-10Env-v0,170,342.59945926714374,307390,1063,1801.4489150047302,54.79022216796875,,7.894463539123535,0.91,55.11551284790039,54.72413635253906,0.7722575664520264
307,MetaDrive-Tut-10Env-v0,170,341.27294368824766,308229,1065,1806.1060600280762,55.53249740600586,-56.07738494873047,28.800453186035156,0.91,54.574100494384766,54.24958038330078,0.7923323512077332
308,MetaDrive-Tut-10Env-v0,170,339.93548367745296,309457,1068,1813.2244832515717,54.54450988769531,-54.888187408447266,12.802080154418945,0.9,54.62714385986328,54.299129486083984,0.772186279296875
309,MetaDrive-Tut-10Env-v0,170,338.67408960833325,310125,1070,1816.952525138855,54.50932312011719,-54.305763244628906,7.6800408363342285,0.89,53.426326751708984,53.393577575683594,0.8140943646430969
310,MetaDrive-Tut-10Env-v0,170,339.34465920177877,311071,1072,1822.1558811664581,54.257022857666016,-54.43079376220703,20.11013412475586,0.9,54.628326416015625,54.558311462402344,0.7348603010177612
311,MetaDrive-Tut-10Env-v0,170,339.8172310946544,312244,1074,1829.0764710903168,55.91561508178711,,7.659394264221191,0.9,55.977012634277344,56.101951599121094,0.7723062038421631
312,MetaDrive-Tut-10Env-v0,170,340.88189816219733,313558,1076,1836.9576201438904,56.894989013671875,,6.121880054473877,0.9,56.025123596191406,55.70615768432617,0.7642151713371277
313,MetaDrive-Tut-10Env-v0,170,339.7945261529086,314543,1078,1842.6149780750275,53.39790725708008,-54.24150085449219,10.054506301879883,0.9,53.59645462036133,53.25038528442383,0.7447226643562317
314,MetaDrive-Tut-10Env-v0,170,338.91679420499895,315561,1080,1848.3954203128815,53.31494140625,-53.160919189453125,11.538331985473633,0.9,52.94621276855469,53.198394775390625,0.6766413450241089
315,MetaDrive-Tut-10Env-v0,170,335.26681871373256,316186,1082,1851.8762640953064,54.487850189208984,,14.20305061340332,0.89,54.47638702392578,54.32133483886719,0.786917507648468
316,MetaDrive-Tut-10Env-v0,170,334.20160069581567,317066,1084,1856.7299530506134,53.78993225097656,,6.934678077697754,0.89,54.03858947753906,54.54489517211914,0.7681956887245178
317,MetaDrive-Tut-10Env-v0,170,335.14286659210217,318374,1087,1864.2548151016235,52.67158126831055,,9.04305648803711,0.9,53.78473663330078,53.466739654541016,0.8165184259414673
318,MetaDrive-Tut-10Env-v0,170,337.3826999361985,319035,1088,1868.437548160553,54.37226104736328,-54.90380096435547,17.15448760986328,0.9,53.04109573364258,53.5218620300293,0.7681524157524109
319,MetaDrive-Tut-10Env-v0,170,338.7087192525775,320690,1091,1878.3210320472717,53.093387603759766,,5.999320030212402,0.9,53.202911376953125,53.11373519897461,0.7703121900558472
320,MetaDrive-Tut-10Env-v0,170,337.76107245299886,321147,1092,1880.8133461475372,54.31019592285156,-55.81913757324219,9.54452896118164,0.9,54.63570785522461,54.7249870300293,0.8250937461853027
321,MetaDrive-Tut-10Env-v0,170,337.8203248888968,322366,1094,1888.0291991233826,54.55928039550781,,4.792490482330322,0.9,54.866573333740234,54.52979278564453,0.749421238899231
322,MetaDrive-Tut-10Env-v0,170,339.95750884747264,323335,1096,1893.727545261383,51.240177154541016,-51.72207260131836,13.242968559265137,0.91,50.41114044189453,50.745304107666016,0.7879750728607178
323,MetaDrive-Tut-10Env-v0,170,341.25309495924455,324190,1098,1899.1334710121155,55.291770935058594,,10.514261245727539,0.91,55.588531494140625,55.67485046386719,0.7305370569229126
324,MetaDrive-Tut-10Env-v0,170,342.56409666855785,325605,1101,1907.6267492771149,54.47040557861328,-54.81825256347656,4.720895290374756,0.91,54.15394592285156,54.3516845703125,0.7950904369354248
325,MetaDrive-Tut-10Env-v0,170,342.6780443552088,326560,1103,1913.6080482006073,54.8161735534668,,7.560861587524414,0.91,54.353267669677734,54.058467864990234,0.8086658120155334
326,MetaDrive-Tut-10Env-v0,170,343.7044812501587,327153,1104,1917.5757880210876,54.1803092956543,-54.837005615234375,5.174907684326172,0.91,54.18325424194336,54.30886459350586,0.7787489891052246
327,MetaDrive-Tut-10Env-v0,170,346.854442732912,328350,1106,1925.031899213791,55.74424743652344,,16.449199676513672,0.91,55.35760498046875,55.591087341308594,0.843934953212738
328,MetaDrive-Tut-10Env-v0,170,344.7479145535714,329001,1108,1928.714280128479,53.268157958984375,-53.472774505615234,35.23139190673828,0.91,53.23118209838867,53.144405364990234,0.8723058700561523
329,MetaDrive-Tut-10Env-v0,170,342.9701860834134,330265,1111,1936.2710373401642,53.83675003051758,-54.522464752197266,24.636091232299805,0.91,54.12677001953125,54.093223571777344,0.7249488234519958
330,MetaDrive-Tut-10Env-v0,170,341.785638743023,331089,1113,1940.8749811649323,54.63899230957031,-55.88518524169922,14.588427543640137,0.91,54.072959899902344,54.51626205444336,0.9012936949729919
331,MetaDrive-Tut-10Env-v0,170,343.81093154554446,332266,1115,1948.195344209671,53.91510009765625,,11.064696311950684,0.91,53.9206657409668,53.46995162963867,0.8105307221412659
332,MetaDrive-Tut-10Env-v0,170,342.3299147878959,333220,1118,1953.8073031902313,55.31321334838867,,8.572843551635742,0.9,55.67826843261719,55.41487503051758,0.8078815937042236
333,MetaDrive-Tut-10Env-v0,170,343.3139825292403,334173,1120,1959.4146220684052,55.276363372802734,-55.653079986572266,14.09332275390625,0.9,55.5179443359375,55.41370391845703,0.7556278705596924
334,MetaDrive-Tut-10Env-v0,170,344.9670172934746,335063,1122,1964.6582472324371,55.50784683227539,-56.12784957885742,12.504899978637695,0.91,54.81697082519531,55.110145568847656,0.7973137497901917
335,MetaDrive-Tut-10Env-v0,170,345.92843199875335,336007,1124,1970.1958892345428,54.242069244384766,-55.489925384521484,9.132137298583984,0.91,53.870216369628906,54.28597640991211,0.8027228713035583
336,MetaDrive-Tut-10Env-v0,170,343.15674321531145,337169,1127,1976.9746582508087,53.728580474853516,-54.3910026550293,10.923471450805664,0.9,53.91356658935547,54.40251922607422,0.7457091808319092
337,MetaDrive-Tut-10Env-v0,170,345.33181939417295,338075,1129,1982.1971020698547,53.48808670043945,-53.543235778808594,7.859499931335449,0.91,52.73237228393555,52.523529052734375,0.7329003214836121
338,MetaDrive-Tut-10Env-v0,170,343.3412561535855,339074,1132,1987.7246630191803,54.06108093261719,,11.353075981140137,0.91,54.58454513549805,54.21696090698242,0.8202739953994751
339,MetaDrive-Tut-10Env-v0,170,343.2235396355816,340319,1135,1995.1582882404327,53.4067268371582,-54.00536346435547,7.77836275100708,0.91,53.465232849121094,53.22998809814453,0.7431296110153198
340,MetaDrive-Tut-10Env-v0,170,342.1540108557986,341209,1138,2000.2285492420197,52.41444396972656,-52.165321350097656,38.0692253112793,0.92,51.79850387573242,51.81367874145508,0.7840896844863892
341,MetaDrive-Tut-10Env-v0,170,342.3035885006689,342116,1140,2005.5288712978363,53.36976623535156,,7.690227031707764,0.92,53.72380065917969,53.40372848510742,0.7415229082107544
342,MetaDrive-Tut-10Env-v0,170,337.6985532831032,343363,1144,2012.9798421859741,53.23065185546875,-54.00518035888672,6.4804582595825195,0.91,53.102867126464844,53.27690505981445,0.7609509825706482
343,MetaDrive-Tut-10Env-v0,170,336.5666523909682,344028,1146,2016.741116285324,54.88157272338867,,5.683197975158691,0.91,54.22810745239258,54.10190963745117,0.7795522809028625
344,MetaDrive-Tut-10Env-v0,170,336.6675176908808,345108,1148,2023.2544100284576,53.83909225463867,,39.98503875732422,0.91,54.3048210144043,53.89411544799805,0.7397733926773071
345,MetaDrive-Tut-10Env-v0,170,336.2424971798557,346081,1150,2029.1417191028595,54.020450592041016,-54.24248504638672,10.694546699523926,0.91,53.983802795410156,53.90848922729492,0.7956076860427856
346,MetaDrive-Tut-10Env-v0,170,338.60849517460815,347267,1152,2036.6477131843567,53.769264221191406,-54.239715576171875,9.334930419921875,0.91,54.296817779541016,54.06828308105469,0.7806143164634705
347,MetaDrive-Tut-10Env-v0,170,335.8866229750277,348214,1154,2042.1948170661926,54.06473922729492,,6.483148574829102,0.91,54.85401153564453,54.688720703125,0.8232921957969666
348,MetaDrive-Tut-10Env-v0,170,332.6752299902494,349038,1156,2046.7835609912872,50.79195785522461,,10.555216789245605,0.91,50.93654251098633,50.8436164855957,0.7945878505706787
349,MetaDrive-Tut-10Env-v0,170,329.83922502311447,350130,1159,2053.197471141815,52.507205963134766,,7.597535133361816,0.91,52.31385803222656,52.431209564208984,0.798005223274231
350,MetaDrive-Tut-10Env-v0,170,327.70423951917815,351131,1161,2059.4560301303864,51.18599319458008,-50.9544677734375,32.48583221435547,0.91,50.97602844238281,51.2513542175293,0.6716769933700562
351,MetaDrive-Tut-10Env-v0,170,327.309141590094,352084,1163,2065.0138549804688,51.396888732910156,,8.140085220336914,0.92,52.13627624511719,52.399314880371094,0.8020367622375488
352,MetaDrive-Tut-10Env-v0,170,325.51889607932816,353355,1168,2072.296719312668,53.399444580078125,-53.57661819458008,6.908743858337402,0.92,53.02981948852539,52.825965881347656,0.8620112538337708
353,MetaDrive-Tut-10Env-v0,170,327.66936549363913,354239,1170,2077.4399659633636,53.02822494506836,-53.561988830566406,8.532402038574219,0.93,53.5906982421875,53.36054229736328,0.7558950185775757
354,MetaDrive-Tut-10Env-v0,170,329.78026848174125,355241,1172,2083.5025882720947,54.373374938964844,-55.1203498840332,5.712809085845947,0.93,54.823360443115234,55.166961669921875,0.7669989466667175
355,MetaDrive-Tut-10Env-v0,170,328.7590838812597,356177,1174,2088.9684710502625,55.5012092590332,-55.57466506958008,5.233476638793945,0.93,55.41535186767578,55.89765167236328,0.7568637728691101
356,MetaDrive-Tut-10Env-v0,170,326.96043632583877,357083,1176,2094.245199203491,52.642066955566406,-53.30657958984375,8.304935455322266,0.93,53.12397003173828,52.812774658203125,0.7257780432701111
357,MetaDrive-Tut-10Env-v0,170,327.2186419300402,358022,1178,2099.7646222114563,53.17512130737305,,17.826778411865234,0.93,53.60318374633789,53.22269058227539,0.6722116470336914
358,MetaDrive-Tut-10Env-v0,170,330.3792405883312,359275,1180,2107.891149044037,52.891231536865234,-53.283958435058594,3.2903192043304443,0.93,52.93513488769531,53.06952667236328,0.708687424659729
359,MetaDrive-Tut-10Env-v0,170,333.3137405790112,360194,1182,2113.2589309215546,52.84748077392578,,10.91840934753418,0.94,53.06816864013672,53.49707794189453,0.7777448296546936
360,MetaDrive-Tut-10Env-v0,170,334.2809183625889,361040,1184,2118.205199241638,52.4539794921875,,5.3414788246154785,0.94,52.28380584716797,52.226280212402344,0.8100768327713013
361,MetaDrive-Tut-10Env-v0,170,336.54099016770755,362059,1186,2124.3485560417175,52.851470947265625,-53.77244567871094,6.33945894241333,0.94,53.37004470825195,53.50895690917969,0.7840828895568848
362,MetaDrive-Tut-10Env-v0,170,337.04371498571055,363623,1189,2133.6709430217743,52.292179107666016,-52.40845489501953,4.727270126342773,0.94,52.485931396484375,52.27247619628906,0.743074357509613
363,MetaDrive-Tut-10Env-v0,170,336.1943647288008,364010,1190,2135.780291080475,52.212928771972656,,16.931074142456055,0.94,51.10639953613281,51.2825927734375,0.7822087407112122
364,MetaDrive-Tut-10Env-v0,170,337.24504251219906,365166,1192,2143.1298360824585,52.496185302734375,,13.508319854736328,0.94,52.966094970703125,52.01430892944336,0.7381436824798584
365,MetaDrive-Tut-10Env-v0,170,332.7788166478843,366149,1195,2148.687180042267,54.12560272216797,-55.07193374633789,5.193264961242676,0.93,54.24714660644531,54.231224060058594,0.8198012113571167
366,MetaDrive-Tut-10Env-v0,170,331.30054942409197,367045,1197,2153.9504861831665,52.84629440307617,-53.03801345825195,12.756850242614746,0.93,52.95539855957031,52.810096740722656,0.7945942878723145
367,MetaDrive-Tut-10Env-v0,170,332.2465254811375,368416,1200,2161.9967591762543,52.68003845214844,,6.793012619018555,0.92,52.82036209106445,51.97747802734375,0.7681013345718384
368,MetaDrive-Tut-10Env-v0,170,328.6069115257309,369041,1202,2165.7538380622864,53.31821060180664,-54.45050811767578,17.129560470581055,0.91,53.40080642700195,53.274635314941406,0.8164742588996887
369,MetaDrive-Tut-10Env-v0,170,328.5649394525997,370231,1204,2173.708482027054,52.99333572387695,-52.68269729614258,8.6822509765625,0.91,52.08495330810547,52.0086669921875,0.7726503014564514
370,MetaDrive-Tut-10Env-v0,170,325.6111210129938,371397,1207,2180.446713209152,53.49169921875,-53.087890625,6.899416923522949,0.9,52.58808898925781,52.78068161010742,0.8429319262504578
371,MetaDrive-Tut-10Env-v0,170,327.6766360452686,372376,1209,2186.096778154373,49.95879364013672,,7.672967910766602,0.91,49.752593994140625,49.5536003112793,0.7951979041099548
372,MetaDrive-Tut-10Env-v0,170,326.8071708764739,373360,1211,2191.7735249996185,52.09988784790039,,7.522256851196289,0.91,52.725563049316406,53.10954284667969,0.8164372444152832
373,MetaDrive-Tut-10Env-v0,170,327.6791917928782,374321,1213,2197.349594116211,54.19070053100586,-55.07429122924805,8.980247497558594,0.91,54.7234001159668,54.38003158569336,0.7926495671272278
374,MetaDrive-Tut-10Env-v0,170,325.7563207213106,375347,1215,2203.253129005432,53.59868240356445,-53.57538604736328,10.531034469604492,0.91,53.54094696044922,53.085025787353516,0.7841376066207886
375,MetaDrive-Tut-10Env-v0,170,329.78632014170506,376480,1217,2209.9129061698914,52.75985336303711,,5.121685028076172,0.92,53.21656036376953,52.94731140136719,0.7349624037742615
376,MetaDrive-Tut-10Env-v0,170,327.35707380390556,377554,1219,2216.042494058609,51.545448303222656,,10.39305591583252,0.91,51.674400329589844,51.58473205566406,0.7841678261756897
377,MetaDrive-Tut-10Env-v0,170,329.71453384580025,378157,1220,2220.061346054077,52.99678421020508,-53.434165954589844,11.739481925964355,0.91,53.78895568847656,53.358367919921875,0.828033983707428
378,MetaDrive-Tut-10Env-v0,170,332.5199455123033,379386,1222,2227.7460651397705,51.725502014160156,,20.96896743774414,0.91,51.262943267822266,51.18122100830078,0.7479790449142456
379,MetaDrive-Tut-10Env-v0,170,332.39267255399284,380342,1224,2233.4296481609344,50.36904525756836,,11.76572036743164,0.91,50.22239303588867,50.41925811767578,0.7006630301475525
380,MetaDrive-Tut-10Env-v0,170,334.59907200537623,381025,1225,2237.671947002411,55.56759262084961,-56.11886215209961,6.328882694244385,0.91,55.54908752441406,55.22209167480469,0.82731032371521
381,MetaDrive-Tut-10Env-v0,170,338.06552434622733,382203,1227,2244.9331951141357,50.41374588012695,-50.87895202636719,4.9073805809021,0.92,50.28096008300781,50.28850555419922,0.7565473914146423
382,MetaDrive-Tut-10Env-v0,170,335.19873916914383,383207,1230,2250.5313050746918,53.16444778442383,-53.99555969238281,5.4440741539001465,0.91,53.205631256103516,53.161373138427734,0.7440423965454102
383,MetaDrive-Tut-10Env-v0,170,337.4972563045831,384274,1232,2256.9776861667633,52.02321243286133,,4.554176330566406,0.91,51.84876251220703,51.765663146972656,0.7624440789222717
384,MetaDrive-Tut-10Env-v0,170,341.4272688038867,385487,1234,2265.126908302307,49.54718017578125,-50.47060012817383,8.748514175415039,0.91,49.00559616088867,49.17718505859375,0.7890236377716064
385,MetaDrive-Tut-10Env-v0,170,342.84594732956646,386127,1235,2269.311187028885,52.46260070800781,-53.511112213134766,20.444196701049805,0.91,52.54574966430664,53.12807083129883,0.7608674764633179
386,MetaDrive-Tut-10Env-v0,170,343.8034987159203,387019,1237,2274.594362258911,51.12978744506836,-51.25238037109375,11.371803283691406,0.91,52.07557678222656,51.65596008300781,0.7407761216163635
387,MetaDrive-Tut-10Env-v0,170,345.1553681584293,388408,1240,2282.949517250061,51.29521560668945,,8.174615859985352,0.91,51.621273040771484,50.81615447998047,0.719959557056427
388,MetaDrive-Tut-10Env-v0,170,346.77059302203264,389222,1242,2287.7058951854706,50.503684997558594,,7.153844833374023,0.91,51.275848388671875,51.61244201660156,0.744292140007019
389,MetaDrive-Tut-10Env-v0,170,346.61671645697277,390139,1244,2293.053419113159,52.63625717163086,-52.45034408569336,9.531196594238281,0.92,52.967254638671875,52.93083953857422,0.7935242652893066
390,MetaDrive-Tut-10Env-v0,170,347.96162229330827,391589,1247,2301.633180141449,53.42902374267578,-54.654232025146484,7.537196159362793,0.92,53.74850082397461,53.85128402709961,0.8713526725769043
391,MetaDrive-Tut-10Env-v0,170,348.8226995683014,392281,1248,2305.9329562187195,51.84529495239258,-52.367210388183594,9.815343856811523,0.92,51.98027801513672,51.27716064453125,0.7813960313796997
392,MetaDrive-Tut-10Env-v0,170,350.10776027196107,393541,1250,2313.633547067642,53.193992614746094,-54.23848342895508,5.725630760192871,0.92,53.65686798095703,53.61103820800781,0.7462189793586731
393,MetaDrive-Tut-10Env-v0,170,347.4707943054979,394321,1252,2318.25777220726,52.04773712158203,-52.82520294189453,6.8462629318237305,0.92,52.63465118408203,52.499717712402344,0.7964743971824646
394,MetaDrive-Tut-10Env-v0,170,348.3065179801041,395432,1254,2324.9521090984344,49.82380676269531,,9.661659240722656,0.92,49.6654167175293,49.55850601196289,0.7021490931510925
395,MetaDrive-Tut-10Env-v0,170,350.5936118478969,396453,1256,2331.2737851142883,52.10365676879883,-52.49375534057617,7.861227989196777,0.92,52.58527755737305,52.312068939208984,0.8132292628288269
396,MetaDrive-Tut-10Env-v0,170,353.0544877991099,397043,1257,2335.208862066269,50.83774185180664,-51.04279327392578,10.682689666748047,0.92,50.69132614135742,50.32482147216797,0.7986181378364563
397,MetaDrive-Tut-10Env-v0,170,354.4073471899071,398225,1259,2342.1801142692566,53.19663619995117,-53.68201446533203,4.503971099853516,0.92,52.54683303833008,52.98152160644531,0.7274788618087769
398,MetaDrive-Tut-10Env-v0,170,354.26881732686894,399301,1261,2348.6869733333588,53.11602020263672,-52.62034606933594,4.699023246765137,0.92,53.04469299316406,52.74966049194336,0.7973935008049011
399,MetaDrive-Tut-10Env-v0,170,354.6454274285203,400213,1263,2354.1586632728577,50.117008209228516,-50.8740119934082,8.016448974609375,0.91,50.4648323059082,50.09114456176758,0.8112918138504028
400,MetaDrive-Tut-10Env-v0,169,358.95441885565526,401303,1265,2360.71497130394,52.42279052734375,-52.76321029663086,12.87828254699707,0.92,52.58621597290039,52.62461853027344,0.7305381298065186
401,MetaDrive-Tut-10Env-v0,169,361.66136760724294,402286,1267,2366.806274175644,52.04170608520508,,10.278564453125,0.92,51.68907928466797,51.46977996826172,0.7477747201919556
402,MetaDrive-Tut-10Env-v0,169,364.0963612954545,403504,1269,2374.222398042679,52.24525451660156,,20.315898895263672,0.92,52.762794494628906,52.807106018066406,0.8063293099403381
403,MetaDrive-Tut-10Env-v0,169,365.01859229379943,404122,1270,2377.8875982761383,51.90810012817383,,6.398378372192383,0.92,51.74599075317383,52.1217155456543,0.7898340225219727
404,MetaDrive-Tut-10Env-v0,169,360.2747967706407,405092,1273,2383.485859155655,48.936378479003906,,6.509309768676758,0.9,49.4307975769043,49.15666961669922,0.7377256751060486
405,MetaDrive-Tut-10Env-v0,169,363.2235037879314,406265,1275,2390.7580790519714,51.24912643432617,-51.1197624206543,18.474834442138672,0.9,51.84918975830078,52.135868072509766,0.7236989736557007
406,MetaDrive-Tut-10Env-v0,169,359.3738952383722,407188,1278,2395.955257177353,51.836891174316406,,13.215630531311035,0.89,51.347469329833984,51.131256103515625,0.8409891724586487
407,MetaDrive-Tut-10Env-v0,169,357.0614286052668,408281,1280,2402.4558510780334,53.278629302978516,-52.94429397583008,6.825106620788574,0.89,52.878211975097656,52.70795440673828,0.8353227376937866
408,MetaDrive-Tut-10Env-v0,169,357.94745002954255,409294,1282,2408.7620072364807,50.21094512939453,,6.460277557373047,0.89,51.050567626953125,50.413002014160156,0.8416599035263062
409,MetaDrive-Tut-10Env-v0,169,359.27450353955277,410382,1284,2415.2932662963867,51.17444610595703,,9.588897705078125,0.89,50.5269889831543,50.559566497802734,0.8151406049728394
410,MetaDrive-Tut-10Env-v0,169,361.493105805035,411076,1285,2419.5930931568146,51.47825622558594,,6.2920684814453125,0.89,51.40623474121094,51.11186218261719,0.7437801361083984
411,MetaDrive-Tut-10Env-v0,169,357.18310660849625,412119,1288,2425.576686143875,51.9041748046875,-51.879493713378906,4.553161144256592,0.88,51.53910827636719,51.89852523803711,0.819356381893158
412,MetaDrive-Tut-10Env-v0,169,352.83725030854674,413249,1291,2432.3157119750977,51.85110092163086,-51.963157653808594,8.479097366333008,0.87,51.62989044189453,51.9224853515625,0.790276050567627
413,MetaDrive-Tut-10Env-v0,169,353.9207982849866,414314,1293,2438.665935277939,54.05278778076172,,6.651566505432129,0.87,54.73000717163086,54.6669921875,0.7822074890136719
414,MetaDrive-Tut-10Env-v0,169,355.27986976432373,415040,1295,2443.2983191013336,50.97002410888672,,12.23952865600586,0.87,51.812400817871094,51.48134994506836,0.7577623128890991
415,MetaDrive-Tut-10Env-v0,169,356.53219783824073,416149,1297,2449.9013950824738,54.01272201538086,-54.09290313720703,20.468137741088867,0.87,53.1793327331543,53.37630081176758,0.7553458213806152
416,MetaDrive-Tut-10Env-v0,169,357.99371455787224,417284,1299,2456.6572773456573,50.32635498046875,,5.689047813415527,0.88,50.22441101074219,50.418643951416016,0.8162672519683838
417,MetaDrive-Tut-10Env-v0,169,360.09349060968304,418510,1302,2464.0186030864716,50.78437042236328,,8.085918426513672,0.88,51.46852493286133,51.22246551513672,0.7443586587905884
418,MetaDrive-Tut-10Env-v0,169,360.0747295873054,419098,1303,2467.974058151245,51.51829147338867,,11.72126293182373,0.88,51.038795471191406,51.01372146606445,0.7374012470245361
419,MetaDrive-Tut-10Env-v0,169,360.1953936387233,420013,1305,2473.321244239807,50.19693374633789,-51.14081573486328,10.094741821289062,0.89,50.54097366333008,50.2889404296875,0.727083146572113
420,MetaDrive-Tut-10Env-v0,169,359.41657624931963,421465,1308,2481.942087173462,51.011173248291016,-51.08038330078125,3.4699928760528564,0.89,50.91459274291992,50.7789421081543,0.7388631701469421
421,MetaDrive-Tut-10Env-v0,169,361.7855623519366,422451,1310,2488.14910697937,49.707305908203125,-49.81089401245117,12.363356590270996,0.89,50.26963806152344,50.21995544433594,0.7457383275032043
422,MetaDrive-Tut-10Env-v0,169,355.4814307453123,423028,1313,2491.356218099594,51.06148910522461,,5.352017402648926,0.87,51.08942413330078,50.951019287109375,0.6958531141281128
423,MetaDrive-Tut-10Env-v0,169,353.94179906192994,424478,1316,2499.6930723190308,51.940269470214844,,4.872201919555664,0.87,51.574562072753906,51.46085739135742,0.796631395816803
424,MetaDrive-Tut-10Env-v0,169,355.0364647046231,425447,1318,2505.3640682697296,48.657405853271484,-48.70469284057617,9.895462036132812,0.88,48.80155563354492,48.907379150390625,0.8025224804878235
425,MetaDrive-Tut-10Env-v0,169,351.84946648087623,426235,1320,2509.75883603096,50.35262680053711,-51.68685531616211,7.376749515533447,0.88,50.00220489501953,50.242393493652344,0.8477007150650024
426,MetaDrive-Tut-10Env-v0,169,349.19943926283287,427197,1322,2515.556658267975,51.82203674316406,-52.59904479980469,27.788291931152344,0.87,51.79100799560547,51.67799758911133,0.7907411456108093
427,MetaDrive-Tut-10Env-v0,169,344.7928533569669,428153,1325,2520.9628522396088,49.73420715332031,-49.445125579833984,6.266222953796387,0.86,49.64072799682617,49.4379768371582,0.7826989889144897
428,MetaDrive-Tut-10Env-v0,169,340.5753597408346,429149,1328,2526.5693991184235,52.84767150878906,-53.03205871582031,5.103224277496338,0.85,52.725303649902344,52.662269592285156,0.791706919670105
429,MetaDrive-Tut-10Env-v0,169,342.8602986457845,430032,1330,2531.736934185028,51.693077087402344,,6.5682172775268555,0.86,51.34467315673828,51.122371673583984,0.802415668964386
430,MetaDrive-Tut-10Env-v0,169,342.4763965006938,431088,1332,2538.1519820690155,52.07950973510742,,8.242937088012695,0.86,52.222782135009766,52.117103576660156,0.8186370730400085
431,MetaDrive-Tut-10Env-v0,169,336.46998415502145,432371,1335,2545.5129249095917,49.75019454956055,-49.642459869384766,6.387750625610352,0.86,49.2628288269043,49.7957763671875,0.6888612508773804
432,MetaDrive-Tut-10Env-v0,169,338.86415617222696,433512,1337,2552.811553001404,51.45687484741211,,5.75856876373291,0.86,50.94626235961914,50.693321228027344,0.7684066295623779
433,MetaDrive-Tut-10Env-v0,169,338.59370276039255,434015,1339,2555.700361967087,51.61333465576172,-51.37114715576172,4.818023681640625,0.86,51.234275817871094,51.637657165527344,0.7577947378158569
434,MetaDrive-Tut-10Env-v0,169,339.7646445981006,435041,1341,2561.952399253845,49.67833709716797,-50.015647888183594,5.536903381347656,0.87,50.269309997558594,49.71342086791992,0.7627080082893372
435,MetaDrive-Tut-10Env-v0,169,340.3200766864773,436015,1343,2568.11176609993,51.093204498291016,-51.43521499633789,9.715652465820312,0.87,50.041141510009766,50.117000579833984,0.7642613649368286
436,MetaDrive-Tut-10Env-v0,169,340.32166717772895,437063,1346,2574.0012350082397,52.1218376159668,-52.14004135131836,11.233865737915039,0.87,51.614959716796875,51.85071563720703,0.7913815975189209
437,MetaDrive-Tut-10Env-v0,169,332.76248654739607,438467,1350,2582.3354461193085,49.68340301513672,-50.21427917480469,18.567625045776367,0.86,48.833988189697266,49.41591262817383,0.7670687437057495
438,MetaDrive-Tut-10Env-v0,169,335.10748119228333,439100,1351,2586.3313930034637,51.18436050415039,,5.417472839355469,0.86,51.03656005859375,51.02142333984375,0.7801867723464966
439,MetaDrive-Tut-10Env-v0,169,335.3397218342298,440009,1353,2591.900316953659,52.311038970947266,-52.57347869873047,5.014704704284668,0.86,52.266143798828125,52.44194793701172,0.7484570741653442
440,MetaDrive-Tut-10Env-v0,169,337.78427984989537,441129,1355,2599.1307289600372,50.193599700927734,-51.06662368774414,11.757075309753418,0.86,50.642887115478516,50.35358810424805,0.7506037950515747
441,MetaDrive-Tut-10Env-v0,169,330.92818166163516,442077,1358,2604.3974010944366,51.834144592285156,-52.00520324707031,26.371448516845703,0.85,52.328880310058594,52.006080627441406,0.7467976212501526
442,MetaDrive-Tut-10Env-v0,169,330.4182717571837,443452,1361,2613.0661351680756,50.17475509643555,,6.766849517822266,0.85,50.18331527709961,50.07246398925781,0.7589648962020874
443,MetaDrive-Tut-10Env-v0,169,331.428743483188,444026,1362,2616.9426312446594,47.46164321899414,,18.155662536621094,0.85,46.903564453125,47.45676040649414,0.7309460043907166
444,MetaDrive-Tut-10Env-v0,169,333.076370245439,445067,1364,2623.235603094101,52.53165054321289,-51.80182647705078,7.27823543548584,0.86,51.783939361572266,51.615745544433594,0.7603839635848999
445,MetaDrive-Tut-10Env-v0,169,329.49213962943105,446339,1367,2630.612658262253,51.5417366027832,-51.43782424926758,27.848793029785156,0.86,52.37345886230469,52.378414154052734,0.8061281442642212
446,MetaDrive-Tut-10Env-v0,169,326.1981525573147,447006,1369,2634.980124950409,50.114105224609375,,8.007118225097656,0.85,50.754249572753906,50.7972297668457,0.7024989128112793
447,MetaDrive-Tut-10Env-v0,169,328.37059696633406,448100,1372,2641.842115163803,50.491981506347656,,8.015297889709473,0.87,51.41522979736328,51.56714630126953,0.7983371615409851
448,MetaDrive-Tut-10Env-v0,169,332.14982170953175,449239,1374,2649.56205534935,49.482540130615234,-50.06382751464844,31.11993980407715,0.87,49.27482604980469,49.494285583496094,0.7471605539321899
449,MetaDrive-Tut-10Env-v0,169,334.8309389672939,450408,1376,2657.390171289444,48.96271514892578,,7.833802700042725,0.87,48.76539611816406,48.606849670410156,0.7369524836540222
450,MetaDrive-Tut-10Env-v0,169,337.9814352737017,451515,1378,2664.099173307419,50.07334899902344,-49.76594161987305,8.281257629394531,0.88,48.40277862548828,48.990596771240234,0.7962406873703003
451,MetaDrive-Tut-10Env-v0,169,338.0493989852375,452066,1379,2667.437169313431,50.89509963989258,,5.648797035217285,0.88,51.03325653076172,51.40796661376953,0.7869149446487427
452,MetaDrive-Tut-10Env-v0,169,330.84581691644934,453197,1383,2673.8992161750793,51.81395721435547,-51.88225173950195,3.6337532997131348,0.86,51.52494430541992,51.644371032714844,0.7774976491928101
453,MetaDrive-Tut-10Env-v0,169,326.1324267954773,454217,1386,2679.800389289856,50.290382385253906,-50.79488754272461,4.946240425109863,0.85,49.88539505004883,50.02880859375,0.8289743065834045
454,MetaDrive-Tut-10Env-v0,169,331.23228190626605,455532,1389,2687.3959851264954,51.12925720214844,,6.634245872497559,0.87,51.47772979736328,51.09819030761719,0.730974555015564
455,MetaDrive-Tut-10Env-v0,169,332.01257667708046,456095,1390,2690.799600124359,50.887168884277344,-50.78117370605469,13.868698120117188,0.87,50.76801681518555,51.01808547973633,0.7928994297981262
456,MetaDrive-Tut-10Env-v0,169,327.74549402250125,457281,1393,2697.491200208664,51.24412536621094,-51.551429748535156,9.659530639648438,0.87,50.37675476074219,50.86798858642578,0.8177579045295715
457,MetaDrive-Tut-10Env-v0,169,329.66879245390453,458315,1395,2703.718606233597,51.8853645324707,-52.23359680175781,15.414958000183105,0.88,50.75572204589844,51.10231399536133,0.767246663570404
458,MetaDrive-Tut-10Env-v0,169,327.6910189975258,459126,1397,2708.272730112076,50.78446960449219,,7.68424129486084,0.88,50.02702331542969,49.958274841308594,0.7620992660522461
459,MetaDrive-Tut-10Env-v0,169,325.1377405646418,460246,1400,2714.654712200165,49.77608108520508,,8.218745231628418,0.87,49.5272331237793,50.0173454284668,0.7711423635482788
460,MetaDrive-Tut-10Env-v0,169,324.5779414928755,461074,1402,2719.2671999931335,50.801998138427734,,5.674579620361328,0.88,51.52662658691406,51.3245849609375,0.7723740339279175
461,MetaDrive-Tut-10Env-v0,169,322.1804945350628,462356,1405,2726.5774631500244,50.19296646118164,,22.944000244140625,0.88,50.14144515991211,50.28150939941406,0.7621549367904663
462,MetaDrive-Tut-10Env-v0,169,320.98510302923165,463559,1408,2733.739937067032,48.78881072998047,-49.106632232666016,7.5339555740356445,0.87,47.92493438720703,47.788475036621094,0.7994160652160645
463,MetaDrive-Tut-10Env-v0,169,320.8334913859404,464646,1410,2740.227623939514,53.1898307800293,,4.6879167556762695,0.87,53.04707336425781,53.31293487548828,0.7745688557624817
464,MetaDrive-Tut-10Env-v0,169,320.5779841426054,465037,1411,2742.450919151306,50.90402603149414,-50.59671401977539,14.530457496643066,0.87,49.904029846191406,49.98200225830078,0.7691755294799805
465,MetaDrive-Tut-10Env-v0,169,325.1582161672078,466051,1414,2748.777327299118,50.238162994384766,-50.36084747314453,17.359159469604492,0.88,48.70064163208008,48.449981689453125,0.7201621532440186
466,MetaDrive-Tut-10Env-v0,169,325.86918902352687,467129,1416,2755.3061470985413,52.48846435546875,-51.7562370300293,10.462705612182617,0.88,52.718658447265625,52.61981201171875,0.7662979960441589
467,MetaDrive-Tut-10Env-v0,169,324.874088181257,468275,1419,2762.0686452388763,51.70645523071289,-51.384124755859375,11.411809921264648,0.86,51.370445251464844,51.425052642822266,0.7325810790061951
468,MetaDrive-Tut-10Env-v0,169,326.0286702098791,469255,1421,2767.735970020294,53.414642333984375,-53.40239715576172,10.686250686645508,0.87,52.881107330322266,53.087059020996094,0.7374078631401062
469,MetaDrive-Tut-10Env-v0,169,327.66283558103606,470246,1423,2773.9439351558685,51.11280822753906,,12.0479154586792,0.87,51.3621826171875,51.42494583129883,0.8387123346328735
470,MetaDrive-Tut-10Env-v0,169,328.5012792837005,471003,1425,2778.3477671146393,48.5641975402832,-48.85167694091797,7.177873611450195,0.87,48.69742202758789,48.56247329711914,0.7670966386795044
471,MetaDrive-Tut-10Env-v0,169,332.4317562964337,472380,1428,2786.9016382694244,52.09844207763672,,4.850003242492676,0.88,51.98638916015625,52.39427947998047,0.8384963274002075
472,MetaDrive-Tut-10Env-v0,169,333.7127083115795,473066,1429,2791.19717502594,51.13786315917969,,6.279016494750977,0.88,51.445518493652344,51.24971008300781,0.7694451212882996
473,MetaDrive-Tut-10Env-v0,169,334.9669492763522,474094,1431,2797.3124799728394,52.56143569946289,,4.749467372894287,0.88,52.943660736083984,52.75117111206055,0.7312370538711548
474,MetaDrive-Tut-10Env-v0,169,333.4676650579706,475324,1434,2804.50150513649,51.16258239746094,,11.329059600830078,0.87,51.11575698852539,50.48986053466797,0.7362279295921326
475,MetaDrive-Tut-10Env-v0,169,328.0739198281469,476149,1437,2809.0851221084595,48.54586410522461,-49.07618713378906,21.368303298950195,0.86,49.65715408325195,48.91554260253906,0.811141848564148
476,MetaDrive-Tut-10Env-v0,169,329.3244160645594,477018,1439,2814.3718540668488,52.6234130859375,,7.134747505187988,0.85,53.33089065551758,53.45118713378906,0.7742757797241211
477,MetaDrive-Tut-10Env-v0,169,329.0765858657596,478529,1442,2823.3172631263733,52.06746292114258,-52.268611907958984,30.25293731689453,0.85,51.650386810302734,51.091156005859375,0.8435474634170532
478,MetaDrive-Tut-10Env-v0,169,328.0630125659918,479083,1443,2826.594402074814,50.23265075683594,-50.591529846191406,13.008846282958984,0.85,49.73461151123047,49.97245407104492,0.7835858464241028
479,MetaDrive-Tut-10Env-v0,169,331.088258016366,480159,1445,2833.5023131370544,49.683773040771484,-49.91686248779297,6.478014945983887,0.85,50.114627838134766,50.48311233520508,0.7938587665557861
480,MetaDrive-Tut-10Env-v0,169,335.5737108278765,481197,1447,2839.7880079746246,51.67860412597656,-52.76932907104492,12.353802680969238,0.86,52.16999816894531,52.09312057495117,0.7762269973754883
481,MetaDrive-Tut-10Env-v0,169,340.20992124279053,482453,1449,2847.9177532196045,52.8254508972168,-53.62877655029297,10.71137523651123,0.86,52.789066314697266,52.99723815917969,0.7453049421310425
482,MetaDrive-Tut-10Env-v0,169,336.4297362373839,483236,1451,2852.522774219513,51.30516815185547,,4.017321586608887,0.85,50.904205322265625,51.21164321899414,0.7608001828193665
483,MetaDrive-Tut-10Env-v0,169,336.5994088246719,484274,1453,2858.6859471797943,50.50247573852539,,5.241296291351318,0.85,50.4804573059082,50.77789306640625,0.8290970325469971
484,MetaDrive-Tut-10Env-v0,169,335.66276043260166,485344,1455,2865.1967191696167,51.729522705078125,,10.125590324401855,0.85,51.36682891845703,51.114501953125,0.7641147375106812
485,MetaDrive-Tut-10Env-v0,169,337.79479217764725,486003,1456,2869.250487089157,51.811954498291016,-52.32016372680664,5.383060455322266,0.85,51.977210998535156,52.128475189208984,0.8040128946304321
486,MetaDrive-Tut-10Env-v0,169,341.0490539166604,487393,1459,2877.6233031749725,49.58843231201172,-49.29701232910156,7.474179267883301,0.85,48.849884033203125,49.451148986816406,0.8284028172492981
487,MetaDrive-Tut-10Env-v0,169,337.6845825392113,488225,1461,2882.2478363513947,50.14504623413086,-50.580814361572266,5.507560729980469,0.85,50.576263427734375,50.38914108276367,0.7994261980056763
488,MetaDrive-Tut-10Env-v0,169,335.27492445200727,489282,1463,2888.2567870616913,50.12178421020508,,7.295186996459961,0.85,50.14028549194336,50.458740234375,0.7235680222511292
489,MetaDrive-Tut-10Env-v0,169,334.40779355371626,490211,1465,2893.7034771442413,51.39676284790039,-51.73964309692383,8.102936744689941,0.85,50.391082763671875,50.25358581542969,0.8601211309432983
490,MetaDrive-Tut-10Env-v0,169,335.0861558651327,491105,1467,2899.0278351306915,49.959739685058594,-49.86294174194336,13.656805038452148,0.85,49.96560287475586,50.160648345947266,0.7740845084190369
491,MetaDrive-Tut-10Env-v0,169,337.5302882399896,492142,1469,2905.147374153137,49.41084671020508,,6.080450534820557,0.86,49.74008560180664,49.36941146850586,0.7549371123313904
492,MetaDrive-Tut-10Env-v0,169,336.7662127287334,493047,1471,2910.3971252441406,51.234596252441406,-51.981842041015625,5.628113746643066,0.86,50.90509033203125,51.29588317871094,0.7927497625350952
493,MetaDrive-Tut-10Env-v0,169,328.89838681571183,494388,1475,2918.520529270172,50.06376266479492,,19.81412696838379,0.84,51.195098876953125,51.460872650146484,0.8552437424659729
494,MetaDrive-Tut-10Env-v0,169,324.58656588032466,495390,1478,2924.4353342056274,50.70219802856445,,10.646590232849121,0.83,50.83721160888672,51.03318786621094,0.7629420757293701
495,MetaDrive-Tut-10Env-v0,169,326.122714872009,496205,1480,2929.0471901893616,51.025184631347656,-50.76640701293945,6.685033798217773,0.84,50.50152587890625,50.45741271972656,0.6982119083404541
496,MetaDrive-Tut-10Env-v0,169,329.4429890740814,497285,1482,2935.9451673030853,49.57798385620117,-49.48289108276367,8.784635543823242,0.85,49.82759475708008,50.371177673339844,0.7181271910667419
497,MetaDrive-Tut-10Env-v0,169,331.55939849513356,498006,1483,2940.3634979724884,53.43528747558594,,13.042226791381836,0.85,53.52449417114258,53.712501525878906,0.7546765208244324
498,MetaDrive-Tut-10Env-v0,169,333.17517736283367,499333,1486,2948.0982472896576,49.62104797363281,-49.45017623901367,10.798616409301758,0.86,49.43158721923828,49.655357360839844,0.7589072585105896
