cjunkin/reinforcement-learning/metaracer/data/td3_agent_single_v9/td3/progress.csv
,log_dir,frame_per_second,episode_reward,total_steps,total_episodes,total_time,target_q,actor_loss,critic_loss,success_rate,current_q1,current_q2,reward
0,/Users/cjpark/Desktop/ucla_courses/cs260r/assignment4/data/td3_agent_single_v9/td3,1526,28.109055519104004,2999,1,1.9647438526153564,,,,0.0,,,
1,/Users/cjpark/Desktop/ucla_courses/cs260r/assignment4/data/td3_agent_single_v9/td3,1537,27.910070419311523,5999,2,3.9027817249298096,,,,0.0,,,
2,/Users/cjpark/Desktop/ucla_courses/cs260r/assignment4/data/td3_agent_single_v9/td3,1548,29.09592882792155,8999,3,5.811387777328491,,,,0.0,,,
3,/Users/cjpark/Desktop/ucla_courses/cs260r/assignment4/data/td3_agent_single_v9/td3,727,-10507.660926818848,11999,4,16.49207592010498,-8.314702033996582,4.754166126251221,189.12472534179688,0.0,-8.463911056518555,-8.498739242553711,-3.5069973468780518
4,/Users/cjpark/Desktop/ucla_courses/cs260r/assignment4/data/td3_agent_single_v9/td3,690,-10175.56229839325,12196,5,17.659891843795776,-9.31022834777832,,125.12669372558594,0.0,-9.988099098205566,-10.004007339477539,-3.3076300621032715
5,/Users/cjpark/Desktop/ucla_courses/cs260r/assignment4/data/td3_agent_single_v9/td3,442,-13324.87566430228,15540,7,35.13408184051514,-36.293758392333984,,189.5245819091797,0.0,-37.52042770385742,-37.30937957763672,-5.460084915161133
6,/Users/cjpark/Desktop/ucla_courses/cs260r/assignment4/data/td3_agent_single_v9/td3,361,-11661.14746517688,18540,8,51.23442578315735,-23.714204788208008,,198.38905334472656,0.0,-24.083669662475586,-24.211862564086914,-5.456280708312988
7,/Users/cjpark/Desktop/ucla_courses/cs260r/assignment4/data/td3_agent_single_v9/td3,316,-10661.447941936138,21540,9,68.02840495109558,17.02745819091797,,88.2119369506836,0.0,17.076879501342773,16.71287727355957,-3.313680410385132
8,/Users/cjpark/Desktop/ucla_courses/cs260r/assignment4/data/td3_agent_single_v9/td3,291,-9596.273936459795,24540,10,84.24292278289795,35.249473571777344,,164.618896484375,0.0,36.60080337524414,35.59359359741211,-3.1239140033721924
9,/Users/cjpark/Desktop/ucla_courses/cs260r/assignment4/data/td3_agent_single_v9/td3,272,-8724.647070752288,27540,11,101.17113971710205,25.97683334350586,,212.84796142578125,0.0,27.676605224609375,26.983421325683594,-2.7315750122070312
10,/Users/cjpark/Desktop/ucla_courses/cs260r/assignment4/data/td3_agent_single_v9/td3,257,-7998.243009048514,30540,12,118.55065965652466,30.771587371826172,,147.51016235351562,0.0,32.796016693115234,32.78184509277344,-3.3195104598999023
11,/Users/cjpark/Desktop/ucla_courses/cs260r/assignment4/data/td3_agent_single_v9/td3,249,-7383.473028034258,33540,13,134.3683466911316,23.05078887939453,,143.93374633789062,0.0,24.272987365722656,24.517345428466797,-3.317783832550049
12,/Users/cjpark/Desktop/ucla_courses/cs260r/assignment4/data/td3_agent_single_v9/td3,243,-6856.615882565135,36540,14,150.17432069778442,55.491798400878906,,75.05574035644531,0.0,56.63465881347656,56.47425079345703,-2.3417234420776367
13,/Users/cjpark/Desktop/ucla_courses/cs260r/assignment4/data/td3_agent_single_v9/td3,236,-6399.896502524863,39540,15,166.86794781684875,61.256874084472656,,87.3460464477539,0.0,61.520416259765625,61.35380172729492,-1.9528379440307617
14,/Users/cjpark/Desktop/ucla_courses/cs260r/assignment4/data/td3_agent_single_v9/td3,232,-6000.12952837185,42540,16,183.08448195457458,48.61978530883789,,95.8375244140625,0.0,49.12230682373047,48.973968505859375,-1.952215313911438
15,/Users/cjpark/Desktop/ucla_courses/cs260r/assignment4/data/td3_agent_single_v9/td3,228,-5647.418142233044,45540,17,198.97752976417542,57.6998176574707,,58.65132522583008,0.0,58.82202911376953,59.60749053955078,-1.9532825946807861
16,/Users/cjpark/Desktop/ucla_courses/cs260r/assignment4/data/td3_agent_single_v9/td3,225,-5333.8834629839075,48540,18,215.54974579811096,30.473175048828125,,88.83092498779297,0.0,30.333364486694336,30.37961769104004,-2.5388903617858887
17,/Users/cjpark/Desktop/ucla_courses/cs260r/assignment4/data/td3_agent_single_v9/td3,223,-5053.30855738352,51540,19,231.03998160362244,42.53997039794922,,93.29047393798828,0.0,42.10675811767578,41.85437774658203,-1.3671948909759521
18,/Users/cjpark/Desktop/ucla_courses/cs260r/assignment4/data/td3_agent_single_v9/td3,220,-4800.747259400971,54540,20,247.0064787864685,28.92718505859375,,65.99491882324219,0.0,29.555177688598633,28.50096893310547,-2.34311580657959
19,/Users/cjpark/Desktop/ucla_courses/cs260r/assignment4/data/td3_agent_single_v9/td3,219,-4572.242759453577,57540,21,262.09319281578064,51.629146575927734,,38.00727844238281,0.0,51.764801025390625,51.91383361816406,-0.3904377818107605
20,/Users/cjpark/Desktop/ucla_courses/cs260r/assignment4/data/td3_agent_single_v9/td3,217,-4364.5056495871395,60540,22,278.8973617553711,39.83844757080078,,110.0967025756836,0.0,39.74787139892578,38.98918914794922,-1.3669888973236084
21,/Users/cjpark/Desktop/ucla_courses/cs260r/assignment4/data/td3_agent_single_v9/td3,215,-4174.838500457127,63540,23,295.48634696006775,35.5069580078125,,70.16339874267578,0.0,34.00588607788086,33.55261993408203,-1.5629123449325562
22,/Users/cjpark/Desktop/ucla_courses/cs260r/assignment4/data/td3_agent_single_v9/td3,213,-4000.98291498314,66540,24,311.26598381996155,17.0555362701416,,65.56765747070312,0.0,16.243858337402344,16.746295928955078,-1.9531991481781006
23,/Users/cjpark/Desktop/ucla_courses/cs260r/assignment4/data/td3_agent_single_v9/td3,212,-3841.049800509363,69540,25,327.5860548019409,16.616729736328125,,67.47745513916016,0.0,17.717811584472656,17.574264526367188,-1.5630913972854614
24,/Users/cjpark/Desktop/ucla_courses/cs260r/assignment4/data/td3_agent_single_v9/td3,211,-3693.4166095613573,72540,26,343.54357075691223,11.471854209899902,,38.185909271240234,0.0,10.815587997436523,10.618730545043945,-0.9761378169059753
25,/Users/cjpark/Desktop/ucla_courses/cs260r/assignment4/data/td3_agent_single_v9/td3,210,-3556.7102987315093,75540,27,359.3268258571625,19.587989807128906,,51.94341278076172,0.0,19.798097610473633,19.927690505981445,-1.7584145069122314
26,/Users/cjpark/Desktop/ucla_courses/cs260r/assignment4/data/td3_agent_single_v9/td3,209,-3429.765113540127,78540,28,375.1840908527374,16.983814239501953,,25.478336334228516,0.0,16.867088317871094,16.632301330566406,-1.3671379089355469
27,/Users/cjpark/Desktop/ucla_courses/cs260r/assignment4/data/td3_agent_single_v9/td3,207,-3311.5770895883184,81540,29,392.10138487815857,39.48193359375,,27.87592315673828,0.0,39.820125579833984,39.798892974853516,-0.976759672164917
28,/Users/cjpark/Desktop/ucla_courses/cs260r/assignment4/data/td3_agent_single_v9/td3,207,-3201.2625098060817,84540,30,408.3814888000488,10.623517036437988,,43.976036071777344,0.0,9.914774894714355,9.908926963806152,-1.1725808382034302
29,/Users/cjpark/Desktop/ucla_courses/cs260r/assignment4/data/td3_agent_single_v9/td3,206,-3098.0694379029014,87540,31,424.47492504119873,23.940473556518555,,73.75650787353516,0.0,24.82496452331543,25.358806610107422,-0.9771103262901306
30,/Users/cjpark/Desktop/ucla_courses/cs260r/assignment4/data/td3_agent_single_v9/td3,205,-3001.3124996564584,90540,32,441.00022768974304,12.66808795928955,,29.568218231201172,0.0,13.346148490905762,12.62197208404541,-1.1716153621673584
31,/Users/cjpark/Desktop/ucla_courses/cs260r/assignment4/data/td3_agent_single_v9/td3,204,-2910.436724647541,93540,33,457.6574037075043,9.18283462524414,,23.5323486328125,0.0,9.039435386657715,8.792667388916016,-1.3672410249710083
32,/Users/cjpark/Desktop/ucla_courses/cs260r/assignment4/data/td3_agent_single_v9/td3,203,-2824.9031016538465,96540,34,474.1405806541443,17.469806671142578,,28.12767791748047,0.0,18.095252990722656,17.68882942199707,0.002238516928628087
33,/Users/cjpark/Desktop/ucla_courses/cs260r/assignment4/data/td3_agent_single_v9/td3,202,-2744.272803510193,99540,35,490.52370977401733,9.70193862915039,,55.01763916015625,0.0,9.857110977172852,10.217698097229004,-0.9749369621276855
34,/Users/cjpark/Desktop/ucla_courses/cs260r/assignment4/data/td3_agent_single_v9/td3,200,-2668.141313406432,102540,36,510.2657787799835,0.8985917568206787,,17.91343116760254,0.0,0.4186818599700928,0.364560604095459,-1.170046329498291
35,/Users/cjpark/Desktop/ucla_courses/cs260r/assignment4/data/td3_agent_single_v9/td3,199,-2596.1729550354585,105540,37,529.9763858318329,8.007667541503906,,72.49127197265625,0.0,7.743788719177246,8.46233081817627,-0.7815257906913757
36,/Users/cjpark/Desktop/ucla_courses/cs260r/assignment4/data/td3_agent_single_v9/td3,197,-2527.997137432918,108540,38,549.9877989292145,-7.594843864440918,,31.7357234954834,0.0,-8.11416244506836,-8.708120346069336,-0.586162805557251
37,/Users/cjpark/Desktop/ucla_courses/cs260r/assignment4/data/td3_agent_single_v9/td3,195,-2463.32463176367,111540,39,569.9187860488892,-6.093515872955322,,16.018444061279297,0.0,-5.739017963409424,-6.110079288482666,-0.7816862463951111
38,/Users/cjpark/Desktop/ucla_courses/cs260r/assignment4/data/td3_agent_single_v9/td3,194,-2401.861148404423,114540,40,590.1391847133636,-9.532044410705566,,100.4732666015625,0.0,-9.82401180267334,-10.33059310913086,-1.1730191707611084
39,/Users/cjpark/Desktop/ucla_courses/cs260r/assignment4/data/td3_agent_single_v9/td3,192,-2654.316087163894,117540,41,609.3380858898163,-7.0290703773498535,,77.05084228515625,0.0,-5.98586893081665,-6.215542793273926,-0.58686763048172
40,/Users/cjpark/Desktop/ucla_courses/cs260r/assignment4/data/td3_agent_single_v9/td3,191,-2591.2282232550815,120540,42,628.6587088108063,-14.103124618530273,,180.69056701660156,0.0,-13.187542915344238,-13.614587783813477,-0.9740208983421326
41,/Users/cjpark/Desktop/ucla_courses/cs260r/assignment4/data/td3_agent_single_v9/td3,190,-2531.024475252299,123540,43,647.5562837123871,-17.638721466064453,,30.785125732421875,0.0,-17.441030502319336,-17.456003189086914,-1.5629738569259644
42,/Users/cjpark/Desktop/ucla_courses/cs260r/assignment4/data/td3_agent_single_v9/td3,189,-2473.541858715852,126540,44,667.3900928497314,-0.6939804553985596,,8.709434509277344,0.0,-0.5289652347564697,-1.132876992225647,-0.5866172313690186
43,/Users/cjpark/Desktop/ucla_courses/cs260r/assignment4/data/td3_agent_single_v9/td3,188,-2418.6167208983666,129540,45,686.6008949279785,-7.33332633972168,,52.7044677734375,0.0,-6.162365913391113,-6.902165412902832,-0.9769585132598877
44,/Users/cjpark/Desktop/ucla_courses/cs260r/assignment4/data/td3_agent_single_v9/td3,187,-2366.082854228904,132540,46,705.5482568740845,-15.26668643951416,,15.773786544799805,0.0,-16.061124801635742,-16.081199645996094,-0.5847557783126831
45,/Users/cjpark/Desktop/ucla_courses/cs260r/assignment4/data/td3_agent_single_v9/td3,187,-2315.798646540797,135540,47,724.7009258270264,-3.833836317062378,,15.188488006591797,0.0,-3.606235980987549,-3.351257801055908,-0.3899189829826355
46,/Users/cjpark/Desktop/ucla_courses/cs260r/assignment4/data/td3_agent_single_v9/td3,186,-2267.57820977713,138540,48,744.2188248634338,-21.96637535095215,,20.39599609375,0.0,-22.096647262573242,-22.744184494018555,-0.9766323566436768
47,/Users/cjpark/Desktop/ucla_courses/cs260r/assignment4/data/td3_agent_single_v9/td3,185,-2221.3290154588008,141540,49,763.421368598938,-9.541247367858887,,28.1945858001709,0.0,-11.098529815673828,-10.961709976196289,-0.19534359872341156
48,/Users/cjpark/Desktop/ucla_courses/cs260r/assignment4/data/td3_agent_single_v9/td3,184,-2176.9416190714387,144540,50,782.828864812851,-9.550141334533691,,25.530292510986328,0.0,-10.152676582336426,-9.699936866760254,-0.39145219326019287
49,/Users/cjpark/Desktop/ucla_courses/cs260r/assignment4/data/td3_agent_single_v9/td3,183,-2134.2815067622737,147540,51,802.8633437156677,1.4097694158554077,,16.940414428710938,0.0,0.6425278186798096,0.6524021625518799,-0.19511082768440247
50,/Users/cjpark/Desktop/ucla_courses/cs260r/assignment4/data/td3_agent_single_v9/td3,182,-2093.259191182442,150540,52,823.4926238059998,-6.64432430267334,,7.393863201141357,0.0,-6.681923866271973,-6.334218502044678,-0.3915846645832062
51,/Users/cjpark/Desktop/ucla_courses/cs260r/assignment4/data/td3_agent_single_v9/td3,181,-2053.788023876202,153540,53,844.2317378520966,-13.096292495727539,,21.072948455810547,0.0,-13.559261322021484,-13.785719871520996,-0.3911094665527344
52,/Users/cjpark/Desktop/ucla_courses/cs260r/assignment4/data/td3_agent_single_v9/td3,181,-2015.7970720392273,156540,54,864.8533837795258,-10.653116226196289,,13.623737335205078,0.0,-10.422527313232422,-10.485265731811523,-0.39091306924819946
53,/Users/cjpark/Desktop/ucla_courses/cs260r/assignment4/data/td3_agent_single_v9/td3,179,-1979.1915146562862,159540,55,889.2120649814606,-18.108837127685547,,27.150623321533203,0.0,-18.87010955810547,-18.00924301147461,-0.5872790813446045
54,/Users/cjpark/Desktop/ucla_courses/cs260r/assignment4/data/td3_agent_single_v9/td3,178,-1943.8812432625066,162540,56,910.6055669784546,-21.775423049926758,,348.89306640625,0.0,-22.64851951599121,-22.869949340820312,-1.5628156661987305
55,/Users/cjpark/Desktop/ucla_courses/cs260r/assignment4/data/td3_agent_single_v9/td3,177,-1909.8113153854613,165540,57,931.9857728481293,-4.957552909851074,,5.79341983795166,0.0,-5.36802339553833,-5.68643045425415,-0.38928863406181335
56,/Users/cjpark/Desktop/ucla_courses/cs260r/assignment4/data/td3_agent_single_v9/td3,177,-1876.9091158895271,168540,58,951.8242628574371,-28.034650802612305,,78.33402252197266,0.0,-27.424772262573242,-27.815109252929688,-1.3678154945373535
57,/Users/cjpark/Desktop/ucla_courses/cs260r/assignment4/data/td3_agent_single_v9/td3,176,-1845.1197962190765,171540,59,971.5012936592102,-11.512794494628906,,29.86227035522461,0.0,-10.850358009338379,-11.313323974609375,-0.19569456577301025
58,/Users/cjpark/Desktop/ucla_courses/cs260r/assignment4/data/td3_agent_single_v9/td3,176,-1814.3912195201342,174540,60,990.8827698230743,-14.908287048339844,,25.989879608154297,0.0,-14.743576049804688,-14.927791595458984,-0.7818915843963623
59,/Users/cjpark/Desktop/ucla_courses/cs260r/assignment4/data/td3_agent_single_v9/td3,175,-1784.6664569100028,177540,61,1010.85955286026,-21.472530364990234,,66.44807434082031,0.0,-21.85772132873535,-22.044105529785156,-0.19590765237808228
60,/Users/cjpark/Desktop/ucla_courses/cs260r/assignment4/data/td3_agent_single_v9/td3,174,-1755.9008659850806,180540,62,1031.6880338191986,-20.098175048828125,,33.08793640136719,0.0,-19.353044509887695,-19.17473793029785,-0.7813345193862915
61,/Users/cjpark/Desktop/ucla_courses/cs260r/assignment4/data/td3_agent_single_v9/td3,174,-1728.0523085514349,183540,63,1052.4785416126251,-14.478373527526855,,567.0826416015625,0.0,-15.742502212524414,-15.604528427124023,-0.1959502398967743
62,/Users/cjpark/Desktop/ucla_courses/cs260r/assignment4/data/td3_agent_single_v9/td3,173,-1701.069653436134,186540,64,1072.6930418014526,-25.48002815246582,,11.03782844543457,0.0,-24.93452262878418,-24.822017669677734,-0.3906773030757904
63,/Users/cjpark/Desktop/ucla_courses/cs260r/assignment4/data/td3_agent_single_v9/td3,173,-1674.9200891490739,189540,65,1092.718440771103,-11.446258544921875,,34.79057312011719,0.0,-11.36363410949707,-10.925128936767578,-0.19349543750286102
64,/Users/cjpark/Desktop/ucla_courses/cs260r/assignment4/data/td3_agent_single_v9/td3,172,-1649.5700790950407,192540,66,1113.0172328948975,-26.23845100402832,,22.695642471313477,0.0,-27.248598098754883,-27.35724639892578,-0.5869617462158203
65,/Users/cjpark/Desktop/ucla_courses/cs260r/assignment4/data/td3_agent_single_v9/td3,172,-1625.0135877235277,195540,67,1133.0551767349243,-23.270782470703125,,7.9462785720825195,0.0,-23.730979919433594,-24.018075942993164,-0.7819468975067139
66,/Users/cjpark/Desktop/ucla_courses/cs260r/assignment4/data/td3_agent_single_v9/td3,172,-1601.1413518116426,198540,68,1152.962347984314,-30.71914291381836,,17.60320281982422,0.0,-30.471162796020508,-30.432655334472656,-0.9768155217170715
67,/Users/cjpark/Desktop/ucla_courses/cs260r/assignment4/data/td3_agent_single_v9/td3,171,-1577.9878216062443,201540,69,1173.1740946769714,-10.56574821472168,,15.011100769042969,0.0,-10.936868667602539,-11.120361328125,-0.1956709325313568
68,/Users/cjpark/Desktop/ucla_courses/cs260r/assignment4/data/td3_agent_single_v9/td3,171,-1555.4876677781876,204540,70,1193.4799988269806,-20.915348052978516,,12.927501678466797,0.0,-21.04420280456543,-20.854915618896484,-0.9771588444709778
69,/Users/cjpark/Desktop/ucla_courses/cs260r/assignment4/data/td3_agent_single_v9/td3,170,-1533.5974657162499,207540,71,1214.2626979351044,-15.303346633911133,,53.45030212402344,0.0,-16.761112213134766,-16.73371696472168,-0.5859568119049072
70,/Users/cjpark/Desktop/ucla_courses/cs260r/assignment4/data/td3_agent_single_v9/td3,170,-1512.3142840858652,210540,72,1236.9658889770508,-22.68968391418457,,10.024507522583008,0.0,-22.066041946411133,-21.98809814453125,-0.19561176002025604
71,/Users/cjpark/Desktop/ucla_courses/cs260r/assignment4/data/td3_agent_single_v9/td3,169,-1491.6145290736977,213540,73,1260.455894947052,-26.726633071899414,,48.98954772949219,0.0,-25.936201095581055,-25.839923858642578,-0.782025933265686
72,/Users/cjpark/Desktop/ucla_courses/cs260r/assignment4/data/td3_agent_single_v9/td3,168,-1471.4763181528228,216540,74,1284.2994759082794,-20.241979598999023,,20.5568904876709,0.0,-20.076202392578125,-19.75267791748047,-0.3905198574066162
73,/Users/cjpark/Desktop/ucla_courses/cs260r/assignment4/data/td3_agent_single_v9/td3,167,-1451.8811967719098,219540,75,1307.2580819129944,-20.862552642822266,,30.334239959716797,0.0,-21.74573516845703,-21.3861026763916,-0.3912152051925659
74,/Users/cjpark/Desktop/ucla_courses/cs260r/assignment4/data/td3_agent_single_v9/td3,167,-1432.8281619419884,222540,76,1329.7246987819672,-26.65253448486328,,165.82937622070312,0.0,-27.49465560913086,-27.645334243774414,-0.7819676995277405
75,/Users/cjpark/Desktop/ucla_courses/cs260r/assignment4/data/td3_agent_single_v9/td3,166,-1414.2680502553749,225540,77,1352.7554306983948,-25.45570182800293,,68.48473358154297,0.0,-26.3122501373291,-26.138763427734375,-0.9773198962211609
76,/Users/cjpark/Desktop/ucla_courses/cs260r/assignment4/data/td3_agent_single_v9/td3,166,-1396.2236665697912,228540,78,1375.7412679195404,-24.671173095703125,,17.982980728149414,0.0,-25.002368927001953,-25.08488655090332,-0.3909704089164734
77,/Users/cjpark/Desktop/ucla_courses/cs260r/assignment4/data/td3_agent_single_v9/td3,165,-1378.6265049399926,231540,79,1398.7943227291107,-26.607664108276367,,18.76241111755371,0.0,-26.671245574951172,-26.57149887084961,-0.39146727323532104
78,/Users/cjpark/Desktop/ucla_courses/cs260r/assignment4/data/td3_agent_single_v9/td3,164,-1361.4694216903765,234540,80,1421.7071506977081,-21.299530029296875,,9.489521980285645,0.0,-21.923789978027344,-22.357328414916992,-0.19648981094360352
79,/Users/cjpark/Desktop/ucla_courses/cs260r/assignment4/data/td3_agent_single_v9/td3,164,-1344.7397484010844,237540,81,1444.7853598594666,-38.20820236206055,,132.93606567382812,0.0,-37.473140716552734,-38.1093864440918,-1.172136664390564
80,/Users/cjpark/Desktop/ucla_courses/cs260r/assignment4/data/td3_agent_single_v9/td3,163,-1328.4104323151362,240540,82,1467.9024629592896,-28.620859146118164,,37.81501770019531,0.0,-28.91008186340332,-29.042179107666016,-0.7819344997406006
81,/Users/cjpark/Desktop/ucla_courses/cs260r/assignment4/data/td3_agent_single_v9/td3,163,-1312.431827809123,241067,83,1471.9788126945496,-20.44622802734375,18.232540130615234,8.017912864685059,0.0,-20.506908416748047,-20.536773681640625,-0.39148378372192383
82,/Users/cjpark/Desktop/ucla_courses/cs260r/assignment4/data/td3_agent_single_v9/td3,163,-1296.8083921838108,242737,84,1485.2260646820068,-29.67681884765625,27.281198501586914,37.71881866455078,0.0,-28.37897491455078,-28.61066246032715,-0.3915558159351349
83,/Users/cjpark/Desktop/ucla_courses/cs260r/assignment4/data/td3_agent_single_v9/td3,163,-1281.5432392790476,243803,85,1494.0328137874603,-25.07050895690918,22.732261657714844,9.661460876464844,0.0,-24.873340606689453,-24.94385528564453,-0.19591505825519562
84,/Users/cjpark/Desktop/ucla_courses/cs260r/assignment4/data/td3_agent_single_v9/td3,163,-1266.6376199941042,244175,86,1497.2691748142242,-31.5150146484375,28.627655029296875,25.26506805419922,0.0,-31.710214614868164,-31.797821044921875,-0.19625788927078247
85,/Users/cjpark/Desktop/ucla_courses/cs260r/assignment4/data/td3_agent_single_v9/td3,162,-1223.9033504440292,245042,89,1504.4686398506165,-26.999807357788086,,10.731897354125977,0.0,-27.437572479248047,-26.809728622436523,-0.7817132472991943
86,/Users/cjpark/Desktop/ucla_courses/cs260r/assignment4/data/td3_agent_single_v9/td3,162,-1210.2766990976615,247689,90,1525.8443677425385,-28.229930877685547,26.037960052490234,40.664451599121094,0.0,-28.311614990234375,-29.045886993408203,-0.3911566436290741
87,/Users/cjpark/Desktop/ucla_courses/cs260r/assignment4/data/td3_agent_single_v9/td3,161,-1196.9209699732671,250689,91,1548.2810697555542,-22.546842575073242,20.594402313232422,12.850741386413574,0.0,-22.394733428955078,-22.339794158935547,-0.19629636406898499
88,/Users/cjpark/Desktop/ucla_courses/cs260r/assignment4/data/td3_agent_single_v9/td3,161,-1183.9025714912898,251036,92,1551.4900097846985,-33.78695297241211,,26.11853790283203,0.0,-34.48689270019531,-34.513160705566406,-0.5861659049987793
89,/Users/cjpark/Desktop/ucla_courses/cs260r/assignment4/data/td3_agent_single_v9/td3,161,-1171.1403470908201,254036,93,1573.8015098571777,-33.51774978637695,,18.649673461914062,0.0,-34.41292953491211,-34.441192626953125,0.00015782617265358567
90,/Users/cjpark/Desktop/ucla_courses/cs260r/assignment4/data/td3_agent_single_v9/td3,161,-1146.4921037169272,256743,95,1593.5115959644318,-29.692710876464844,28.528873443603516,36.06639862060547,0.0,-29.153343200683594,-29.142621994018555,-0.5867090821266174
91,/Users/cjpark/Desktop/ucla_courses/cs260r/assignment4/data/td3_agent_single_v9/td3,160,-1134.549380530642,257783,96,1602.1213178634644,-27.568546295166016,25.025724411010742,21.80023193359375,0.0,-28.338224411010742,-28.59650230407715,-0.7814598679542542
92,/Users/cjpark/Desktop/ucla_courses/cs260r/assignment4/data/td3_agent_single_v9/td3,160,-1111.402292835203,258217,98,1606.045203924179,-32.325775146484375,29.779544830322266,56.774803161621094,0.0,-31.14535903930664,-31.525222778320312,-0.5864492058753967
93,/Users/cjpark/Desktop/ucla_courses/cs260r/assignment4/data/td3_agent_single_v9/td3,160,-1089.4516749951615,259291,101,1615.0560278892517,-34.53099822998047,32.24006652832031,21.932512283325195,0.0,-34.06608963012695,-34.347869873046875,-0.3879372477531433
94,/Users/cjpark/Desktop/ucla_courses/cs260r/assignment4/data/td3_agent_single_v9/td3,160,-580.3980249306932,260293,105,1623.6954507827759,-38.3946533203125,36.09559631347656,15.787866592407227,0.0,-39.04508972167969,-39.13050079345703,-0.19637005031108856
95,/Users/cjpark/Desktop/ucla_courses/cs260r/assignment4/data/td3_agent_single_v9/td3,160,-421.91909096691757,261125,106,1630.2390909194946,-34.702449798583984,32.76118469238281,19.155990600585938,0.0,-34.15565872192383,-34.14200973510742,-0.19519953429698944
96,/Users/cjpark/Desktop/ucla_courses/cs260r/assignment4/data/td3_agent_single_v9/td3,159,-156.29821106348186,262235,108,1639.5734717845917,-33.363460540771484,31.3248291015625,13.031009674072266,0.0,-33.394371032714844,-33.572715759277344,-0.1958063244819641
97,/Users/cjpark/Desktop/ucla_courses/cs260r/assignment4/data/td3_agent_single_v9/td3,159,-129.5564312362671,265689,110,1667.0352969169617,-25.49935531616211,23.405235290527344,13.517999649047852,0.0,-24.567153930664062,-24.60427474975586,-0.19564475119113922
98,/Users/cjpark/Desktop/ucla_courses/cs260r/assignment4/data/td3_agent_single_v9/td3,158,-129.512395157814,268689,111,1691.1768598556519,-35.22965621948242,33.89664840698242,42.74852752685547,0.0,-34.91019821166992,-34.840309143066406,-0.586308479309082
99,/Users/cjpark/Desktop/ucla_courses/cs260r/assignment4/data/td3_agent_single_v9/td3,158,-129.44804069042206,269543,112,1698.4137217998505,-31.525230407714844,29.96910285949707,11.7933349609375,0.0,-32.23729705810547,-32.52284240722656,-0.19594411551952362
100,/Users/cjpark/Desktop/ucla_courses/cs260r/assignment4/data/td3_agent_single_v9/td3,158,-129.40729861259462,272543,113,1722.0284957885742,-35.27341079711914,33.62646484375,11.618694305419922,0.0,-35.67135238647461,-35.530582427978516,-0.19513270258903503
101,/Users/cjpark/Desktop/ucla_courses/cs260r/assignment4/data/td3_agent_single_v9/td3,157,-129.36582165241242,275543,114,1744.6804337501526,-33.86943817138672,30.396987915039062,20.26170539855957,0.0,-33.03167724609375,-33.42447280883789,-0.7811915278434753
102,/Users/cjpark/Desktop/ucla_courses/cs260r/assignment4/data/td3_agent_single_v9/td3,157,-129.31477638721466,278806,116,1772.2950537204742,-19.339740753173828,,13.67455768585205,0.0,-18.77979850769043,-18.702959060668945,-0.5864095687866211
103,/Users/cjpark/Desktop/ucla_courses/cs260r/assignment4/data/td3_agent_single_v9/td3,156,-129.31077721118928,281806,117,1797.0531198978424,-20.51911163330078,,38.30036926269531,0.0,-20.473451614379883,-20.961750030517578,-0.004852673038840294
104,/Users/cjpark/Desktop/ucla_courses/cs260r/assignment4/data/td3_agent_single_v9/td3,156,-129.33457070350647,284806,118,1822.755646944046,-34.72490310668945,,33.53901672363281,0.0,-34.41652297973633,-34.908287048339844,-0.5868117213249207
105,/Users/cjpark/Desktop/ucla_courses/cs260r/assignment4/data/td3_agent_single_v9/td3,155,-129.37602435588838,287806,119,1845.5477240085602,-24.4202938079834,,127.90631866455078,0.0,-25.10115623474121,-24.99982261657715,-0.5855011940002441
106,/Users/cjpark/Desktop/ucla_courses/cs260r/assignment4/data/td3_agent_single_v9/td3,155,-129.35854004383089,290806,120,1868.4333288669586,-25.868898391723633,,28.29937744140625,0.0,-27.00001335144043,-26.56216049194336,-0.5862165093421936
107,/Users/cjpark/Desktop/ucla_courses/cs260r/assignment4/data/td3_agent_single_v9/td3,155,-129.34582028865813,291755,121,1876.462682723999,-18.33316421508789,16.39335060119629,32.68893814086914,0.0,-18.174116134643555,-18.30364990234375,-0.39077872037887573
108,/Users/cjpark/Desktop/ucla_courses/cs260r/assignment4/data/td3_agent_single_v9/td3,155,-129.3241048192978,294755,122,1899.1485109329224,-25.200763702392578,23.646326065063477,21.013916015625,0.0,-26.229860305786133,-25.81014060974121,-0.0006910274969413877
109,/Users/cjpark/Desktop/ucla_courses/cs260r/assignment4/data/td3_agent_single_v9/td3,154,-129.30423876285553,297755,123,1923.0917568206787,-18.500791549682617,17.21860694885254,7.034420490264893,0.0,-18.671092987060547,-18.512203216552734,-0.1963394731283188
110,/Users/cjpark/Desktop/ucla_courses/cs260r/assignment4/data/td3_agent_single_v9/td3,154,-129.30804632663728,300755,124,1946.9453806877136,-27.61200523376465,25.723127365112305,44.647727966308594,0.0,-27.88603973388672,-28.083019256591797,-0.39099109172821045
111,/Users/cjpark/Desktop/ucla_courses/cs260r/assignment4/data/td3_agent_single_v9/td3,154,-129.36163968086242,303755,125,1969.7416486740112,-24.250337600708008,21.956178665161133,11.256339073181152,0.0,-24.013425827026367,-23.971567153930664,-0.1950632631778717
112,/Users/cjpark/Desktop/ucla_courses/cs260r/assignment4/data/td3_agent_single_v9/td3,153,-129.37948078155517,306755,126,1993.0354678630829,-22.86896324157715,21.51299285888672,14.913835525512695,0.0,-22.913740158081055,-22.756885528564453,-0.39138063788414
113,/Users/cjpark/Desktop/ucla_courses/cs260r/assignment4/data/td3_agent_single_v9/td3,153,-129.39225407600404,309755,127,2017.9397728443146,-17.73648452758789,16.068666458129883,50.133338928222656,0.0,-17.575576782226562,-17.48215675354004,-0.3907717764377594
114,/Users/cjpark/Desktop/ucla_courses/cs260r/assignment4/data/td3_agent_single_v9/td3,153,-129.40372470855712,312755,128,2041.3870208263397,-25.86435890197754,24.199331283569336,21.651287078857422,0.0,-26.016300201416016,-25.63538932800293,-0.39157429337501526
115,/Users/cjpark/Desktop/ucla_courses/cs260r/assignment4/data/td3_agent_single_v9/td3,152,-129.38284380912782,315755,129,2064.3428778648376,-16.866825103759766,16.28059196472168,16.093896865844727,0.0,-16.895179748535156,-17.13913345336914,-0.19511976838111877
116,/Users/cjpark/Desktop/ucla_courses/cs260r/assignment4/data/td3_agent_single_v9/td3,152,-155.91573570728303,318755,130,2087.934430837631,-25.126310348510742,24.25002098083496,56.57673645019531,0.0,-24.82649040222168,-24.76388168334961,-0.000991452718153596
117,/Users/cjpark/Desktop/ucla_courses/cs260r/assignment4/data/td3_agent_single_v9/td3,152,-155.87699247837065,321755,131,2111.4401049613953,-15.279045104980469,13.466368675231934,7.264882564544678,0.0,-15.00022029876709,-14.965423583984375,-0.19610287249088287
118,/Users/cjpark/Desktop/ucla_courses/cs260r/assignment4/data/td3_agent_single_v9/td3,151,-155.84856910228729,323091,132,2127.2911977767944,-21.260211944580078,19.30875015258789,11.914072036743164,0.0,-20.866409301757812,-21.04928970336914,-0.39510905742645264
119,/Users/cjpark/Desktop/ucla_courses/cs260r/assignment4/data/td3_agent_single_v9/td3,150,-155.88085077762605,326091,133,2160.5512969493866,-26.198766708374023,24.72345542907715,110.08499145507812,0.0,-25.10578155517578,-25.135953903198242,-0.7815107703208923
120,/Users/cjpark/Desktop/ucla_courses/cs260r/assignment4/data/td3_agent_single_v9/td3,150,-155.82081993579865,328145,134,2181.4015579223633,-25.17734146118164,23.5688419342041,15.918205261230469,0.0,-25.989370346069336,-25.620988845825195,-0.1957741528749466
121,/Users/cjpark/Desktop/ucla_courses/cs260r/assignment4/data/td3_agent_single_v9/td3,150,-155.79390576839447,329352,135,2194.751343727112,-26.074499130249023,,52.42246627807617,0.0,-25.641780853271484,-25.453327178955078,-0.5858778953552246
122,/Users/cjpark/Desktop/ucla_courses/cs260r/assignment4/data/td3_agent_single_v9/td3,149,-155.7128205347061,332037,137,2224.1571328639984,-19.104991912841797,17.65664291381836,19.943544387817383,0.0,-19.81945037841797,-19.88262367248535,-0.5862788558006287
123,/Users/cjpark/Desktop/ucla_courses/cs260r/assignment4/data/td3_agent_single_v9/td3,148,-155.63345638751983,335037,138,2256.949789762497,-21.30771255493164,19.651966094970703,16.133769989013672,0.0,-21.146419525146484,-21.029563903808594,-0.19620585441589355
124,/Users/cjpark/Desktop/ucla_courses/cs260r/assignment4/data/td3_agent_single_v9/td3,147,-155.53172875404357,338037,139,2291.468037843704,-22.860624313354492,20.540502548217773,17.487266540527344,0.0,-22.132404327392578,-21.93445587158203,-0.7816724181175232
125,/Users/cjpark/Desktop/ucla_courses/cs260r/assignment4/data/td3_agent_single_v9/td3,146,-155.5217709827423,341037,140,2324.3630588054657,-19.863611221313477,18.194223403930664,23.000411987304688,0.0,-19.570667266845703,-19.58085823059082,-0.19615790247917175
126,/Users/cjpark/Desktop/ucla_courses/cs260r/assignment4/data/td3_agent_single_v9/td3,145,-28.03695101737976,344037,141,2357.4655170440674,-23.793546676635742,22.390413284301758,38.20182800292969,0.0,-24.259143829345703,-24.4129638671875,-0.19590675830841064
127,/Users/cjpark/Desktop/ucla_courses/cs260r/assignment4/data/td3_agent_single_v9/td3,145,-28.035353231430054,347037,142,2390.234009742737,-20.493206024169922,19.333641052246094,11.766328811645508,0.0,-20.40431785583496,-20.16509246826172,-0.1957753449678421
128,/Users/cjpark/Desktop/ucla_courses/cs260r/assignment4/data/td3_agent_single_v9/td3,144,-28.0762846660614,349963,143,2428.358725786209,-13.626169204711914,11.037454605102539,131.23458862304688,0.0,-12.96290397644043,-13.102779388427734,-0.3907809257507324
129,/Users/cjpark/Desktop/ucla_courses/cs260r/assignment4/data/td3_agent_single_v9/td3,143,-28.117977867126466,352963,144,2464.468452692032,-18.507022857666016,16.885812759399414,37.940574645996094,0.0,-18.329221725463867,-17.931163787841797,-0.39143797755241394
130,/Users/cjpark/Desktop/ucla_courses/cs260r/assignment4/data/td3_agent_single_v9/td3,142,-28.157342748641966,355963,145,2499.8828468322754,-25.20867919921875,23.993589401245117,36.60191345214844,0.0,-24.648509979248047,-24.545089721679688,-0.586309552192688
131,/Users/cjpark/Desktop/ucla_courses/cs260r/assignment4/data/td3_agent_single_v9/td3,141,-28.18586806297302,358963,146,2534.1025247573853,-14.205157279968262,12.990057945251465,30.620922088623047,0.0,-14.77730655670166,-14.793537139892578,-0.3910626769065857
132,/Users/cjpark/Desktop/ucla_courses/cs260r/assignment4/data/td3_agent_single_v9/td3,141,-28.21951982498169,361130,147,2556.026198863983,-19.46886444091797,,7.673717975616455,0.0,-19.4566593170166,-19.369651794433594,-0.3914775848388672
133,/Users/cjpark/Desktop/ucla_courses/cs260r/assignment4/data/td3_agent_single_v9/td3,140,-28.26968381404877,364130,148,2586.212341785431,-15.27022647857666,,6.194087982177734,0.0,-15.7252779006958,-15.46107292175293,-0.19632843136787415
134,/Users/cjpark/Desktop/ucla_courses/cs260r/assignment4/data/td3_agent_single_v9/td3,140,-28.31320414543152,367130,149,2616.0954580307007,-23.712902069091797,,103.03057861328125,0.0,-23.2818660736084,-23.33957290649414,-0.0004770022351294756
135,/Users/cjpark/Desktop/ucla_courses/cs260r/assignment4/data/td3_agent_single_v9/td3,139,-28.31463086128235,370130,150,2646.9833216667175,-22.343721389770508,,27.33510971069336,0.0,-22.408849716186523,-22.323596954345703,-0.39114266633987427
136,/Users/cjpark/Desktop/ucla_courses/cs260r/assignment4/data/td3_agent_single_v9/td3,139,-28.308810653686525,371229,151,2659.1231338977814,-14.425806999206543,12.81694507598877,5.619907379150391,0.0,-14.207490921020508,-14.199798583984375,-0.0008333614096045494
137,/Users/cjpark/Desktop/ucla_courses/cs260r/assignment4/data/td3_agent_single_v9/td3,139,-28.282177171707154,372140,152,2669.259575843811,-17.716394424438477,,18.71626853942871,0.0,-17.883888244628906,-18.077774047851562,-0.19606593251228333
138,/Users/cjpark/Desktop/ucla_courses/cs260r/assignment4/data/td3_agent_single_v9/td3,138,-416.6516230106354,375140,153,2701.144302845001,-18.720659255981445,,34.16001892089844,0.0,-17.797710418701172,-17.881885528564453,-0.3900648355484009
139,/Users/cjpark/Desktop/ucla_courses/cs260r/assignment4/data/td3_agent_single_v9/td3,138,-417.1703010082245,378140,154,2733.540764808655,-29.903583526611328,,33.82837677001953,0.0,-29.53134536743164,-29.196754455566406,-0.7820044755935669
140,/Users/cjpark/Desktop/ucla_courses/cs260r/assignment4/data/td3_agent_single_v9/td3,138,-417.1933325099945,379770,155,2751.0010838508606,-23.397663116455078,,57.26567840576172,0.0,-23.597990036010742,-23.371068954467773,-0.586373507976532
141,/Users/cjpark/Desktop/ucla_courses/cs260r/assignment4/data/td3_agent_single_v9/td3,137,-417.19246509552,382770,156,2783.9810757637024,-17.455400466918945,,13.296442031860352,0.0,-18.503873825073242,-18.459688186645508,-0.19640371203422546
142,/Users/cjpark/Desktop/ucla_courses/cs260r/assignment4/data/td3_agent_single_v9/td3,137,-417.1863017272949,385770,157,2815.22621178627,-13.068730354309082,,56.82488250732422,0.0,-13.129986763000488,-13.55060863494873,-0.19581951200962067
143,/Users/cjpark/Desktop/ucla_courses/cs260r/assignment4/data/td3_agent_single_v9/td3,136,-417.19606073379515,388770,158,2847.6292657852173,-24.923982620239258,,11.743349075317383,0.0,-24.924427032470703,-24.504974365234375,-0.39159733057022095
144,/Users/cjpark/Desktop/ucla_courses/cs260r/assignment4/data/td3_agent_single_v9/td3,136,-417.19594153404233,391770,159,2880.225413799286,-23.055578231811523,,11.458852767944336,0.0,-22.90302848815918,-23.326000213623047,-0.3909614384174347
145,/Users/cjpark/Desktop/ucla_courses/cs260r/assignment4/data/td3_agent_single_v9/td3,135,-417.18663039207456,394511,160,2910.3483996391296,-7.273332118988037,5.102426528930664,44.889156341552734,0.0,-6.135125160217285,-5.839527130126953,-0.5865045785903931
146,/Users/cjpark/Desktop/ucla_courses/cs260r/assignment4/data/td3_agent_single_v9/td3,135,-417.14890100479124,397511,161,2943.4583139419556,-24.20794105529785,21.525169372558594,44.87438201904297,0.0,-23.97217559814453,-24.17217445373535,-0.5864989757537842
147,/Users/cjpark/Desktop/ucla_courses/cs260r/assignment4/data/td3_agent_single_v9/td3,134,-417.14493622779844,398236,162,2952.018823862076,-16.014225006103516,,38.049156188964844,0.0,-15.30342960357666,-15.130017280578613,-0.782102108001709
148,/Users/cjpark/Desktop/ucla_courses/cs260r/assignment4/data/td3_agent_single_v9/td3,134,-417.10242761611937,401236,163,2984.9198157787323,-13.367806434631348,,588.9427490234375,0.0,-13.885428428649902,-14.239357948303223,-0.5866016745567322
149,/Users/cjpark/Desktop/ucla_courses/cs260r/assignment4/data/td3_agent_single_v9/td3,134,-417.10115396499634,402016,164,2993.2622377872467,-8.382369995117188,,11.240493774414062,0.0,-8.620243072509766,-9.290797233581543,-0.19643351435661316
150,/Users/cjpark/Desktop/ucla_courses/cs260r/assignment4/data/td3_agent_single_v9/td3,133,-417.0327708530426,405499,166,3031.499686717987,-15.224143981933594,12.761002540588379,36.01640701293945,0.0,-14.484652519226074,-14.88746452331543,-0.5856168270111084
151,/Users/cjpark/Desktop/ucla_courses/cs260r/assignment4/data/td3_agent_single_v9/td3,133,-416.94637667655945,408499,167,3064.045485019684,-17.84720230102539,16.796337127685547,30.370929718017578,0.0,-17.431625366210938,-17.242549896240234,-0.39101213216781616
152,/Users/cjpark/Desktop/ucla_courses/cs260r/assignment4/data/td3_agent_single_v9/td3,133,-416.94062982559205,409654,168,3077.5794327259064,-25.368377685546875,,51.649593353271484,0.0,-26.36935043334961,-26.427143096923828,-0.3912617862224579
153,/Users/cjpark/Desktop/ucla_courses/cs260r/assignment4/data/td3_agent_single_v9/td3,132,-416.91126514434814,411921,169,3102.1651108264923,-4.151080131530762,3.489154100418091,26.48629379272461,0.0,-4.03605842590332,-3.815537929534912,-0.3916817903518677
154,/Users/cjpark/Desktop/ucla_courses/cs260r/assignment4/data/td3_agent_single_v9/td3,132,-416.8256702232361,414921,170,3133.9430508613586,-8.032066345214844,6.000012397766113,32.77585220336914,0.0,-7.372045516967773,-7.098623752593994,0.0021034011151641607
155,/Users/cjpark/Desktop/ucla_courses/cs260r/assignment4/data/td3_agent_single_v9/td3,132,-416.81677159309385,415392,171,3138.8774189949036,-15.062911987304688,,64.08489227294922,0.0,-14.83118724822998,-14.73963737487793,-0.38910216093063354
156,/Users/cjpark/Desktop/ucla_courses/cs260r/assignment4/data/td3_agent_single_v9/td3,131,-416.81013922691346,418358,172,3170.347821712494,-8.386663436889648,,9.779804229736328,0.0,-8.11709976196289,-8.501848220825195,-0.39182621240615845
157,/Users/cjpark/Desktop/ucla_courses/cs260r/assignment4/data/td3_agent_single_v9/td3,131,-416.79312602043154,421358,173,3200.8929097652435,-24.2342529296875,,32.44615173339844,0.0,-24.461328506469727,-24.72273826599121,-0.19568802416324615
158,/Users/cjpark/Desktop/ucla_courses/cs260r/assignment4/data/td3_agent_single_v9/td3,131,-416.77051171302793,424894,175,3237.735737800598,-20.702924728393555,,24.028987884521484,0.0,-22.205291748046875,-22.11376190185547,-0.19588902592658997
159,/Users/cjpark/Desktop/ucla_courses/cs260r/assignment4/data/td3_agent_single_v9/td3,130,-416.7353151893616,427894,176,3269.303256034851,-11.296625137329102,,22.029285430908203,0.0,-12.202775955200195,-12.855191230773926,-0.0009293463081121445
160,/Users/cjpark/Desktop/ucla_courses/cs260r/assignment4/data/td3_agent_single_v9/td3,130,-416.6952586078644,430894,177,3301.454968690872,-19.972244262695312,,52.16551971435547,0.0,-19.460479736328125,-19.06536293029785,-0.5856642127037048
161,/Users/cjpark/Desktop/ucla_courses/cs260r/assignment4/data/td3_agent_single_v9/td3,130,-416.6279831886292,433894,178,3333.1742849349976,-7.0176544189453125,,22.365673065185547,0.0,-6.008577346801758,-6.401741981506348,-0.7819148302078247
162,/Users/cjpark/Desktop/ucla_courses/cs260r/assignment4/data/td3_agent_single_v9/td3,129,-416.5636522912979,436894,179,3364.433755874634,-18.01534080505371,,13.385152816772461,0.0,-18.16352653503418,-18.4256591796875,-0.39094507694244385
163,/Users/cjpark/Desktop/ucla_courses/cs260r/assignment4/data/td3_agent_single_v9/td3,129,-416.42344302654266,439894,180,3396.6602878570557,-15.274709701538086,,31.291797637939453,0.0,-15.491021156311035,-15.784899711608887,-0.1961674988269806
164,/Users/cjpark/Desktop/ucla_courses/cs260r/assignment4/data/td3_agent_single_v9/td3,129,-416.44317708015444,442894,181,3428.4108006954193,-12.356603622436523,,33.92054748535156,0.0,-12.385403633117676,-12.223352432250977,-0.19526761770248413
165,/Users/cjpark/Desktop/ucla_courses/cs260r/assignment4/data/td3_agent_single_v9/td3,129,-416.35104516029355,443091,182,3430.622888803482,-14.248506546020508,12.473980903625488,25.824504852294922,0.0,-14.658536911010742,-15.09164047241211,-4.760175943374634e-05
166,/Users/cjpark/Desktop/ucla_courses/cs260r/assignment4/data/td3_agent_single_v9/td3,128,-416.28727294921873,446091,183,3462.8544776439667,-12.91824722290039,10.047273635864258,16.400287628173828,0.0,-12.459933280944824,-12.72635555267334,-0.5861859321594238
167,/Users/cjpark/Desktop/ucla_courses/cs260r/assignment4/data/td3_agent_single_v9/td3,128,-416.18084935188296,449091,184,3496.6102328300476,-10.557014465332031,8.345503807067871,17.314741134643555,0.0,-9.874683380126953,-10.435711860656738,-0.0011346691753715277
168,/Users/cjpark/Desktop/ucla_courses/cs260r/assignment4/data/td3_agent_single_v9/td3,128,-416.0841152572632,452091,185,3530.0653879642487,-5.690419673919678,4.868199825286865,14.145219802856445,0.0,-5.314685821533203,-4.822598934173584,0.00017137546092271805
169,/Users/cjpark/Desktop/ucla_courses/cs260r/assignment4/data/td3_agent_single_v9/td3,127,-415.97933888435364,455091,186,3562.1427466869354,-11.134870529174805,8.42943000793457,41.433624267578125,0.0,-10.042036056518555,-10.276897430419922,-0.1961376667022705
170,/Users/cjpark/Desktop/ucla_courses/cs260r/assignment4/data/td3_agent_single_v9/td3,127,-415.89428105354307,458091,187,3594.7197046279907,-24.605188369750977,23.367475509643555,41.19903564453125,0.0,-24.85236358642578,-24.21647834777832,-0.9771503210067749
171,/Users/cjpark/Desktop/ucla_courses/cs260r/assignment4/data/td3_agent_single_v9/td3,127,-415.816796875,461091,188,3628.2651817798615,-8.942340850830078,6.264099597930908,147.13983154296875,0.0,-8.068568229675293,-8.328166961669922,-0.3949616253376007
172,/Users/cjpark/Desktop/ucla_courses/cs260r/assignment4/data/td3_agent_single_v9/td3,126,-415.7253818511963,464091,189,3661.0506377220154,-24.943031311035156,23.122060775756836,27.265460968017578,0.0,-25.114643096923828,-25.186975479125977,-0.5868121385574341
173,/Users/cjpark/Desktop/ucla_courses/cs260r/assignment4/data/td3_agent_single_v9/td3,126,-415.67218527793887,467091,190,3694.5796768665314,-8.944124221801758,6.6737589836120605,12.334635734558105,0.0,-7.954504013061523,-7.776661396026611,-0.0007829214446246624
174,/Users/cjpark/Desktop/ucla_courses/cs260r/assignment4/data/td3_agent_single_v9/td3,126,-415.60698526382447,470091,191,3728.3202588558197,-17.213274002075195,16.023948669433594,20.08209991455078,0.0,-18.098613739013672,-18.06537437438965,-0.0003929025260731578
175,/Users/cjpark/Desktop/ucla_courses/cs260r/assignment4/data/td3_agent_single_v9/td3,125,-415.5144274997711,473091,192,3760.583906650543,-13.062057495117188,12.02175521850586,12.306377410888672,0.0,-13.450990676879883,-13.500008583068848,-0.19489967823028564
176,/Users/cjpark/Desktop/ucla_courses/cs260r/assignment4/data/td3_agent_single_v9/td3,125,-415.41941078186034,476091,193,3794.5721747875214,-19.167505264282227,17.48271369934082,14.760761260986328,0.0,-18.91748809814453,-19.155677795410156,-0.0006116703152656555
177,/Users/cjpark/Desktop/ucla_courses/cs260r/assignment4/data/td3_agent_single_v9/td3,125,-415.2922300434113,479091,194,3827.60706782341,-8.040433883666992,7.487522125244141,25.949308395385742,0.0,-10.517459869384766,-10.464365005493164,-0.1951146125793457
178,/Users/cjpark/Desktop/ucla_courses/cs260r/assignment4/data/td3_agent_single_v9/td3,124,-415.2351642227173,482091,195,3860.3922867774963,-14.791173934936523,13.171745300292969,16.562570571899414,0.0,-14.778424263000488,-15.144835472106934,-0.19610071182250977
179,/Users/cjpark/Desktop/ucla_courses/cs260r/assignment4/data/td3_agent_single_v9/td3,124,-415.1432442855835,485091,196,3892.3055369853973,-26.79168701171875,24.34392547607422,145.57720947265625,0.0,-25.836692810058594,-26.08128547668457,-0.5892225503921509
180,/Users/cjpark/Desktop/ucla_courses/cs260r/assignment4/data/td3_agent_single_v9/td3,124,-415.07097989082337,488091,197,3924.3297736644745,-20.152488708496094,18.091190338134766,102.75254821777344,0.0,-19.768138885498047,-20.13916015625,-0.5866004824638367
181,/Users/cjpark/Desktop/ucla_courses/cs260r/assignment4/data/td3_agent_single_v9/td3,124,-415.0617989349365,491091,198,3956.13405585289,-11.927553176879883,10.058160781860352,10.769771575927734,0.0,-11.827441215515137,-11.786957740783691,-0.19542862474918365
182,/Users/cjpark/Desktop/ucla_courses/cs260r/assignment4/data/td3_agent_single_v9/td3,123,-414.9779817867279,494091,199,3988.9092967510223,-16.09367561340332,14.355600357055664,48.29351806640625,0.0,-16.316730499267578,-15.742878913879395,-0.38944000005722046
183,/Users/cjpark/Desktop/ucla_courses/cs260r/assignment4/data/td3_agent_single_v9/td3,123,-414.8811577224731,497091,200,4021.563183784485,-27.061311721801758,24.67669677734375,23.058063507080078,0.0,-26.26350975036621,-26.03736114501953,-0.5861263275146484
