cjunkin/reinforcement-learning/metaracer/data/td3_agent_single_v10/td3/progress.csv
,log_dir,frame_per_second,episode_reward,total_steps,total_episodes,total_time,target_q,actor_loss,critic_loss,success_rate,current_q1,current_q2,reward
0,/Users/cjpark/Desktop/ucla_courses/cs260r/assignment4/data/td3_agent_single_v10/td3,1275,165.02960937800006,2999,1,2.351811170578003,,,,0.0,,,
1,/Users/cjpark/Desktop/ucla_courses/cs260r/assignment4/data/td3_agent_single_v10/td3,1286,-1344.5966247995095,5999,2,4.66400408744812,,,,0.0,,,
2,/Users/cjpark/Desktop/ucla_courses/cs260r/assignment4/data/td3_agent_single_v10/td3,1301,-1642.777992724704,8999,3,6.914554119110107,,,,0.0,,,
3,/Users/cjpark/Desktop/ucla_courses/cs260r/assignment4/data/td3_agent_single_v10/td3,575,-10779.914412919876,11960,4,20.765489101409912,-6.638924598693848,,164.66708374023438,0.0,-6.246068477630615,-6.229361534118652,-3.2678561210632324
4,/Users/cjpark/Desktop/ucla_courses/cs260r/assignment4/data/td3_agent_single_v10/td3,527,-12511.581117944594,12368,5,23.436525106430054,-11.405466079711914,,105.04713439941406,0.0,-10.53127670288086,-10.577434539794922,-4.447118759155273
5,/Users/cjpark/Desktop/ucla_courses/cs260r/assignment4/data/td3_agent_single_v10/td3,355,-13300.738207866149,15368,6,43.19097328186035,-27.706403732299805,,234.62570190429688,0.0,-27.307605743408203,-27.215700149536133,-5.615156173706055
6,/Users/cjpark/Desktop/ucla_courses/cs260r/assignment4/data/td3_agent_single_v10/td3,290,-11385.984007207668,18368,7,63.212778091430664,-36.45197296142578,,176.83477783203125,0.0,-35.987632751464844,-35.99515914916992,-5.425631046295166
7,/Users/cjpark/Desktop/ucla_courses/cs260r/assignment4/data/td3_agent_single_v10/td3,257,-9949.758079583353,21368,8,83.06501722335815,-39.90913772583008,,98.67244720458984,0.0,-40.82665252685547,-40.670738220214844,-3.8571438789367676
8,/Users/cjpark/Desktop/ucla_courses/cs260r/assignment4/data/td3_agent_single_v10/td3,235,-10600.443366358784,24368,9,103.2599790096283,-37.39903259277344,,126.11256408691406,0.0,-37.03693389892578,-37.29051208496094,-3.0833475589752197
9,/Users/cjpark/Desktop/ucla_courses/cs260r/assignment4/data/td3_agent_single_v10/td3,225,-9532.63818821267,26761,10,118.57555818557739,-43.68132400512695,37.59760284423828,129.26368713378906,0.0,-41.9959602355957,-42.00405502319336,-3.2827301025390625
10,/Users/cjpark/Desktop/ucla_courses/cs260r/assignment4/data/td3_agent_single_v10/td3,221,-8676.435498528233,27916,11,126.26933813095093,-78.2576904296875,,161.88961791992188,0.0,-76.37541198730469,-76.50880432128906,-4.82735538482666
11,/Users/cjpark/Desktop/ucla_courses/cs260r/assignment4/data/td3_agent_single_v10/td3,216,-7950.254706381769,29224,12,134.74844598770142,-63.07220458984375,,185.7425537109375,0.0,-62.681121826171875,-62.52581787109375,-4.650942802429199
12,/Users/cjpark/Desktop/ucla_courses/cs260r/assignment4/data/td3_agent_single_v10/td3,213,-6357.6090282519845,30062,15,140.86462116241455,-42.808074951171875,,244.28695678710938,0.0,-44.54845428466797,-44.44244384765625,-1.908648133277893
13,/Users/cjpark/Desktop/ucla_courses/cs260r/assignment4/data/td3_agent_single_v10/td3,208,-5605.3465801567945,31788,17,152.36698603630066,-39.2855339050293,,183.67010498046875,0.0,-41.10423278808594,-40.9300651550293,-1.9140844345092773
14,/Users/cjpark/Desktop/ucla_courses/cs260r/assignment4/data/td3_agent_single_v10/td3,207,-5292.409459818738,32293,18,155.63395929336548,-42.788414001464844,39.94034957885742,144.55819702148438,0.0,-44.29938507080078,-44.409523010253906,-2.6854677200317383
15,/Users/cjpark/Desktop/ucla_courses/cs260r/assignment4/data/td3_agent_single_v10/td3,204,-4534.30063507307,33355,21,162.98289322853088,-60.903053283691406,56.821502685546875,188.98562622070312,0.0,-62.61358642578125,-62.490806579589844,-2.6612930297851562
16,/Users/cjpark/Desktop/ucla_courses/cs260r/assignment4/data/td3_agent_single_v10/td3,202,-4327.583424312001,34190,22,168.5189492702484,-53.37680435180664,,135.05990600585938,0.0,-52.91558837890625,-53.2816276550293,-2.301912784576416
17,/Users/cjpark/Desktop/ucla_courses/cs260r/assignment4/data/td3_agent_single_v10/td3,196,-3964.9171017695357,37494,24,190.40725016593933,-43.33747863769531,,177.28179931640625,0.0,-42.54978942871094,-42.23381042480469,-3.866077423095703
18,/Users/cjpark/Desktop/ucla_courses/cs260r/assignment4/data/td3_agent_single_v10/td3,195,-3805.965004457935,38029,25,194.11770391464233,-44.06660842895508,38.811126708984375,110.02517700195312,0.0,-42.83299255371094,-43.1883544921875,-2.88571834564209
19,/Users/cjpark/Desktop/ucla_courses/cs260r/assignment4/data/td3_agent_single_v10/td3,194,-3658.980962953164,39043,26,200.5621099472046,-43.90473937988281,38.213584899902344,147.1663055419922,0.0,-43.79414749145508,-44.03664016723633,-3.0799400806427
20,/Users/cjpark/Desktop/ucla_courses/cs260r/assignment4/data/td3_agent_single_v10/td3,192,-3279.280290953827,40428,29,209.88282799720764,-47.748924255371094,,109.52693176269531,0.0,-48.130828857421875,-48.08462142944336,-2.5056517124176025
21,/Users/cjpark/Desktop/ucla_courses/cs260r/assignment4/data/td3_agent_single_v10/td3,191,-3067.091215548356,41282,31,215.98462629318237,-36.995662689208984,,127.2564926147461,0.0,-36.701629638671875,-36.103050231933594,-2.312805414199829
22,/Users/cjpark/Desktop/ucla_courses/cs260r/assignment4/data/td3_agent_single_v10/td3,190,-2880.5623199694005,42110,33,221.5677671432495,-44.58000946044922,,79.05610656738281,0.0,-43.46845245361328,-43.269779205322266,-3.4810256958007812
23,/Users/cjpark/Desktop/ucla_courses/cs260r/assignment4/data/td3_agent_single_v10/td3,188,-2715.375380736555,43235,35,229.09213709831238,-24.82967758178711,21.86587905883789,96.85059356689453,0.0,-27.092660903930664,-26.882305145263672,-1.1318238973617554
24,/Users/cjpark/Desktop/ucla_courses/cs260r/assignment4/data/td3_agent_single_v10/td3,187,-2500.590801099122,44442,38,237.46117520332336,-25.753921508789062,,73.37835693359375,0.0,-26.978557586669922,-26.95471954345703,-1.9203836917877197
25,/Users/cjpark/Desktop/ucla_courses/cs260r/assignment4/data/td3_agent_single_v10/td3,184,-2434.753480869164,47442,39,256.9514651298523,-25.280675888061523,,50.578369140625,0.0,-26.650951385498047,-26.418434143066406,-0.7503021359443665
26,/Users/cjpark/Desktop/ucla_courses/cs260r/assignment4/data/td3_agent_single_v10/td3,182,-2372.2296027252323,50442,40,276.1204442977905,-17.37154197692871,,45.391571044921875,0.0,-16.850858688354492,-17.29112434387207,-1.7256945371627808
27,/Users/cjpark/Desktop/ucla_courses/cs260r/assignment4/data/td3_agent_single_v10/td3,180,-2312.212800603243,53442,41,295.58457112312317,-23.624608993530273,,82.66686248779297,0.0,-21.33551788330078,-21.469165802001953,-2.704179048538208
28,/Users/cjpark/Desktop/ucla_courses/cs260r/assignment4/data/td3_agent_single_v10/td3,178,-2254.4953351012,56442,42,315.6362750530243,-18.846534729003906,,42.006690979003906,0.0,-17.85751724243164,-18.079092025756836,-1.5265870094299316
29,/Users/cjpark/Desktop/ucla_courses/cs260r/assignment4/data/td3_agent_single_v10/td3,176,-2199.4597489818634,59442,43,336.321093082428,-15.687577247619629,,64.3270263671875,0.0,-14.866273880004883,-14.587596893310547,-1.7230526208877563
30,/Users/cjpark/Desktop/ucla_courses/cs260r/assignment4/data/td3_agent_single_v10/td3,174,-2146.923894658011,62442,44,357.0557932853699,-20.71291160583496,,82.39725494384766,0.0,-21.217266082763672,-21.014144897460938,-0.5524235367774963
31,/Users/cjpark/Desktop/ucla_courses/cs260r/assignment4/data/td3_agent_single_v10/td3,173,-2096.7149370991724,65442,45,377.62363600730896,-26.361583709716797,,42.257720947265625,0.0,-25.42620086669922,-25.242477416992188,-1.3315098285675049
32,/Users/cjpark/Desktop/ucla_courses/cs260r/assignment4/data/td3_agent_single_v10/td3,170,-2048.690809512432,68442,46,401.8915431499481,-21.723886489868164,,21.72870635986328,0.0,-21.965686798095703,-22.06855583190918,-1.5255701541900635
33,/Users/cjpark/Desktop/ucla_courses/cs260r/assignment4/data/td3_agent_single_v10/td3,168,-2002.7888182089491,71442,47,423.17048597335815,-30.27105712890625,,22.283491134643555,0.0,-30.020305633544922,-30.1785888671875,-1.33462655544281
34,/Users/cjpark/Desktop/ucla_courses/cs260r/assignment4/data/td3_agent_single_v10/td3,167,-1958.8190305538137,74442,48,444.6660211086273,-18.833221435546875,,120.29437255859375,0.0,-18.60097312927246,-18.421178817749023,-0.9380366802215576
35,/Users/cjpark/Desktop/ucla_courses/cs260r/assignment4/data/td3_agent_single_v10/td3,166,-1916.5467215720626,77442,49,464.4436092376709,-39.922481536865234,,62.61276626586914,0.0,-38.618167877197266,-39.39134979248047,-1.5262162685394287
36,/Users/cjpark/Desktop/ucla_courses/cs260r/assignment4/data/td3_agent_single_v10/td3,166,-1876.519965388813,80442,50,484.21029925346375,-27.527915954589844,,26.350170135498047,0.0,-27.889549255371094,-27.58455467224121,-0.9433863162994385
37,/Users/cjpark/Desktop/ucla_courses/cs260r/assignment4/data/td3_agent_single_v10/td3,165,-1838.3547737186166,83442,51,503.5961000919342,-18.36420249938965,,67.76209259033203,0.0,-18.233684539794922,-18.424148559570312,-0.9422557353973389
38,/Users/cjpark/Desktop/ucla_courses/cs260r/assignment4/data/td3_agent_single_v10/td3,165,-1802.0534186522452,85627,52,517.9526829719543,-34.07404327392578,30.966419219970703,56.85304260253906,0.0,-34.51858901977539,-34.19975280761719,-1.138451337814331
39,/Users/cjpark/Desktop/ucla_courses/cs260r/assignment4/data/td3_agent_single_v10/td3,164,-1766.4608777000365,88627,53,539.0161290168762,-24.47551155090332,20.58663558959961,44.11254119873047,0.0,-23.26592445373535,-23.773996353149414,-0.35412678122520447
40,/Users/cjpark/Desktop/ucla_courses/cs260r/assignment4/data/td3_agent_single_v10/td3,163,-1732.2663857856267,91627,54,559.789350271225,-38.11032485961914,36.165592193603516,35.14180374145508,0.0,-40.02680587768555,-39.195579528808594,-0.9438146948814392
41,/Users/cjpark/Desktop/ucla_courses/cs260r/assignment4/data/td3_agent_single_v10/td3,163,-1699.9076288555577,94226,55,577.0713641643524,-34.815364837646484,,34.83507537841797,0.0,-35.55876922607422,-35.0882453918457,-0.9471864700317383
42,/Users/cjpark/Desktop/ucla_courses/cs260r/assignment4/data/td3_agent_single_v10/td3,162,-1668.1577941683556,97226,56,597.3951861858368,-33.645179748535156,,31.766326904296875,0.0,-34.2916145324707,-34.24508285522461,-0.9395128488540649
43,/Users/cjpark/Desktop/ucla_courses/cs260r/assignment4/data/td3_agent_single_v10/td3,162,-1637.5270293911615,100226,57,617.827290058136,-38.875545501708984,,168.2490997314453,0.0,-38.89921569824219,-39.21491241455078,-0.9423102736473083
44,/Users/cjpark/Desktop/ucla_courses/cs260r/assignment4/data/td3_agent_single_v10/td3,161,-1608.196690446847,103226,58,637.7100160121918,-37.205989837646484,,16.99343490600586,0.0,-38.07406234741211,-37.90566635131836,-0.7505804300308228
45,/Users/cjpark/Desktop/ucla_courses/cs260r/assignment4/data/td3_agent_single_v10/td3,161,-1580.0486795117765,106226,59,657.8473870754242,-45.24607849121094,,89.16044616699219,0.0,-44.29621124267578,-44.731971740722656,-1.5340056419372559
46,/Users/cjpark/Desktop/ucla_courses/cs260r/assignment4/data/td3_agent_single_v10/td3,161,-1552.4659294717765,109226,60,677.5573360919952,-38.29839324951172,,38.35647201538086,0.0,-36.623138427734375,-36.66129684448242,-0.3615068793296814
47,/Users/cjpark/Desktop/ucla_courses/cs260r/assignment4/data/td3_agent_single_v10/td3,160,-1525.7554771371954,112226,61,698.3924570083618,-35.59219741821289,,66.7055892944336,0.0,-36.7195930480957,-36.73714828491211,-0.3565487563610077
48,/Users/cjpark/Desktop/ucla_courses/cs260r/assignment4/data/td3_agent_single_v10/td3,160,-1683.9691187734354,115226,62,718.236367225647,-41.52606201171875,,65.11222839355469,0.0,-41.21989440917969,-41.423858642578125,-1.1446595191955566
49,/Users/cjpark/Desktop/ucla_courses/cs260r/assignment4/data/td3_agent_single_v10/td3,159,-1655.6454912975933,118226,63,740.431910276413,-33.47675323486328,,44.61232376098633,0.0,-33.03884506225586,-32.86506271362305,-0.3602721095085144
50,/Users/cjpark/Desktop/ucla_courses/cs260r/assignment4/data/td3_agent_single_v10/td3,158,-1628.5135285197925,121226,64,763.8429281711578,-49.974517822265625,,85.19530487060547,0.0,-50.695884704589844,-50.10226821899414,-1.534408688545227
51,/Users/cjpark/Desktop/ucla_courses/cs260r/assignment4/data/td3_agent_single_v10/td3,157,-1602.4521373339835,124226,65,787.0346612930298,-43.8232421875,,107.77754211425781,0.0,-44.8019905090332,-45.50759506225586,-1.1362557411193848
52,/Users/cjpark/Desktop/ucla_courses/cs260r/assignment4/data/td3_agent_single_v10/td3,156,-1577.4230416999749,127226,66,810.5850460529327,-39.56844711303711,,47.649131774902344,0.0,-39.67463684082031,-40.17045211791992,-0.5620718598365784
53,/Users/cjpark/Desktop/ucla_courses/cs260r/assignment4/data/td3_agent_single_v10/td3,156,-1552.9897547123767,130226,67,833.3217470645905,-34.955326080322266,,29.267581939697266,0.0,-35.97791290283203,-35.69688415527344,-0.5509865880012512
54,/Users/cjpark/Desktop/ucla_courses/cs260r/assignment4/data/td3_agent_single_v10/td3,155,-1529.1196119810882,133226,68,856.0307161808014,-47.747955322265625,,103.52427673339844,0.0,-48.60813903808594,-48.937625885009766,-1.3325982093811035
55,/Users/cjpark/Desktop/ucla_courses/cs260r/assignment4/data/td3_agent_single_v10/td3,154,-1505.965074796775,136226,69,879.2086801528931,-42.252620697021484,,55.14057540893555,0.0,-42.1799201965332,-41.908905029296875,-0.947348952293396
56,/Users/cjpark/Desktop/ucla_courses/cs260r/assignment4/data/td3_agent_single_v10/td3,154,-1483.2267411498474,139226,70,902.0732321739197,-45.5440673828125,,71.36104583740234,0.0,-45.63246154785156,-45.513282775878906,-0.7511578798294067
57,/Users/cjpark/Desktop/ucla_courses/cs260r/assignment4/data/td3_agent_single_v10/td3,153,-1461.1683186072453,142226,71,925.1714601516724,-45.80430221557617,,32.21736526489258,0.0,-46.505859375,-45.831451416015625,-0.3632391393184662
58,/Users/cjpark/Desktop/ucla_courses/cs260r/assignment4/data/td3_agent_single_v10/td3,153,-1439.8692123947947,145226,72,948.1387851238251,-41.45849609375,,47.75186538696289,0.0,-40.879642486572266,-40.25675964355469,-0.9475418925285339
59,/Users/cjpark/Desktop/ucla_courses/cs260r/assignment4/data/td3_agent_single_v10/td3,152,-1419.0226066584069,148226,73,971.5539011955261,-42.15101623535156,,52.56744384765625,0.0,-42.58446502685547,-42.7358512878418,-0.5562992691993713
60,/Users/cjpark/Desktop/ucla_courses/cs260r/assignment4/data/td3_agent_single_v10/td3,152,-1398.835448450232,151226,74,994.639564037323,-47.67980194091797,,166.04693603515625,0.0,-46.65538024902344,-46.66591262817383,-1.529931902885437
61,/Users/cjpark/Desktop/ucla_courses/cs260r/assignment4/data/td3_agent_single_v10/td3,151,-1380.7094539384263,154226,75,1017.9416630268097,-32.42115783691406,,52.893306732177734,0.0,-32.48609924316406,-32.68708038330078,-0.16225376725196838
62,/Users/cjpark/Desktop/ucla_courses/cs260r/assignment4/data/td3_agent_single_v10/td3,150,-1364.4606743528986,157226,76,1042.8402280807495,-44.3687629699707,,41.57577896118164,0.0,-45.40650177001953,-44.938621520996094,-0.35947152972221375
63,/Users/cjpark/Desktop/ucla_courses/cs260r/assignment4/data/td3_agent_single_v10/td3,150,-1345.4589758411735,160226,77,1066.471675157547,-53.36459732055664,,41.977333068847656,0.0,-52.837467193603516,-52.90803146362305,-1.3341045379638672
64,/Users/cjpark/Desktop/ucla_courses/cs260r/assignment4/data/td3_agent_single_v10/td3,149,-1327.0252993637175,163226,78,1089.3206021785736,-40.7257194519043,,32.99085235595703,0.0,-40.29377746582031,-40.35298538208008,-0.7476456165313721
65,/Users/cjpark/Desktop/ucla_courses/cs260r/assignment4/data/td3_agent_single_v10/td3,149,-1309.1411132441256,166226,79,1112.810282945633,-44.41905212402344,,26.116989135742188,0.0,-44.182952880859375,-43.71586608886719,-0.5572563409805298
66,/Users/cjpark/Desktop/ucla_courses/cs260r/assignment4/data/td3_agent_single_v10/td3,148,-1291.5864962499006,169226,80,1136.8028180599213,-48.92384338378906,,37.31791305541992,0.0,-49.29505157470703,-48.95362854003906,-0.36153534054756165
67,/Users/cjpark/Desktop/ucla_courses/cs260r/assignment4/data/td3_agent_single_v10/td3,148,-1274.838468708742,171549,81,1155.8453540802002,-43.563392639160156,41.78998565673828,42.96847152709961,0.0,-42.379085540771484,-41.5588493347168,-0.7491630911827087
68,/Users/cjpark/Desktop/ucla_courses/cs260r/assignment4/data/td3_agent_single_v10/td3,147,-1258.1803309233032,174549,82,1180.4400861263275,-47.524696350097656,47.25315856933594,40.54165267944336,0.0,-47.66148376464844,-46.7923469543457,-0.36069947481155396
69,/Users/cjpark/Desktop/ucla_courses/cs260r/assignment4/data/td3_agent_single_v10/td3,147,-1242.395814293552,177549,83,1205.3700151443481,-43.771121978759766,41.24094009399414,91.91981506347656,0.0,-42.60348892211914,-42.615726470947266,-0.5539760589599609
70,/Users/cjpark/Desktop/ucla_courses/cs260r/assignment4/data/td3_agent_single_v10/td3,146,-1226.8538537442982,180549,84,1230.6050941944122,-47.89975357055664,45.550941467285156,45.22333526611328,0.0,-47.42567443847656,-47.08974075317383,-0.7513673901557922
71,/Users/cjpark/Desktop/ucla_courses/cs260r/assignment4/data/td3_agent_single_v10/td3,146,-1212.138285252865,182336,85,1245.0769002437592,-46.56409454345703,,89.00791931152344,0.0,-44.66643524169922,-45.28293228149414,-0.9391332864761353
72,/Users/cjpark/Desktop/ucla_courses/cs260r/assignment4/data/td3_agent_single_v10/td3,146,-1170.707171423527,183120,88,1251.6442999839783,-48.577754974365234,,18.946195602416992,0.0,-49.041202545166016,-49.38312911987305,-0.36140578985214233
73,/Users/cjpark/Desktop/ucla_courses/cs260r/assignment4/data/td3_agent_single_v10/td3,145,-1144.293626008199,185734,90,1272.907201051712,-42.74948501586914,,24.31160545349121,0.0,-43.06484603881836,-42.666419982910156,-0.16761288046836853
74,/Users/cjpark/Desktop/ucla_courses/cs260r/assignment4/data/td3_agent_single_v10/td3,145,-1131.5683890249911,187030,91,1284.0253040790558,-42.58841323852539,,19.562013626098633,0.0,-42.887298583984375,-42.91534423828125,-0.5585354566574097
75,/Users/cjpark/Desktop/ucla_courses/cs260r/assignment4/data/td3_agent_single_v10/td3,145,-1106.9694961211214,189244,93,1302.5283951759338,-42.75638961791992,,35.45551300048828,0.0,-43.27846908569336,-43.23736572265625,-0.5589479207992554
76,/Users/cjpark/Desktop/ucla_courses/cs260r/assignment4/data/td3_agent_single_v10/td3,144,-1094.874713521398,191313,94,1320.4409279823303,-37.440696716308594,36.438987731933594,11.40822982788086,0.0,-37.16721725463867,-37.302467346191406,-0.36320245265960693
77,/Users/cjpark/Desktop/ucla_courses/cs260r/assignment4/data/td3_agent_single_v10/td3,144,-1082.664488850322,194313,95,1344.6308212280273,-44.96877670288086,43.391357421875,30.228282928466797,0.0,-44.07556915283203,-44.01045608520508,-0.5602073073387146
78,/Users/cjpark/Desktop/ucla_courses/cs260r/assignment4/data/td3_agent_single_v10/td3,144,-1070.5326242836738,197313,96,1367.0676651000977,-44.7894401550293,44.11162567138672,40.70197677612305,0.0,-45.229530334472656,-45.38304138183594,-0.3520853519439697
79,/Users/cjpark/Desktop/ucla_courses/cs260r/assignment4/data/td3_agent_single_v10/td3,144,-1058.9493154614468,199124,97,1381.0492181777954,-38.50154495239258,,11.456701278686523,0.0,-39.065372467041016,-38.906959533691406,-0.36056509613990784
80,/Users/cjpark/Desktop/ucla_courses/cs260r/assignment4/data/td3_agent_single_v10/td3,143,-1047.4495661510512,201799,98,1401.904424905777,-43.321388244628906,41.43352508544922,24.875205993652344,0.0,-42.76191711425781,-43.350914001464844,-0.7539618015289307
81,/Users/cjpark/Desktop/ucla_courses/cs260r/assignment4/data/td3_agent_single_v10/td3,143,-1036.7826219876347,202506,99,1407.6976251602173,-50.25590896606445,,38.69304656982422,0.0,-49.725914001464844,-50.05470275878906,-2.1209022998809814
82,/Users/cjpark/Desktop/ucla_courses/cs260r/assignment4/data/td3_agent_single_v10/td3,143,-1026.3111297881019,203314,100,1413.8694920539856,-46.82028579711914,,13.24620532989502,0.0,-46.74774932861328,-46.99581527709961,-0.16843059659004211
83,/Users/cjpark/Desktop/ucla_courses/cs260r/assignment4/data/td3_agent_single_v10/td3,143,-1027.8343142965086,204124,101,1421.177256345749,-35.85121536254883,,11.438230514526367,0.0,-36.057743072509766,-36.09414291381836,0.028767772018909454
84,/Users/cjpark/Desktop/ucla_courses/cs260r/assignment4/data/td3_agent_single_v10/td3,143,-976.2907353913947,207885,103,1451.1675970554352,-36.36928939819336,35.4630126953125,49.83285903930664,0.0,-36.00381851196289,-36.09994125366211,-0.16288742423057556
85,/Users/cjpark/Desktop/ucla_courses/cs260r/assignment4/data/td3_agent_single_v10/td3,143,-594.2224095270145,209071,104,1460.0920712947845,-43.528350830078125,42.569522857666016,15.28565788269043,0.0,-43.814640045166016,-42.98583221435547,-0.36373454332351685
86,/Users/cjpark/Desktop/ucla_courses/cs260r/assignment4/data/td3_agent_single_v10/td3,143,-227.26288558571855,210057,106,1467.4346430301666,-41.23627853393555,40.344757080078125,10.673074722290039,0.0,-41.689327239990234,-41.75872802734375,-0.3570724427700043
87,/Users/cjpark/Desktop/ucla_courses/cs260r/assignment4/data/td3_agent_single_v10/td3,143,-228.0807347559261,211752,107,1480.6541140079498,-45.77531433105469,,18.458412170410156,0.0,-45.81187057495117,-45.84752655029297,-1.1467547416687012
88,/Users/cjpark/Desktop/ucla_courses/cs260r/assignment4/data/td3_agent_single_v10/td3,142,-228.90194561230038,213361,108,1493.07741522789,-46.8034553527832,46.8823127746582,48.349735260009766,0.0,-48.937198638916016,-48.57270050048828,-0.5607254505157471
89,/Users/cjpark/Desktop/ucla_courses/cs260r/assignment4/data/td3_agent_single_v10/td3,142,-70.09666646971594,216223,111,1517.3090250492096,-38.45236587524414,36.84938430786133,24.075576782226562,0.0,-38.255775451660156,-38.67402267456055,-0.5557510256767273
90,/Users/cjpark/Desktop/ucla_courses/cs260r/assignment4/data/td3_agent_single_v10/td3,142,-69.92257289137638,218213,112,1533.257010936737,-45.304344177246094,43.691001892089844,60.64300537109375,0.0,-44.4132080078125,-44.295249938964844,-0.559051513671875
91,/Users/cjpark/Desktop/ucla_courses/cs260r/assignment4/data/td3_agent_single_v10/td3,142,-69.64218045853652,219552,113,1543.7372570037842,-44.905845642089844,,91.66165161132812,0.0,-44.46600341796875,-44.720298767089844,-0.5588109493255615
92,/Users/cjpark/Desktop/ucla_courses/cs260r/assignment4/data/td3_agent_single_v10/td3,142,-69.22745860508262,222552,114,1567.0907361507416,-35.33238983154297,,34.876792907714844,0.0,-35.63970947265625,-35.338565826416016,-0.3653770089149475
93,/Users/cjpark/Desktop/ucla_courses/cs260r/assignment4/data/td3_agent_single_v10/td3,141,-68.68820794105395,225552,115,1590.1276342868805,-37.333099365234375,,17.01787567138672,0.0,-37.64208221435547,-37.35723876953125,-0.752100944519043
94,/Users/cjpark/Desktop/ucla_courses/cs260r/assignment4/data/td3_agent_single_v10/td3,141,-68.10662922900106,228552,116,1613.2672839164734,-33.536373138427734,,41.08316421508789,0.0,-33.233333587646484,-33.159812927246094,-0.36438828706741333
95,/Users/cjpark/Desktop/ucla_courses/cs260r/assignment4/data/td3_agent_single_v10/td3,141,-73.77723552637403,231552,117,1640.3890101909637,-31.44680404663086,,23.251245498657227,0.0,-32.01054000854492,-31.97504234313965,0.026326673105359077
96,/Users/cjpark/Desktop/ucla_courses/cs260r/assignment4/data/td3_agent_single_v10/td3,140,-73.29197629209358,234552,118,1669.533263206482,-30.486572265625,,20.133268356323242,0.0,-30.114789962768555,-30.283727645874023,-0.7552906274795532
97,/Users/cjpark/Desktop/ucla_courses/cs260r/assignment4/data/td3_agent_single_v10/td3,140,-72.22837125322064,236856,119,1690.073852300644,-30.951526641845703,,38.836177825927734,0.0,-31.112239837646484,-31.130611419677734,0.02500658482313156
98,/Users/cjpark/Desktop/ucla_courses/cs260r/assignment4/data/td3_agent_single_v10/td3,139,-71.53284508328261,239856,120,1719.0137121677399,-32.2603645324707,,68.32331848144531,0.0,-32.4101448059082,-31.89472198486328,-0.9504075050354004
99,/Users/cjpark/Desktop/ucla_courses/cs260r/assignment4/data/td3_agent_single_v10/td3,139,-70.68510347799122,242106,121,1740.3460972309113,-24.828298568725586,,21.698055267333984,0.0,-24.944015502929688,-24.752824783325195,0.02429402992129326
100,/Users/cjpark/Desktop/ucla_courses/cs260r/assignment4/data/td3_agent_single_v10/td3,138,-69.76693904490955,245106,122,1769.1706852912903,-26.63665008544922,,34.60879135131836,0.0,-26.74581527709961,-26.488658905029297,-0.3622386157512665
101,/Users/cjpark/Desktop/ucla_courses/cs260r/assignment4/data/td3_agent_single_v10/td3,138,-69.01551637379207,247576,123,1793.7663459777832,-22.324871063232422,,9.735064506530762,0.0,-22.07467269897461,-22.466205596923828,-0.16796326637268066
102,/Users/cjpark/Desktop/ucla_courses/cs260r/assignment4/data/td3_agent_single_v10/td3,137,-68.30594732746172,249737,124,1814.986034154892,-26.887054443359375,25.928918838500977,26.332767486572266,0.0,-26.53143310546875,-26.433090209960938,-0.3608664572238922
103,/Users/cjpark/Desktop/ucla_courses/cs260r/assignment4/data/td3_agent_single_v10/td3,137,-67.25093046596601,252737,125,1844.2887222766876,-25.275962829589844,24.72242546081543,44.06584930419922,0.0,-25.75731658935547,-25.362070083618164,-0.3632834553718567
104,/Users/cjpark/Desktop/ucla_courses/cs260r/assignment4/data/td3_agent_single_v10/td3,136,-66.31067418277725,255737,126,1872.5633900165558,-24.42198944091797,23.452991485595703,20.1396484375,0.0,-24.41705322265625,-24.35268783569336,-0.5589369535446167
105,/Users/cjpark/Desktop/ucla_courses/cs260r/assignment4/data/td3_agent_single_v10/td3,136,-65.36692704177044,258737,127,1900.8547451496124,-27.807615280151367,26.517391204833984,11.499746322631836,0.0,-28.10016632080078,-28.073833465576172,-0.7512178421020508
106,/Users/cjpark/Desktop/ucla_courses/cs260r/assignment4/data/td3_agent_single_v10/td3,135,-64.73611865045058,260737,128,1924.0587902069092,-26.205018997192383,25.313791275024414,21.609642028808594,0.0,-26.95046043395996,-26.33524513244629,-0.5611807703971863
107,/Users/cjpark/Desktop/ucla_courses/cs260r/assignment4/data/td3_agent_single_v10/td3,135,-64.28034423616184,262547,129,1943.6878159046173,-25.75956916809082,24.00757598876953,24.78963279724121,0.0,-25.12172508239746,-25.157636642456055,-0.5596596002578735
108,/Users/cjpark/Desktop/ucla_courses/cs260r/assignment4/data/td3_agent_single_v10/td3,134,-63.46450255800337,265315,130,1972.8447082042694,-24.744909286499023,24.118022918701172,10.821879386901855,0.0,-25.12566566467285,-24.805927276611328,-0.3643418252468109
109,/Users/cjpark/Desktop/ucla_courses/cs260r/assignment4/data/td3_agent_single_v10/td3,133,-62.552369300516574,268315,131,2003.988750219345,-27.25617218017578,26.744718551635742,23.808773040771484,0.0,-27.655235290527344,-27.319835662841797,-0.7563449740409851
110,/Users/cjpark/Desktop/ucla_courses/cs260r/assignment4/data/td3_agent_single_v10/td3,133,-61.81536968542866,271315,132,2033.9194192886353,-26.44331169128418,24.828296661376953,25.492084503173828,0.0,-25.3105525970459,-25.240413665771484,-0.7548775672912598
111,/Users/cjpark/Desktop/ucla_courses/cs260r/assignment4/data/td3_agent_single_v10/td3,133,-61.174328652469406,274315,133,2061.5666291713715,-22.099040985107422,21.454286575317383,15.704389572143555,0.0,-21.99220085144043,-22.247766494750977,-0.16816112399101257
112,/Users/cjpark/Desktop/ucla_courses/cs260r/assignment4/data/td3_agent_single_v10/td3,132,-60.21836866750505,277315,134,2089.0962381362915,-23.940656661987305,22.61117172241211,18.01708221435547,0.0,-24.410017013549805,-24.695138931274414,-0.7431420087814331
113,/Users/cjpark/Desktop/ucla_courses/cs260r/assignment4/data/td3_agent_single_v10/td3,132,-59.2640007458265,280315,135,2116.2442660331726,-19.807870864868164,18.239883422851562,11.85936450958252,0.0,-18.958168029785156,-19.041515350341797,-0.35729581117630005
114,/Users/cjpark/Desktop/ucla_courses/cs260r/assignment4/data/td3_agent_single_v10/td3,132,-58.6974043586863,282327,136,2134.6998960971832,-21.483556747436523,20.92508316040039,10.49181842803955,0.0,-21.7489070892334,-21.850603103637695,0.03519384190440178
115,/Users/cjpark/Desktop/ucla_courses/cs260r/assignment4/data/td3_agent_single_v10/td3,131,-58.01795864296823,285327,137,2163.3107500076294,-29.3886661529541,27.906614303588867,22.683795928955078,0.0,-29.472646713256836,-29.359100341796875,-0.7529339790344238
116,/Users/cjpark/Desktop/ucla_courses/cs260r/assignment4/data/td3_agent_single_v10/td3,131,-57.3718522072629,288327,138,2191.8032491207123,-23.053499221801758,22.38617706298828,12.674148559570312,0.0,-23.30201530456543,-23.191638946533203,-0.36228272318840027
117,/Users/cjpark/Desktop/ucla_courses/cs260r/assignment4/data/td3_agent_single_v10/td3,131,-57.57322661879542,290803,139,2215.9480061531067,-24.276885986328125,23.17131233215332,13.360817909240723,0.0,-24.771587371826172,-24.996553421020508,-0.172628253698349
118,/Users/cjpark/Desktop/ucla_courses/cs260r/assignment4/data/td3_agent_single_v10/td3,131,-57.80298122023727,292802,140,2235.052103996277,-19.906757354736328,,15.660236358642578,0.0,-19.615774154663086,-19.781036376953125,-0.3620324730873108
119,/Users/cjpark/Desktop/ucla_courses/cs260r/assignment4/data/td3_agent_single_v10/td3,130,-58.00316402068163,295802,141,2264.6768701076508,-23.994705200195312,,8.598905563354492,0.0,-23.56593132019043,-24.19424819946289,-0.559802770614624
120,/Users/cjpark/Desktop/ucla_courses/cs260r/assignment4/data/td3_agent_single_v10/td3,130,-58.347838748958736,298802,142,2293.932004213333,-23.588531494140625,,16.864948272705078,0.0,-23.93359375,-24.386886596679688,-0.1692521572113037
121,/Users/cjpark/Desktop/ucla_courses/cs260r/assignment4/data/td3_agent_single_v10/td3,129,-58.737810443114476,301802,143,2323.0180780887604,-23.221965789794922,,7.442151069641113,0.0,-23.522228240966797,-23.592910766601562,0.03000558912754059
122,/Users/cjpark/Desktop/ucla_courses/cs260r/assignment4/data/td3_agent_single_v10/td3,129,-59.507319583552125,303087,144,2335.2868571281433,-32.587890625,31.3693904876709,10.341730117797852,0.0,-32.375240325927734,-32.356964111328125,-0.7502253651618958
123,/Users/cjpark/Desktop/ucla_courses/cs260r/assignment4/data/td3_agent_single_v10/td3,129,-59.75946238959964,306087,145,2364.8387582302094,-26.262004852294922,24.573694229125977,13.328303337097168,0.0,-25.725421905517578,-26.076562881469727,-0.360972136259079
124,/Users/cjpark/Desktop/ucla_courses/cs260r/assignment4/data/td3_agent_single_v10/td3,129,-60.27235893908087,308326,146,2387.0698070526123,-24.873775482177734,,19.671960830688477,0.0,-25.210071563720703,-24.995723724365234,-0.36147382855415344
125,/Users/cjpark/Desktop/ucla_courses/cs260r/assignment4/data/td3_agent_single_v10/td3,128,-259.0972848489039,311326,147,2417.2067189216614,-21.416513442993164,,5.556506156921387,0.0,-21.210588455200195,-21.6318416595459,-0.16603794693946838
126,/Users/cjpark/Desktop/ucla_courses/cs260r/assignment4/data/td3_agent_single_v10/td3,128,-261.1797970612145,312363,149,2428.197117328644,-21.806453704833984,20.231958389282227,13.925048828125,0.0,-22.308534622192383,-22.628047943115234,-0.36440083384513855
127,/Users/cjpark/Desktop/ucla_courses/cs260r/assignment4/data/td3_agent_single_v10/td3,128,-262.6356995830626,313040,151,2435.157454252243,-24.7454833984375,,29.856136322021484,0.0,-24.505313873291016,-24.18297576904297,-0.36370569467544556
128,/Users/cjpark/Desktop/ucla_courses/cs260r/assignment4/data/td3_agent_single_v10/td3,128,-263.7788918872198,314540,153,2450.919198989868,-26.908281326293945,,26.194711685180664,0.0,-27.522071838378906,-26.929515838623047,-0.757328987121582
129,/Users/cjpark/Desktop/ucla_courses/cs260r/assignment4/data/td3_agent_single_v10/td3,128,-264.48840105323114,315415,154,2460.1902232170105,-24.315126419067383,22.61204719543457,88.75013732910156,0.0,-23.622512817382812,-23.675418853759766,-0.7582224607467651
130,/Users/cjpark/Desktop/ucla_courses/cs260r/assignment4/data/td3_agent_single_v10/td3,128,-264.9058060496443,316005,155,2466.430204153061,-26.100719451904297,24.933380126953125,115.85478210449219,0.0,-25.81516456604004,-25.930273056030273,-0.9478842616081238
131,/Users/cjpark/Desktop/ucla_courses/cs260r/assignment4/data/td3_agent_single_v10/td3,127,-265.98228685409254,319662,157,2502.9299051761627,-24.73649787902832,,62.56116485595703,0.0,-25.100360870361328,-24.995445251464844,-0.7523820400238037
132,/Users/cjpark/Desktop/ucla_courses/cs260r/assignment4/data/td3_agent_single_v10/td3,127,-266.1523399742918,322662,158,2532.8041241168976,-24.692157745361328,,23.915557861328125,0.0,-24.851015090942383,-24.65120506286621,-0.7558619379997253
133,/Users/cjpark/Desktop/ucla_courses/cs260r/assignment4/data/td3_agent_single_v10/td3,127,-266.2490064424273,325662,159,2562.308829307556,-19.86232566833496,,31.020774841308594,0.0,-20.055709838867188,-20.30828285217285,-0.3630182445049286
134,/Users/cjpark/Desktop/ucla_courses/cs260r/assignment4/data/td3_agent_single_v10/td3,126,-266.5080534867409,328322,160,2589.122905254364,-22.237367630004883,,9.257015228271484,0.0,-22.516786575317383,-22.386014938354492,0.030270112678408623
135,/Users/cjpark/Desktop/ucla_courses/cs260r/assignment4/data/td3_agent_single_v10/td3,126,-266.9147641662731,330124,161,2606.975794315338,-21.716455459594727,,15.038809776306152,0.0,-21.99874496459961,-22.589881896972656,-0.5577892065048218
136,/Users/cjpark/Desktop/ucla_courses/cs260r/assignment4/data/td3_agent_single_v10/td3,126,-153.11563530186905,332380,162,2628.7615411281586,-19.680133819580078,,40.24211883544922,0.0,-19.37932586669922,-19.66083335876465,-0.5569518804550171
137,/Users/cjpark/Desktop/ucla_courses/cs260r/assignment4/data/td3_agent_single_v10/td3,126,-153.60085367125288,335380,163,2655.897866010666,-28.04803466796875,,10.74396800994873,0.0,-27.15583610534668,-27.211143493652344,-0.7559614181518555
138,/Users/cjpark/Desktop/ucla_courses/cs260r/assignment4/data/td3_agent_single_v10/td3,126,-153.9445375792145,338380,164,2683.6812801361084,-21.470321655273438,,15.596250534057617,0.0,-20.856233596801758,-20.16337776184082,-0.5615629553794861
139,/Users/cjpark/Desktop/ucla_courses/cs260r/assignment4/data/td3_agent_single_v10/td3,125,-154.0885661222061,341380,165,2710.921710252762,-13.225013732910156,,7.63369083404541,0.0,-12.998641014099121,-13.086993217468262,0.029935941100120544
140,/Users/cjpark/Desktop/ucla_courses/cs260r/assignment4/data/td3_agent_single_v10/td3,125,-154.24525022850645,343180,166,2727.3044221401215,-21.335519790649414,,31.27880096435547,0.0,-20.951513290405273,-21.292116165161133,-0.36412590742111206
141,/Users/cjpark/Desktop/ucla_courses/cs260r/assignment4/data/td3_agent_single_v10/td3,125,-154.22383468976037,346180,167,2754.739286184311,-17.61227035522461,,9.588272094726562,0.0,-18.027759552001953,-17.715412139892578,0.02636897563934326
142,/Users/cjpark/Desktop/ucla_courses/cs260r/assignment4/data/td3_agent_single_v10/td3,125,-154.28901107031942,349111,168,2781.9514651298523,-20.867958068847656,19.50313949584961,10.584726333618164,0.0,-20.575912475585938,-20.8048038482666,-0.3601010739803314
143,/Users/cjpark/Desktop/ucla_courses/cs260r/assignment4/data/td3_agent_single_v10/td3,125,-154.92810199242192,352667,170,2815.844097137451,-20.141559600830078,18.25040626525879,19.323131561279297,0.0,-19.382436752319336,-19.580528259277344,-0.3628256022930145
144,/Users/cjpark/Desktop/ucla_courses/cs260r/assignment4/data/td3_agent_single_v10/td3,125,-155.05523693240968,355667,171,2844.144419193268,-18.3846492767334,17.447113037109375,6.023403167724609,0.0,-18.619678497314453,-18.423513412475586,0.0259782113134861
145,/Users/cjpark/Desktop/ucla_courses/cs260r/assignment4/data/td3_agent_single_v10/td3,124,-155.4322518016535,357628,172,2862.118688106537,-21.203781127929688,,5.217800617218018,0.0,-20.94853973388672,-21.216320037841797,0.026283279061317444
146,/Users/cjpark/Desktop/ucla_courses/cs260r/assignment4/data/td3_agent_single_v10/td3,124,-155.69893292034715,360036,173,2884.749216079712,-20.09302520751953,,34.73188781738281,0.0,-19.698030471801758,-19.60281753540039,-0.7471901774406433
147,/Users/cjpark/Desktop/ucla_courses/cs260r/assignment4/data/td3_agent_single_v10/td3,124,-155.70252706155898,362754,174,2910.678106069565,-21.581321716308594,,11.669300079345703,0.0,-21.64412498474121,-21.616376876831055,-0.16837605834007263
148,/Users/cjpark/Desktop/ucla_courses/cs260r/assignment4/data/td3_agent_single_v10/td3,124,-154.72054539283198,365754,175,2939.45569729805,-20.275007247924805,,14.396334648132324,0.0,-20.390398025512695,-20.369510650634766,-0.3652212917804718
149,/Users/cjpark/Desktop/ucla_courses/cs260r/assignment4/data/td3_agent_single_v10/td3,124,-153.00003407938354,367137,176,2952.449622154236,-20.2060604095459,19.420276641845703,27.788299560546875,0.0,-20.374095916748047,-20.684194564819336,-0.7543553709983826
150,/Users/cjpark/Desktop/ucla_courses/cs260r/assignment4/data/td3_agent_single_v10/td3,124,-153.53428060879577,369143,177,2971.6232821941376,-20.37757682800293,19.209062576293945,6.090793609619141,0.0,-20.688323974609375,-20.549591064453125,-0.36452266573905945
151,/Users/cjpark/Desktop/ucla_courses/cs260r/assignment4/data/td3_agent_single_v10/td3,124,-153.8275047825379,371780,178,2997.3370521068573,-18.961990356445312,,16.821537017822266,0.0,-19.050880432128906,-19.09001350402832,-0.1649700403213501
152,/Users/cjpark/Desktop/ucla_courses/cs260r/assignment4/data/td3_agent_single_v10/td3,123,-153.84014009463763,374780,179,3027.232015132904,-18.308074951171875,,9.568122863769531,0.0,-18.83677101135254,-17.980449676513672,-0.1679401397705078
153,/Users/cjpark/Desktop/ucla_courses/cs260r/assignment4/data/td3_agent_single_v10/td3,123,-154.25130301846895,376628,180,3045.334936141968,-19.46961784362793,,197.32911682128906,0.0,-19.76210594177246,-20.037742614746094,-0.16495637595653534
154,/Users/cjpark/Desktop/ucla_courses/cs260r/assignment4/data/td3_agent_single_v10/td3,123,-154.35328377996677,377958,181,3057.993427991867,-19.533803939819336,,6.50629186630249,0.0,-19.674949645996094,-19.48033332824707,-0.3629348874092102
155,/Users/cjpark/Desktop/ucla_courses/cs260r/assignment4/data/td3_agent_single_v10/td3,123,-154.6243131232445,380958,182,3087.8358120918274,-17.881061553955078,,10.698953628540039,0.0,-18.224485397338867,-18.478839874267578,-0.5567896962165833
156,/Users/cjpark/Desktop/ucla_courses/cs260r/assignment4/data/td3_agent_single_v10/td3,123,-154.8206742606938,381849,183,3096.5329909324646,-16.43897247314453,14.774860382080078,4.953275680541992,0.0,-15.914461135864258,-16.1679744720459,0.02991933375597
157,/Users/cjpark/Desktop/ucla_courses/cs260r/assignment4/data/td3_agent_single_v10/td3,123,-154.90184771022857,383675,184,3113.726972103119,-23.488821029663086,21.84714126586914,11.060250282287598,0.0,-23.369565963745117,-23.15312957763672,-0.749492883682251
158,/Users/cjpark/Desktop/ucla_courses/cs260r/assignment4/data/td3_agent_single_v10/td3,122,-154.6353009016696,386675,185,3144.3870809078217,-16.96392822265625,15.493289947509766,6.865302085876465,0.0,-16.396652221679688,-16.478717803955078,-0.1687406301498413
159,/Users/cjpark/Desktop/ucla_courses/cs260r/assignment4/data/td3_agent_single_v10/td3,122,-154.29316784989484,388492,186,3162.0338790416718,-18.64813804626465,,15.228105545043945,0.0,-18.33721923828125,-18.43927764892578,-0.5592191219329834
160,/Users/cjpark/Desktop/ucla_courses/cs260r/assignment4/data/td3_agent_single_v10/td3,122,-153.78454222541532,391492,187,3191.635110139847,-23.256267547607422,,19.484149932861328,0.0,-23.997875213623047,-23.86261558532715,-0.3686766028404236
161,/Users/cjpark/Desktop/ucla_courses/cs260r/assignment4/data/td3_agent_single_v10/td3,122,-153.39737103917614,394492,188,3221.798262119293,-18.57256507873535,,7.980768203735352,0.0,-18.724353790283203,-18.44942283630371,0.023050794377923012
162,/Users/cjpark/Desktop/ucla_courses/cs260r/assignment4/data/td3_agent_single_v10/td3,122,-152.95491701084023,397492,189,3251.158440351486,-18.03693389892578,,3.7369918823242188,0.0,-18.193580627441406,-18.3873233795166,-0.36496052145957947
163,/Users/cjpark/Desktop/ucla_courses/cs260r/assignment4/data/td3_agent_single_v10/td3,122,-152.6978899044897,400492,190,3280.017110109329,-19.800567626953125,,17.088382720947266,0.0,-19.884675979614258,-20.604373931884766,-0.36564210057258606
164,/Users/cjpark/Desktop/ucla_courses/cs260r/assignment4/data/td3_agent_single_v10/td3,121,-152.3022330145838,403492,191,3311.099892139435,-19.322452545166016,,10.844038009643555,0.0,-19.129150390625,-19.274045944213867,0.020752286538481712
165,/Users/cjpark/Desktop/ucla_courses/cs260r/assignment4/data/td3_agent_single_v10/td3,121,-151.77472644425924,406492,192,3340.186855316162,-24.710195541381836,,35.179534912109375,0.0,-24.553173065185547,-25.062843322753906,-0.5519806146621704
166,/Users/cjpark/Desktop/ucla_courses/cs260r/assignment4/data/td3_agent_single_v10/td3,121,-151.23088226515335,409492,193,3369.8953680992126,-21.137798309326172,,23.304847717285156,0.0,-20.861085891723633,-21.156734466552734,-0.5603188872337341
167,/Users/cjpark/Desktop/ucla_courses/cs260r/assignment4/data/td3_agent_single_v10/td3,121,-150.8095167938355,412492,194,3399.322387933731,-21.38998031616211,,13.49015998840332,0.0,-21.085880279541016,-20.820476531982422,-0.15057028830051422
168,/Users/cjpark/Desktop/ucla_courses/cs260r/assignment4/data/td3_agent_single_v10/td3,121,-150.57061717003018,415492,195,3428.7476210594177,-20.799213409423828,,12.255159378051758,0.0,-20.607927322387695,-20.70834732055664,-0.16815778613090515
169,/Users/cjpark/Desktop/ucla_courses/cs260r/assignment4/data/td3_agent_single_v10/td3,121,-150.5441999334991,418492,196,3457.186620235443,-20.853607177734375,,11.98725700378418,0.0,-20.719219207763672,-20.896331787109375,-0.16865776479244232
170,/Users/cjpark/Desktop/ucla_courses/cs260r/assignment4/data/td3_agent_single_v10/td3,120,-150.05486859093918,421492,197,3486.178693294525,-20.17698097229004,,33.043701171875,0.0,-20.25762176513672,-20.871723175048828,-0.5515272617340088
171,/Users/cjpark/Desktop/ucla_courses/cs260r/assignment4/data/td3_agent_single_v10/td3,120,-249.8352199159695,424492,198,3516.7331042289734,-20.337051391601562,,24.826873779296875,0.0,-21.192853927612305,-20.690765380859375,-0.5608485341072083
172,/Users/cjpark/Desktop/ucla_courses/cs260r/assignment4/data/td3_agent_single_v10/td3,120,-249.099301647575,427492,199,3546.127964258194,-19.715600967407227,,25.89158058166504,0.0,-19.96280860900879,-20.56558609008789,-0.3637070059776306
173,/Users/cjpark/Desktop/ucla_courses/cs260r/assignment4/data/td3_agent_single_v10/td3,120,-248.45306012254954,430492,200,3574.4364721775055,-21.799762725830078,,19.64989471435547,0.0,-21.326831817626953,-21.439069747924805,0.03574764356017113
174,/Users/cjpark/Desktop/ucla_courses/cs260r/assignment4/data/td3_agent_single_v10/td3,120,-247.80135432663587,433492,201,3597.5505571365356,-23.676006317138672,,9.207695007324219,0.0,-23.942991256713867,-24.139368057250977,-0.16927698254585266
175,/Users/cjpark/Desktop/ucla_courses/cs260r/assignment4/data/td3_agent_single_v10/td3,120,-320.4707308260607,436492,202,3621.3282141685486,-21.83708953857422,,11.732290267944336,0.0,-22.31471824645996,-22.581300735473633,-0.361538827419281
176,/Users/cjpark/Desktop/ucla_courses/cs260r/assignment4/data/td3_agent_single_v10/td3,120,-320.20293084901533,439492,203,3645.74551820755,-24.06314468383789,,10.475875854492188,0.0,-23.758712768554688,-23.83847999572754,0.023722412064671516
177,/Users/cjpark/Desktop/ucla_courses/cs260r/assignment4/data/td3_agent_single_v10/td3,120,-319.84452716653357,442492,204,3669.9091141223907,-21.07122802734375,,15.334348678588867,0.0,-21.132612228393555,-20.66649627685547,-0.16636104881763458
178,/Users/cjpark/Desktop/ucla_courses/cs260r/assignment4/data/td3_agent_single_v10/td3,120,-319.2785879070488,445492,205,3693.7899782657623,-28.21342658996582,,12.61009693145752,0.0,-27.243541717529297,-27.622177124023438,-0.5596009492874146
179,/Users/cjpark/Desktop/ucla_courses/cs260r/assignment4/data/td3_agent_single_v10/td3,120,-318.89228729491737,448492,206,3718.429134130478,-26.328521728515625,,34.534934997558594,0.0,-25.87110137939453,-25.825603485107422,-0.5559879541397095
180,/Users/cjpark/Desktop/ucla_courses/cs260r/assignment4/data/td3_agent_single_v10/td3,120,-318.60636875669553,451492,207,3743.128531932831,-16.95855140686035,,12.036867141723633,0.0,-17.380205154418945,-17.557540893554688,0.027897527441382408
181,/Users/cjpark/Desktop/ucla_courses/cs260r/assignment4/data/td3_agent_single_v10/td3,120,-318.2603684433304,454492,208,3767.630793094635,-24.840778350830078,,22.22930908203125,0.0,-25.54792022705078,-25.539823532104492,0.02629532851278782
182,/Users/cjpark/Desktop/ucla_courses/cs260r/assignment4/data/td3_agent_single_v10/td3,120,-317.7207609149264,457492,209,3790.5063421726227,-21.98440933227539,,32.36034393310547,0.0,-22.055744171142578,-22.048595428466797,-0.17224366962909698
183,/Users/cjpark/Desktop/ucla_courses/cs260r/assignment4/data/td3_agent_single_v10/td3,120,-317.20088838631955,460492,210,3814.4396941661835,-18.141036987304688,,18.054187774658203,0.0,-18.18022918701172,-18.151931762695312,-0.5624673962593079
184,/Users/cjpark/Desktop/ucla_courses/cs260r/assignment4/data/td3_agent_single_v10/td3,120,-317.05648130810283,463492,211,3838.1344859600067,-20.796586990356445,,23.526649475097656,0.0,-20.429134368896484,-20.68014907836914,-0.36442330479621887
185,/Users/cjpark/Desktop/ucla_courses/cs260r/assignment4/data/td3_agent_single_v10/td3,120,-317.1298500778558,466492,212,3862.3074049949646,-21.29005241394043,,28.21225929260254,0.0,-21.353059768676758,-21.142499923706055,-0.561880350112915
186,/Users/cjpark/Desktop/ucla_courses/cs260r/assignment4/data/td3_agent_single_v10/td3,120,-316.9554363297323,469492,213,3886.970843076706,-20.710342407226562,,29.248706817626953,0.0,-21.043859481811523,-21.170194625854492,-0.558720052242279
187,/Users/cjpark/Desktop/ucla_courses/cs260r/assignment4/data/td3_agent_single_v10/td3,120,-317.2758672695174,471566,214,3904.759069919586,-18.783355712890625,,22.16244125366211,0.0,-18.62172508239746,-18.332359313964844,-0.364849328994751
188,/Users/cjpark/Desktop/ucla_courses/cs260r/assignment4/data/td3_agent_single_v10/td3,120,-317.5101044290033,474566,215,3928.4720420837402,-20.142074584960938,,14.279097557067871,0.0,-20.301239013671875,-20.18537139892578,0.02443125657737255
189,/Users/cjpark/Desktop/ucla_courses/cs260r/assignment4/data/td3_agent_single_v10/td3,120,-317.7345033951031,477566,216,3952.0587151050568,-18.887027740478516,,24.453968048095703,0.0,-19.166061401367188,-19.01726531982422,-0.16299816966056824
190,/Users/cjpark/Desktop/ucla_courses/cs260r/assignment4/data/td3_agent_single_v10/td3,120,-312.27837459180944,478583,217,3960.3041462898254,-17.92215347290039,16.741092681884766,12.13398551940918,0.0,-17.319252014160156,-17.437122344970703,-0.1684388667345047
191,/Users/cjpark/Desktop/ucla_courses/cs260r/assignment4/data/td3_agent_single_v10/td3,120,-312.55726797320193,481583,218,3984.146341085434,-20.120166778564453,18.092660903930664,6.546282768249512,0.0,-19.787578582763672,-20.318805694580078,0.024665864184498787
192,/Users/cjpark/Desktop/ucla_courses/cs260r/assignment4/data/td3_agent_single_v10/td3,120,-314.50484875375497,482449,220,3991.589042186737,-20.310352325439453,18.873262405395508,8.80021858215332,0.0,-20.25959014892578,-20.288562774658203,-0.1684042364358902
193,/Users/cjpark/Desktop/ucla_courses/cs260r/assignment4/data/td3_agent_single_v10/td3,120,-314.99055179436573,485449,221,4015.6408472061157,-19.504547119140625,18.00550079345703,14.287324905395508,0.0,-19.670726776123047,-19.469493865966797,-0.36464619636535645
194,/Users/cjpark/Desktop/ucla_courses/cs260r/assignment4/data/td3_agent_single_v10/td3,120,-315.5492215276203,488449,222,4039.7771830558777,-17.120994567871094,15.523168563842773,24.040050506591797,0.0,-17.30333709716797,-17.783586502075195,-0.5618559122085571
195,/Users/cjpark/Desktop/ucla_courses/cs260r/assignment4/data/td3_agent_single_v10/td3,120,-317.01604214083653,491845,224,4069.951879262924,-16.889528274536133,15.68980598449707,156.62770080566406,0.0,-17.54286003112793,-17.24142837524414,-0.17046672105789185
196,/Users/cjpark/Desktop/ucla_courses/cs260r/assignment4/data/td3_agent_single_v10/td3,120,-318.0390877204901,492548,225,4075.638015985489,-20.42763328552246,,213.80224609375,0.0,-19.226913452148438,-19.49946403503418,-0.3672923147678375
197,/Users/cjpark/Desktop/ucla_courses/cs260r/assignment4/data/td3_agent_single_v10/td3,120,-318.588322362569,495378,226,4098.444375038147,-17.64211654663086,,33.35626220703125,0.0,-18.244558334350586,-18.2259521484375,0.03475537523627281
198,/Users/cjpark/Desktop/ucla_courses/cs260r/assignment4/data/td3_agent_single_v10/td3,117,-319.069933618214,498378,227,4236.0183801651,-20.80594825744629,,29.67603874206543,0.0,-20.53114128112793,-20.62152099609375,-0.7549142837524414
199,/Users/cjpark/Desktop/ucla_courses/cs260r/assignment4/data/td3_agent_single_v10/td3,117,-319.54833519493275,499956,228,4248.416965246201,-21.379352569580078,,9.21678352355957,0.0,-21.658323287963867,-21.52865982055664,-0.17175905406475067
200,/Users/cjpark/Desktop/ucla_courses/cs260r/assignment4/data/td3_agent_single_v10/td3,117,-319.9279214392767,501480,229,4278.736089229584,-21.785396575927734,,9.916330337524414,0.0,-21.894079208374023,-21.878047943115234,-0.5593138337135315
201,/Users/cjpark/Desktop/ucla_courses/cs260r/assignment4/data/td3_agent_single_v10/td3,117,-597.234647186792,504480,230,4303.2984828948975,-20.031539916992188,,34.797203063964844,0.0,-20.13858985900879,-20.12645721435547,-0.17137090861797333
202,/Users/cjpark/Desktop/ucla_courses/cs260r/assignment4/data/td3_agent_single_v10/td3,117,-597.7530056337092,507411,231,4326.342550039291,-18.913427352905273,18.00286865234375,27.562278747558594,0.0,-18.634126663208008,-18.217296600341797,-0.1653047353029251
203,/Users/cjpark/Desktop/ucla_courses/cs260r/assignment4/data/td3_agent_single_v10/td3,111,-598.3026518468806,509185,232,4559.245788097382,-23.464012145996094,22.213102340698242,28.572059631347656,0.0,-24.272281646728516,-23.894115447998047,-0.3622473180294037
204,/Users/cjpark/Desktop/ucla_courses/cs260r/assignment4/data/td3_agent_single_v10/td3,111,-598.848937186824,510483,233,4569.762872219086,-19.7147216796875,18.395490646362305,14.463061332702637,0.0,-19.155588150024414,-19.154327392578125,-0.3669925928115845
205,/Users/cjpark/Desktop/ucla_courses/cs260r/assignment4/data/td3_agent_single_v10/td3,111,-599.6856685131363,511769,234,4579.869136095047,-20.24083709716797,19.2764892578125,5.825063705444336,0.0,-19.681737899780273,-19.747488021850586,0.025704357773065567
206,/Users/cjpark/Desktop/ucla_courses/cs260r/assignment4/data/td3_agent_single_v10/td3,111,-600.4791403714676,513097,235,4590.675368309021,-16.49583625793457,15.628456115722656,23.036813735961914,0.0,-15.956304550170898,-16.1485652923584,-0.17253705859184265
207,/Users/cjpark/Desktop/ucla_courses/cs260r/assignment4/data/td3_agent_single_v10/td3,109,-600.4570246087495,516097,236,4717.1070902347565,-19.21063232421875,17.320558547973633,28.186031341552734,0.0,-17.943317413330078,-17.986230850219727,-0.1598251760005951
208,/Users/cjpark/Desktop/ucla_courses/cs260r/assignment4/data/td3_agent_single_v10/td3,109,-600.9431835250233,517394,237,4727.421903133392,-20.490005493164062,,37.391845703125,0.0,-19.409015655517578,-20.02903938293457,-0.16416533291339874
209,/Users/cjpark/Desktop/ucla_courses/cs260r/assignment4/data/td3_agent_single_v10/td3,109,-600.992678114652,519943,238,4747.692214012146,-24.307767868041992,23.777631759643555,29.385168075561523,0.0,-25.090845108032227,-24.602378845214844,-0.3683054745197296
210,/Users/cjpark/Desktop/ucla_courses/cs260r/assignment4/data/td3_agent_single_v10/td3,109,-601.1123578953919,521267,239,4758.439409255981,-21.733394622802734,21.47047996520996,9.532903671264648,0.0,-22.057584762573242,-21.788894653320312,0.023461660370230675
211,/Users/cjpark/Desktop/ucla_courses/cs260r/assignment4/data/td3_agent_single_v10/td3,109,-601.2918159230735,522568,240,4769.027023077011,-22.115049362182617,,28.912410736083984,0.0,-21.728483200073242,-21.948307037353516,-0.7552472949028015
212,/Users/cjpark/Desktop/ucla_courses/cs260r/assignment4/data/td3_agent_single_v10/td3,109,-601.7034147960883,523703,241,4777.983066082001,-18.167110443115234,16.284597396850586,7.419536590576172,0.0,-17.3511905670166,-17.502084732055664,0.02330876514315605
213,/Users/cjpark/Desktop/ucla_courses/cs260r/assignment4/data/td3_agent_single_v10/td3,109,-602.333856863093,524592,242,4785.205461978912,-23.823856353759766,,22.13106346130371,0.0,-23.588525772094727,-23.80207061767578,0.023715272545814514
214,/Users/cjpark/Desktop/ucla_courses/cs260r/assignment4/data/td3_agent_single_v10/td3,104,-602.7340048316494,526431,243,5044.129659175873,-23.296409606933594,22.31232261657715,6.725679397583008,0.0,-23.188133239746094,-23.193347930908203,-0.365247517824173
215,/Users/cjpark/Desktop/ucla_courses/cs260r/assignment4/data/td3_agent_single_v10/td3,104,-602.381956115921,529431,244,5068.488163232803,-26.63860321044922,23.990903854370117,72.72549438476562,0.0,-25.320507049560547,-25.449596405029297,-1.1446459293365479
216,/Users/cjpark/Desktop/ucla_courses/cs260r/assignment4/data/td3_agent_single_v10/td3,104,-602.4123257470467,532431,245,5092.280963182449,-21.86737060546875,20.90353012084961,26.229351043701172,0.0,-22.159616470336914,-21.972537994384766,-0.36722680926322937
217,/Users/cjpark/Desktop/ucla_courses/cs260r/assignment4/data/td3_agent_single_v10/td3,104,-601.9707130484426,535431,246,5116.398940324783,-23.52311897277832,22.335853576660156,14.536521911621094,0.0,-23.176759719848633,-23.494857788085938,-0.17149518430233002
218,/Users/cjpark/Desktop/ucla_courses/cs260r/assignment4/data/td3_agent_single_v10/td3,104,-403.14989069514087,538431,247,5140.159048080444,-22.948362350463867,21.7287540435791,5.408893585205078,0.0,-23.034934997558594,-23.378406524658203,0.019971616566181183
219,/Users/cjpark/Desktop/ucla_courses/cs260r/assignment4/data/td3_agent_single_v10/td3,104,-402.4549468927567,541431,248,5164.377310037613,-17.71607208251953,16.019973754882812,29.640047073364258,0.0,-16.747812271118164,-16.64920425415039,-0.16932164132595062
220,/Users/cjpark/Desktop/ucla_courses/cs260r/assignment4/data/td3_agent_single_v10/td3,104,-401.43333280309946,544431,249,5188.388387203217,-24.35078239440918,24.72234344482422,597.57080078125,0.0,-25.929859161376953,-25.474411010742188,-0.5627328753471375
221,/Users/cjpark/Desktop/ucla_courses/cs260r/assignment4/data/td3_agent_single_v10/td3,105,-400.38688620870084,547431,250,5212.927805185318,-18.87396240234375,17.932199478149414,30.754249572753906,0.0,-19.0683536529541,-19.200712203979492,-0.1685355007648468
222,/Users/cjpark/Desktop/ucla_courses/cs260r/assignment4/data/td3_agent_single_v10/td3,105,-399.97715850442233,548927,251,5224.8423800468445,-20.579486846923828,20.512958526611328,22.13775634765625,0.0,-20.94612693786621,-21.059324264526367,0.025030741468071938
223,/Users/cjpark/Desktop/ucla_courses/cs260r/assignment4/data/td3_agent_single_v10/td3,105,-398.9122564737762,551927,252,5249.186414241791,-24.50547218322754,21.032655715942383,47.51226806640625,0.0,-22.550918579101562,-22.809589385986328,-0.3632000684738159
224,/Users/cjpark/Desktop/ucla_courses/cs260r/assignment4/data/td3_agent_single_v10/td3,105,-398.11051410467326,554927,253,5275.036416053772,-20.82177734375,18.588510513305664,83.72806549072266,0.0,-19.878381729125977,-19.944839477539062,0.02624606341123581
225,/Users/cjpark/Desktop/ucla_courses/cs260r/assignment4/data/td3_agent_single_v10/td3,105,-397.2575182400433,557927,254,5300.009225130081,-25.244976043701172,23.10328483581543,65.46493530273438,0.0,-24.118972778320312,-24.369312286376953,-0.9509317278862
226,/Users/cjpark/Desktop/ucla_courses/cs260r/assignment4/data/td3_agent_single_v10/td3,105,-396.6443251903954,560927,255,5324.629534006119,-19.53888511657715,17.8072566986084,30.52857208251953,0.0,-19.18142318725586,-19.303749084472656,-0.557550311088562
227,/Users/cjpark/Desktop/ucla_courses/cs260r/assignment4/data/td3_agent_single_v10/td3,105,-395.62720934568625,563927,256,5350.270336151123,-18.39364242553711,17.2642879486084,18.204811096191406,0.0,-18.700105667114258,-18.874950408935547,-0.36546650528907776
228,/Users/cjpark/Desktop/ucla_courses/cs260r/assignment4/data/td3_agent_single_v10/td3,105,-395.0120664109867,566927,257,5376.437566995621,-17.934307098388672,16.70057487487793,27.88147735595703,0.0,-18.7730712890625,-18.785449981689453,-0.3636811375617981
229,/Users/cjpark/Desktop/ucla_courses/cs260r/assignment4/data/td3_agent_single_v10/td3,105,-394.67591583289504,569927,258,5402.374461889267,-24.619361877441406,22.762327194213867,141.70709228515625,0.0,-25.17487144470215,-24.81959342956543,-0.17482900619506836
230,/Users/cjpark/Desktop/ucla_courses/cs260r/assignment4/data/td3_agent_single_v10/td3,105,-393.98831951755164,572927,259,5427.481000185013,-12.059613227844238,10.080196380615234,24.524503707885742,0.0,-11.319482803344727,-11.204292297363281,-0.36722803115844727
231,/Users/cjpark/Desktop/ucla_courses/cs260r/assignment4/data/td3_agent_single_v10/td3,105,-393.5160624718989,575927,260,5453.63081908226,-12.965209007263184,11.875898361206055,13.46980094909668,0.0,-13.209760665893555,-12.7694091796875,-0.17002226412296295
232,/Users/cjpark/Desktop/ucla_courses/cs260r/assignment4/data/td3_agent_single_v10/td3,105,-393.0039581611249,578927,261,5479.292493104935,-16.835195541381836,15.026937484741211,22.986949920654297,0.0,-17.2093448638916,-17.373075485229492,-0.3636622428894043
233,/Users/cjpark/Desktop/ucla_courses/cs260r/assignment4/data/td3_agent_single_v10/td3,105,-392.61793725171856,581927,262,5505.622799158096,-10.931126594543457,8.826663970947266,12.242431640625,0.0,-10.361720085144043,-10.977710723876953,-0.36695873737335205
234,/Users/cjpark/Desktop/ucla_courses/cs260r/assignment4/data/td3_agent_single_v10/td3,105,-392.34195207231926,584927,263,5532.814774990082,-10.04864501953125,7.479330062866211,15.105804443359375,0.0,-9.460741996765137,-9.898770332336426,-0.16788044571876526
235,/Users/cjpark/Desktop/ucla_courses/cs260r/assignment4/data/td3_agent_single_v10/td3,105,-392.0064688472544,587927,264,5559.140599012375,-7.960014343261719,7.300997734069824,14.97558307647705,0.0,-8.421975135803223,-8.387471199035645,0.02743399515748024
236,/Users/cjpark/Desktop/ucla_courses/cs260r/assignment4/data/td3_agent_single_v10/td3,105,-391.7297877557761,590927,265,5586.896000146866,-6.031540393829346,4.463016510009766,7.936950206756592,0.0,-6.409825801849365,-6.285590171813965,0.024464674293994904
237,/Users/cjpark/Desktop/ucla_courses/cs260r/assignment4/data/td3_agent_single_v10/td3,105,-391.2750917766254,593927,266,5613.735500097275,-3.7956318855285645,2.175753593444824,18.626651763916016,0.0,-3.445387601852417,-3.4414145946502686,-0.16948606073856354
238,/Users/cjpark/Desktop/ucla_courses/cs260r/assignment4/data/td3_agent_single_v10/td3,105,-391.432067016556,595428,267,5627.643057107925,-4.149430274963379,,11.196479797363281,0.0,-3.9045772552490234,-4.434731960296631,0.026899956166744232
239,/Users/cjpark/Desktop/ucla_courses/cs260r/assignment4/data/td3_agent_single_v10/td3,105,-391.27623111621887,598428,268,5654.757451057434,-7.192119598388672,,11.298392295837402,0.0,-7.949891567230225,-8.05148696899414,-0.17159798741340637
