cjunkin/reinforcement-learning/metaracer/data/td3_agent_single_v11/td3/progress.csv
,log_dir,frame_per_second,episode_reward,total_steps,total_episodes,total_time,target_q,actor_loss,critic_loss,success_rate,current_q1,current_q2,reward
0,/Users/cjpark/Desktop/ucla_courses/cs260r/assignment4/data/td3_agent_single_v11/td3,1160,156.05061030959004,2999,1,2.584505796432495,,,,0.0,,,
1,/Users/cjpark/Desktop/ucla_courses/cs260r/assignment4/data/td3_agent_single_v11/td3,1178,157.65556303736886,5999,2,5.089686155319214,,,,0.0,,,
2,/Users/cjpark/Desktop/ucla_courses/cs260r/assignment4/data/td3_agent_single_v11/td3,1213,157.65867230951673,8999,3,7.417448997497559,,,,0.0,,,
3,/Users/cjpark/Desktop/ucla_courses/cs260r/assignment4/data/td3_agent_single_v11/td3,976,-2035.5844748542147,10306,4,10.555169820785522,-1.0009117126464844,,91.70997619628906,0.0,-0.7596145272254944,-0.7148798108100891,-0.9179190397262573
4,/Users/cjpark/Desktop/ucla_courses/cs260r/assignment4/data/td3_agent_single_v11/td3,395,-8660.994836103846,13306,5,33.61817979812622,-11.513659477233887,,153.0064697265625,0.0,-11.529598236083984,-11.535562515258789,-3.467350721359253
5,/Users/cjpark/Desktop/ucla_courses/cs260r/assignment4/data/td3_agent_single_v11/td3,286,-10151.1296415123,16306,6,56.84846591949463,-36.676063537597656,,256.8998718261719,0.0,-37.09798812866211,-37.13994598388672,-4.825530052185059
6,/Users/cjpark/Desktop/ucla_courses/cs260r/assignment4/data/td3_agent_single_v11/td3,244,-14040.041121990862,19084,7,77.92137885093689,-61.22481155395508,,277.45855712890625,0.0,-59.718849182128906,-59.80968475341797,-4.051650524139404
7,/Users/cjpark/Desktop/ucla_courses/cs260r/assignment4/data/td3_agent_single_v11/td3,219,-14116.253443827436,22084,8,100.53201580047607,-74.6832275390625,,221.205078125,0.0,-74.4305648803711,-74.5191650390625,-4.643304824829102
8,/Users/cjpark/Desktop/ucla_courses/cs260r/assignment4/data/td3_agent_single_v11/td3,204,-14670.284150820717,25084,9,122.92650985717773,-113.53688049316406,,266.68511962890625,0.0,-112.39585876464844,-112.49829864501953,-4.644387245178223
9,/Users/cjpark/Desktop/ucla_courses/cs260r/assignment4/data/td3_agent_single_v11/td3,192,-14723.280671681845,28084,10,145.8777129650116,-138.50584411621094,,301.21258544921875,0.0,-138.12017822265625,-138.2854766845703,-4.646402835845947
10,/Users/cjpark/Desktop/ucla_courses/cs260r/assignment4/data/td3_agent_single_v11/td3,184,-14889.450838905874,31084,11,168.4033079147339,-180.260498046875,,363.65325927734375,0.0,-179.85122680664062,-179.73541259765625,-5.423862457275391
11,/Users/cjpark/Desktop/ucla_courses/cs260r/assignment4/data/td3_agent_single_v11/td3,178,-19134.91383170869,34084,12,191.36398792266846,-274.47515869140625,,604.090087890625,0.0,-273.18719482421875,-273.01806640625,-8.754768371582031
12,/Users/cjpark/Desktop/ucla_courses/cs260r/assignment4/data/td3_agent_single_v11/td3,173,-21029.94905687127,37084,13,214.2132968902588,-285.08087158203125,,669.2479858398438,0.0,-287.2550354003906,-287.2737731933594,-6.604513168334961
13,/Users/cjpark/Desktop/ucla_courses/cs260r/assignment4/data/td3_agent_single_v11/td3,168,-20517.024071780997,40084,14,237.37889170646667,-298.5452880859375,,587.7930908203125,0.0,-298.7400817871094,-298.6372985839844,-8.560009002685547
14,/Users/cjpark/Desktop/ucla_courses/cs260r/assignment4/data/td3_agent_single_v11/td3,165,-20255.969885856586,43084,15,260.22685289382935,-331.9482421875,,657.77294921875,0.0,-330.08026123046875,-329.89697265625,-8.558027267456055
15,/Users/cjpark/Desktop/ucla_courses/cs260r/assignment4/data/td3_agent_single_v11/td3,162,-20196.40875053966,46084,16,283.4994897842407,-371.4937744140625,,512.8731689453125,0.0,-370.2779846191406,-370.552734375,-6.800550937652588
16,/Users/cjpark/Desktop/ucla_courses/cs260r/assignment4/data/td3_agent_single_v11/td3,159,-19002.431222844563,49084,17,308.026407957077,-301.0754699707031,,773.4013671875,0.0,-299.962158203125,-299.7911071777344,-5.043868541717529
17,/Users/cjpark/Desktop/ucla_courses/cs260r/assignment4/data/td3_agent_single_v11/td3,156,-17289.90026913879,52486,19,335.1007218360901,-356.2742614746094,,748.6428833007812,0.0,-353.4057312011719,-353.07623291015625,-7.976103782653809
18,/Users/cjpark/Desktop/ucla_courses/cs260r/assignment4/data/td3_agent_single_v11/td3,154,-16421.517324229673,55486,20,358.0124077796936,-318.5174560546875,,421.94647216796875,0.0,-321.46832275390625,-321.56475830078125,-5.43588399887085
19,/Users/cjpark/Desktop/ucla_courses/cs260r/assignment4/data/td3_agent_single_v11/td3,153,-15635.567405706985,58486,21,381.2971019744873,-290.3172302246094,,980.559814453125,0.0,-287.80206298828125,-287.80389404296875,-6.203011989593506
20,/Users/cjpark/Desktop/ucla_courses/cs260r/assignment4/data/td3_agent_single_v11/td3,151,-14920.562356315048,61486,22,405.07951378822327,-264.10662841796875,,818.5167236328125,0.0,-268.8094787597656,-268.4635925292969,-5.034481525421143
21,/Users/cjpark/Desktop/ucla_courses/cs260r/assignment4/data/td3_agent_single_v11/td3,150,-14268.244743535257,64486,23,429.20722103118896,-281.82537841796875,,1648.744873046875,0.0,-287.1747131347656,-286.9183654785156,-4.257172107696533
22,/Users/cjpark/Desktop/ucla_courses/cs260r/assignment4/data/td3_agent_single_v11/td3,148,-13670.265672007392,67486,24,454.1126148700714,-309.81341552734375,,784.6673583984375,0.0,-309.9366455078125,-309.9000244140625,-5.0459885597229
23,/Users/cjpark/Desktop/ucla_courses/cs260r/assignment4/data/td3_agent_single_v11/td3,147,-13119.998958471906,70486,25,478.91168785095215,-268.41766357421875,,443.5046691894531,0.0,-269.01824951171875,-268.50067138671875,-6.024047374725342
24,/Users/cjpark/Desktop/ucla_courses/cs260r/assignment4/data/td3_agent_single_v11/td3,146,-12603.050796824624,73486,26,503.25275182724,-236.20904541015625,,685.375732421875,0.0,-236.1748504638672,-236.31631469726562,-4.846927642822266
25,/Users/cjpark/Desktop/ucla_courses/cs260r/assignment4/data/td3_agent_single_v11/td3,145,-12132.46654672793,76486,27,526.4266560077667,-176.749755859375,,237.66439819335938,0.0,-181.26483154296875,-180.7439727783203,-2.108834743499756
26,/Users/cjpark/Desktop/ucla_courses/cs260r/assignment4/data/td3_agent_single_v11/td3,143,-11695.478894042173,79486,28,552.4201989173889,-215.9016571044922,,255.7769775390625,0.0,-216.56602478027344,-216.7798614501953,-4.653015613555908
27,/Users/cjpark/Desktop/ucla_courses/cs260r/assignment4/data/td3_agent_single_v11/td3,142,-11288.628249197118,82486,29,577.5812129974365,-168.55352783203125,,287.0440673828125,0.0,-166.06455993652344,-166.09603881835938,-3.08837890625
28,/Users/cjpark/Desktop/ucla_courses/cs260r/assignment4/data/td3_agent_single_v11/td3,141,-10908.828557994564,85486,30,603.5888090133667,-183.4297332763672,,376.724609375,0.0,-184.0927734375,-184.04586791992188,-3.8754043579101562
29,/Users/cjpark/Desktop/ucla_courses/cs260r/assignment4/data/td3_agent_single_v11/td3,141,-10553.616161555316,88486,31,627.1213347911835,-151.72869873046875,,615.720703125,0.0,-152.38967895507812,-152.38656616210938,-2.890364646911621
30,/Users/cjpark/Desktop/ucla_courses/cs260r/assignment4/data/td3_agent_single_v11/td3,140,-10220.430956596327,91486,32,650.515951871872,-187.83607482910156,,404.17913818359375,0.0,-187.07565307617188,-187.08827209472656,-2.494469404220581
31,/Users/cjpark/Desktop/ucla_courses/cs260r/assignment4/data/td3_agent_single_v11/td3,140,-9907.514516113535,94486,33,674.2785449028015,-182.38604736328125,,424.1208801269531,0.0,-181.2921142578125,-181.10841369628906,-3.871626138687134
32,/Users/cjpark/Desktop/ucla_courses/cs260r/assignment4/data/td3_agent_single_v11/td3,139,-9612.950530520982,97486,34,698.5852098464966,-191.59706115722656,,379.55657958984375,0.0,-192.6546173095703,-192.59193420410156,-2.894606351852417
33,/Users/cjpark/Desktop/ucla_courses/cs260r/assignment4/data/td3_agent_single_v11/td3,138,-9335.419060724023,100486,35,723.112174987793,-136.05775451660156,,363.46148681640625,0.0,-136.64161682128906,-136.6746826171875,-3.0850231647491455
34,/Users/cjpark/Desktop/ucla_courses/cs260r/assignment4/data/td3_agent_single_v11/td3,138,-9073.170137131043,103486,36,746.0282671451569,-176.24313354492188,,430.8408203125,0.0,-174.58802795410156,-174.53170776367188,-2.891331672668457
35,/Users/cjpark/Desktop/ucla_courses/cs260r/assignment4/data/td3_agent_single_v11/td3,138,-8825.106616318553,106486,37,769.3128430843353,-128.55210876464844,,218.9453125,0.0,-128.85134887695312,-128.42404174804688,-2.305872917175293
36,/Users/cjpark/Desktop/ucla_courses/cs260r/assignment4/data/td3_agent_single_v11/td3,137,-8590.074108114122,109486,38,795.4173808097839,-189.9348907470703,,193.10928344726562,0.0,-190.29251098632812,-190.44789123535156,-3.868318557739258
37,/Users/cjpark/Desktop/ucla_courses/cs260r/assignment4/data/td3_agent_single_v11/td3,137,-8367.03513827628,112486,39,818.9782118797302,-129.51657104492188,,326.5770263671875,0.0,-129.94178771972656,-130.0718231201172,-1.9200139045715332
38,/Users/cjpark/Desktop/ucla_courses/cs260r/assignment4/data/td3_agent_single_v11/td3,137,-8155.344378628821,115486,40,842.6966319084167,-147.357666015625,,619.91845703125,0.0,-147.82687377929688,-147.47071838378906,-2.114311456680298
39,/Users/cjpark/Desktop/ucla_courses/cs260r/assignment4/data/td3_agent_single_v11/td3,136,-7953.884543111371,118486,41,866.7833859920502,-144.4232940673828,,178.51467895507812,0.0,-144.14169311523438,-143.93338012695312,-2.6992924213409424
40,/Users/cjpark/Desktop/ucla_courses/cs260r/assignment4/data/td3_agent_single_v11/td3,136,-7762.123054288306,121486,42,890.8345398902893,-178.71998596191406,,380.96221923828125,0.0,-179.8251495361328,-179.61595153808594,-3.2869186401367188
41,/Users/cjpark/Desktop/ucla_courses/cs260r/assignment4/data/td3_agent_single_v11/td3,134,-7579.305266611178,124486,43,923.907961845398,-108.88041687011719,,159.96450805664062,0.0,-107.85230255126953,-107.8134536743164,-2.8909759521484375
