cjunkin/reinforcement-learning/metaracer/data/td3_agent_single_v6/td3/progress.csv
,log_dir,frame_per_second,episode_reward,total_steps,total_episodes,total_time,target_q,actor_loss,critic_loss,success_rate,current_q1,current_q2,reward
0,/Users/cjpark/Desktop/ucla_courses/cs260r/assignment4/data/td3_agent_single_v6/td3,1499,26.746939659118652,2999,1,2.000439167022705,,,,0.0,,,
1,/Users/cjpark/Desktop/ucla_courses/cs260r/assignment4/data/td3_agent_single_v6/td3,1492,27.909920692443848,5999,2,4.018270969390869,,,,0.0,,,
2,/Users/cjpark/Desktop/ucla_courses/cs260r/assignment4/data/td3_agent_single_v6/td3,1531,29.267709096272785,8999,3,5.8749730587005615,,,,0.0,,,
3,/Users/cjpark/Desktop/ucla_courses/cs260r/assignment4/data/td3_agent_single_v6/td3,717,-1518.4119653701782,11999,4,16.72403907775879,2.4631264209747314,-4.6351470947265625,15.447153091430664,0.0,2.1992125511169434,2.151618242263794,-0.1855349987745285
4,/Users/cjpark/Desktop/ucla_courses/cs260r/assignment4/data/td3_agent_single_v6/td3,458,-4434.391796875,14999,5,32.691781997680664,4.816932201385498,-5.486297130584717,58.11872863769531,0.0,3.915001153945923,3.8229775428771973,-0.969195544719696
5,/Users/cjpark/Desktop/ucla_courses/cs260r/assignment4/data/td3_agent_single_v6/td3,362,-5994.985116640727,17805,6,49.10848903656006,-13.822161674499512,10.90066146850586,178.32736206054688,0.0,-11.650152206420898,-11.685653686523438,-3.899353504180908
6,/Users/cjpark/Desktop/ucla_courses/cs260r/assignment4/data/td3_agent_single_v6/td3,320,-7316.840656552996,20776,7,64.76090097427368,-28.59016990661621,,181.5273895263672,0.0,-28.200164794921875,-28.33795738220215,-3.312880754470825
7,/Users/cjpark/Desktop/ucla_courses/cs260r/assignment4/data/td3_agent_single_v6/td3,294,-8252.0185816288,23776,8,80.69465208053589,-58.90773391723633,,210.9587860107422,0.0,-59.306884765625,-59.35580825805664,-3.704977035522461
8,/Users/cjpark/Desktop/ucla_courses/cs260r/assignment4/data/td3_agent_single_v6/td3,277,-9107.180031670465,26776,9,96.65365505218506,-68.5580825805664,,132.93148803710938,0.0,-69.97979736328125,-70.06009674072266,-1.362017273902893
9,/Users/cjpark/Desktop/ucla_courses/cs260r/assignment4/data/td3_agent_single_v6/td3,264,-9786.267785644532,29776,10,112.53825902938843,-112.81145477294922,,262.2459716796875,0.0,-110.64608001708984,-110.6427230834961,-2.925971508026123
10,/Users/cjpark/Desktop/ucla_courses/cs260r/assignment4/data/td3_agent_single_v6/td3,254,-10096.408109058033,32776,11,128.62168622016907,-129.07058715820312,,326.9363098144531,0.0,-127.44385528564453,-127.3222885131836,-2.922161340713501
11,/Users/cjpark/Desktop/ucla_courses/cs260r/assignment4/data/td3_agent_single_v6/td3,248,-10509.061943848928,35776,12,144.17084503173828,-158.1595916748047,,245.8408203125,0.0,-158.75904846191406,-158.71388244628906,-4.292967319488525
12,/Users/cjpark/Desktop/ucla_courses/cs260r/assignment4/data/td3_agent_single_v6/td3,242,-10773.61778494028,38776,13,159.97864294052124,-184.10643005371094,,306.74005126953125,0.0,-182.97286987304688,-182.76882934570312,-4.098451614379883
13,/Users/cjpark/Desktop/ucla_courses/cs260r/assignment4/data/td3_agent_single_v6/td3,237,-11350.392066683087,41776,14,175.62573504447937,-235.158447265625,,368.7584228515625,0.0,-234.5243682861328,-234.77993774414062,-4.292104721069336
14,/Users/cjpark/Desktop/ucla_courses/cs260r/assignment4/data/td3_agent_single_v6/td3,234,-11407.070292663575,44190,15,188.49943709373474,-203.8114776611328,,292.29302978515625,0.0,-204.20541381835938,-203.90191650390625,-4.684137344360352
15,/Users/cjpark/Desktop/ucla_courses/cs260r/assignment4/data/td3_agent_single_v6/td3,230,-11284.644862949848,47190,16,204.38190817832947,-213.8275146484375,,460.1615905761719,0.0,-215.34432983398438,-215.24868774414062,-3.3178234100341797
16,/Users/cjpark/Desktop/ucla_courses/cs260r/assignment4/data/td3_agent_single_v6/td3,228,-11073.741065922906,50190,17,220.0789442062378,-242.842041015625,,276.82818603515625,0.0,-242.97439575195312,-243.36862182617188,-2.536900281906128
17,/Users/cjpark/Desktop/ucla_courses/cs260r/assignment4/data/td3_agent_single_v6/td3,225,-10480.53637456894,53190,18,236.04249906539917,-272.2514343261719,,312.04449462890625,0.0,-273.48944091796875,-273.58795166015625,-4.685696601867676
18,/Users/cjpark/Desktop/ucla_courses/cs260r/assignment4/data/td3_agent_single_v6/td3,223,-9939.26069073928,56190,19,251.7404282093048,-179.76953125,,392.14068603515625,0.0,-180.5224609375,-180.70236206054688,-2.9281182289123535
19,/Users/cjpark/Desktop/ucla_courses/cs260r/assignment4/data/td3_agent_single_v6/td3,221,-9467.10124425888,59190,20,267.4812080860138,-190.91549682617188,,325.3609313964844,0.0,-192.87014770507812,-193.3566436767578,-3.7068233489990234
20,/Users/cjpark/Desktop/ucla_courses/cs260r/assignment4/data/td3_agent_single_v6/td3,219,-9016.137201944986,62190,21,283.0585560798645,-149.6797637939453,,309.2019958496094,0.0,-148.2823944091797,-148.64219665527344,-2.5360770225524902
21,/Users/cjpark/Desktop/ucla_courses/cs260r/assignment4/data/td3_agent_single_v6/td3,218,-8676.56514042074,65190,22,299.01541113853455,-164.571044921875,,258.6200256347656,0.0,-164.17137145996094,-165.10447692871094,-3.709629774093628
22,/Users/cjpark/Desktop/ucla_courses/cs260r/assignment4/data/td3_agent_single_v6/td3,216,-8303.472204788872,68190,23,314.67984914779663,-125.55567932128906,,239.63406372070312,0.0,-124.81903076171875,-124.46710968017578,-2.536647081375122
23,/Users/cjpark/Desktop/ucla_courses/cs260r/assignment4/data/td3_agent_single_v6/td3,215,-7963.535460352898,71190,24,330.94920206069946,-133.2293243408203,,313.8428955078125,0.0,-133.8292999267578,-134.19810485839844,-3.3182902336120605
24,/Users/cjpark/Desktop/ucla_courses/cs260r/assignment4/data/td3_agent_single_v6/td3,213,-7646.79342327118,74190,25,347.3653471469879,-122.10890197753906,,274.36236572265625,0.0,-123.52146911621094,-122.20347595214844,-2.3417797088623047
25,/Users/cjpark/Desktop/ucla_courses/cs260r/assignment4/data/td3_agent_single_v6/td3,212,-7375.584354767432,77190,26,363.07859110832214,-96.09771728515625,,147.64801025390625,0.0,-97.811767578125,-97.35539245605469,-1.5607503652572632
26,/Users/cjpark/Desktop/ucla_courses/cs260r/assignment4/data/td3_agent_single_v6/td3,211,-7102.231626828511,80190,27,379.6598780155182,-110.21870422363281,,215.7803955078125,0.0,-112.24017333984375,-112.07123565673828,-2.3417696952819824
27,/Users/cjpark/Desktop/ucla_courses/cs260r/assignment4/data/td3_agent_single_v6/td3,208,-8171.6418215206695,83190,28,399.69918489456177,-82.29132843017578,,257.9341125488281,0.0,-82.86323547363281,-82.40238952636719,-2.731715202331543
28,/Users/cjpark/Desktop/ucla_courses/cs260r/assignment4/data/td3_agent_single_v6/td3,205,-7898.281758341296,86190,29,419.5207691192627,-68.22657012939453,,147.99441528320312,0.0,-67.43871307373047,-66.9971694946289,-1.9507057666778564
29,/Users/cjpark/Desktop/ucla_courses/cs260r/assignment4/data/td3_agent_single_v6/td3,202,-8058.193978500366,89190,30,439.8394179344177,-66.79933166503906,,174.91973876953125,0.0,-66.25011444091797,-66.61460876464844,-2.731489658355713
30,/Users/cjpark/Desktop/ucla_courses/cs260r/assignment4/data/td3_agent_single_v6/td3,200,-7798.126324868971,92190,31,460.27374505996704,-60.232933044433594,,163.51097106933594,0.0,-61.65446853637695,-62.71207046508789,-0.9740264415740967
31,/Users/cjpark/Desktop/ucla_courses/cs260r/assignment4/data/td3_agent_single_v6/td3,198,-8010.55835083127,95190,32,480.6197872161865,-88.84654235839844,,234.23931884765625,0.0,-89.47541809082031,-88.66607666015625,-3.1221799850463867
32,/Users/cjpark/Desktop/ucla_courses/cs260r/assignment4/data/td3_agent_single_v6/td3,195,-8429.791815786652,98190,33,501.04560589790344,-95.26171875,,174.35914611816406,0.0,-93.8852767944336,-93.49139404296875,-2.7326982021331787
33,/Users/cjpark/Desktop/ucla_courses/cs260r/assignment4/data/td3_agent_single_v6/td3,194,-8680.247391364153,101190,34,521.2464420795441,-97.48426818847656,,309.6420593261719,0.0,-94.12310028076172,-93.6517562866211,-4.488896369934082
34,/Users/cjpark/Desktop/ucla_courses/cs260r/assignment4/data/td3_agent_single_v6/td3,192,-8431.748973383223,104190,35,542.327151298523,-96.74990844726562,,241.6763458251953,0.0,-95.01656341552734,-95.46710205078125,-3.5127837657928467
35,/Users/cjpark/Desktop/ucla_courses/cs260r/assignment4/data/td3_agent_single_v6/td3,190,-8197.112600141101,107190,36,562.4561080932617,-85.8839111328125,,168.0121307373047,0.0,-84.89698791503906,-84.51969146728516,-3.51411509513855
36,/Users/cjpark/Desktop/ucla_courses/cs260r/assignment4/data/td3_agent_single_v6/td3,189,-7975.449781263197,110190,37,582.5882971286774,-109.20167541503906,,150.96365356445312,0.0,-110.03878784179688,-110.154296875,-2.73283052444458
37,/Users/cjpark/Desktop/ucla_courses/cs260r/assignment4/data/td3_agent_single_v6/td3,187,-7765.283063487002,113190,38,602.7733840942383,-86.60269165039062,,162.82513427734375,0.0,-86.97319030761719,-86.33204650878906,-2.3405797481536865
38,/Users/cjpark/Desktop/ucla_courses/cs260r/assignment4/data/td3_agent_single_v6/td3,186,-7565.814101243631,116190,39,623.1170370578766,-72.98565673828125,,184.68675231933594,0.0,-73.32957458496094,-73.64977264404297,-2.3416810035705566
39,/Users/cjpark/Desktop/ucla_courses/cs260r/assignment4/data/td3_agent_single_v6/td3,185,-8112.600551605225,119190,40,643.8599781990051,-91.67225646972656,,416.9433288574219,0.0,-91.50181579589844,-91.66828155517578,-2.731511116027832
40,/Users/cjpark/Desktop/ucla_courses/cs260r/assignment4/data/td3_agent_single_v6/td3,184,-7914.463781775497,122190,41,661.9969851970673,-93.80294036865234,,320.54132080078125,0.0,-91.16488647460938,-91.54541778564453,-2.9276280403137207
41,/Users/cjpark/Desktop/ucla_courses/cs260r/assignment4/data/td3_agent_single_v6/td3,183,-7725.760631243388,125190,42,682.1765372753143,-83.37948608398438,,249.12673950195312,0.0,-80.7077865600586,-80.67102813720703,-3.709049940109253
42,/Users/cjpark/Desktop/ucla_courses/cs260r/assignment4/data/td3_agent_single_v6/td3,182,-7545.823693053667,128190,43,702.8823072910309,-90.86849975585938,,303.247802734375,0.0,-91.99121856689453,-90.12875366210938,-3.7081139087677
43,/Users/cjpark/Desktop/ucla_courses/cs260r/assignment4/data/td3_agent_single_v6/td3,181,-7374.0887946432285,131190,44,723.5167391300201,-91.80194091796875,,177.27740478515625,0.0,-91.57784271240234,-92.00990295410156,-2.7320261001586914
44,/Users/cjpark/Desktop/ucla_courses/cs260r/assignment4/data/td3_agent_single_v6/td3,180,-7209.937359619141,134190,45,744.285994052887,-97.12538146972656,,160.38145446777344,0.0,-97.75325775146484,-97.4685287475586,-1.950911283493042
45,/Users/cjpark/Desktop/ucla_courses/cs260r/assignment4/data/td3_agent_single_v6/td3,179,-7052.862225573996,137190,46,764.9700481891632,-81.64241027832031,,278.619384765625,0.0,-80.18335723876953,-81.2685317993164,-2.3404064178466797
46,/Users/cjpark/Desktop/ucla_courses/cs260r/assignment4/data/td3_agent_single_v6/td3,178,-6902.490085703262,140190,47,786.2945010662079,-79.6299819946289,,350.9558410644531,0.0,-77.35014343261719,-78.56233215332031,-2.338190793991089
47,/Users/cjpark/Desktop/ucla_courses/cs260r/assignment4/data/td3_agent_single_v6/td3,177,-6758.48733073473,143190,48,806.2414650917053,-86.82490539550781,,231.18438720703125,0.0,-87.34542083740234,-87.50687408447266,-2.1481921672821045
48,/Users/cjpark/Desktop/ucla_courses/cs260r/assignment4/data/td3_agent_single_v6/td3,176,-6620.5740484704775,146190,49,827.3556461334229,-97.07171630859375,,283.6086120605469,0.0,-98.03909301757812,-97.06596374511719,-1.9512096643447876
49,/Users/cjpark/Desktop/ucla_courses/cs260r/assignment4/data/td3_agent_single_v6/td3,176,-6488.0058772087095,149190,50,847.5684952735901,-120.44969177246094,,326.534423828125,0.0,-120.64866638183594,-120.32713317871094,-3.1231725215911865
50,/Users/cjpark/Desktop/ucla_courses/cs260r/assignment4/data/td3_agent_single_v6/td3,175,-6360.47906329585,152190,51,867.9502720832825,-106.40586853027344,,362.288818359375,0.0,-105.41459655761719,-104.3037109375,-2.535276174545288
51,/Users/cjpark/Desktop/ucla_courses/cs260r/assignment4/data/td3_agent_single_v6/td3,174,-6237.830193611292,155190,52,888.5820980072021,-93.78057861328125,,287.64837646484375,0.0,-89.8386459350586,-89.10087585449219,-2.3413312435150146
52,/Users/cjpark/Desktop/ucla_courses/cs260r/assignment4/data/td3_agent_single_v6/td3,173,-6119.818679539662,158190,53,909.7301020622253,-93.33750915527344,,448.63043212890625,0.0,-92.12539672851562,-92.0958023071289,-2.145118236541748
53,/Users/cjpark/Desktop/ucla_courses/cs260r/assignment4/data/td3_agent_single_v6/td3,173,-6006.173178160632,161190,54,929.8113329410553,-88.43022918701172,,136.69845581054688,0.0,-87.24552917480469,-87.27398681640625,-1.3650014400482178
54,/Users/cjpark/Desktop/ucla_courses/cs260r/assignment4/data/td3_agent_single_v6/td3,172,-5896.702606201172,164190,55,950.7223381996155,-97.83943176269531,,307.96319580078125,0.0,-98.62791442871094,-97.26976776123047,-1.363743543624878
55,/Users/cjpark/Desktop/ucla_courses/cs260r/assignment4/data/td3_agent_single_v6/td3,172,-5791.339657391821,167190,56,971.148674249649,-100.5977783203125,,249.1468963623047,0.0,-99.72271728515625,-99.72506713867188,-2.145631790161133
56,/Users/cjpark/Desktop/ucla_courses/cs260r/assignment4/data/td3_agent_single_v6/td3,171,-5689.548828325774,170190,57,991.7373352050781,-127.9496841430664,,249.62379455566406,0.0,-128.89447021484375,-129.39694213867188,-2.34275484085083
57,/Users/cjpark/Desktop/ucla_courses/cs260r/assignment4/data/td3_agent_single_v6/td3,170,-5590.741021550935,173190,58,1012.955836057663,-115.82293701171875,,192.52691650390625,0.0,-115.3078842163086,-112.93242645263672,-2.7314467430114746
58,/Users/cjpark/Desktop/ucla_courses/cs260r/assignment4/data/td3_agent_single_v6/td3,170,-5495.529962087082,176190,59,1033.8794040679932,-106.08643341064453,,349.808349609375,0.0,-106.11674499511719,-107.0318603515625,-1.7529876232147217
59,/Users/cjpark/Desktop/ucla_courses/cs260r/assignment4/data/td3_agent_single_v6/td3,169,-5403.17872262001,179190,60,1055.163183927536,-89.59892272949219,,535.158447265625,0.0,-91.6250228881836,-92.33616638183594,-1.7538552284240723
60,/Users/cjpark/Desktop/ucla_courses/cs260r/assignment4/data/td3_agent_single_v6/td3,169,-5314.345541969675,182190,61,1075.4086029529572,-111.86659240722656,,391.3341064453125,0.0,-111.4381332397461,-110.89324951171875,-1.561277151107788
61,/Users/cjpark/Desktop/ucla_courses/cs260r/assignment4/data/td3_agent_single_v6/td3,169,-5228.387381938196,185190,62,1095.6173861026764,-103.83627319335938,,221.00885009765625,0.0,-104.24857330322266,-103.99691009521484,-2.729300022125244
62,/Users/cjpark/Desktop/ucla_courses/cs260r/assignment4/data/td3_agent_single_v6/td3,168,-5145.1924252737135,188190,63,1115.8607320785522,-105.23896789550781,,162.55946350097656,0.0,-103.77230072021484,-103.45801544189453,-2.1443240642547607
63,/Users/cjpark/Desktop/ucla_courses/cs260r/assignment4/data/td3_agent_single_v6/td3,168,-5064.626717120409,191190,64,1136.2666409015656,-107.09918975830078,,155.48687744140625,0.0,-108.90672302246094,-108.03926849365234,-1.1698554754257202
64,/Users/cjpark/Desktop/ucla_courses/cs260r/assignment4/data/td3_agent_single_v6/td3,167,-4986.778121992258,194190,65,1156.707896232605,-109.10041046142578,,196.42115783691406,0.0,-109.06449890136719,-108.51079559326172,-2.1452157497406006
65,/Users/cjpark/Desktop/ucla_courses/cs260r/assignment4/data/td3_agent_single_v6/td3,167,-4911.051413825064,197190,66,1177.2846281528473,-108.56507873535156,,182.14920043945312,0.0,-106.40870666503906,-105.58865356445312,-2.5359041690826416
66,/Users/cjpark/Desktop/ucla_courses/cs260r/assignment4/data/td3_agent_single_v6/td3,167,-4837.6883919559305,200190,67,1198.2617330551147,-102.80069732666016,,243.30691528320312,0.0,-100.9127197265625,-102.75731658935547,-2.338881254196167
67,/Users/cjpark/Desktop/ucla_courses/cs260r/assignment4/data/td3_agent_single_v6/td3,166,-4766.5442605719845,203190,68,1218.3557929992676,-121.29325866699219,,180.88145446777344,0.0,-119.66159057617188,-120.09025573730469,-2.7286558151245117
68,/Users/cjpark/Desktop/ucla_courses/cs260r/assignment4/data/td3_agent_single_v6/td3,166,-4697.485686067222,206190,69,1238.3457202911377,-127.07986450195312,,177.85501098632812,0.0,-127.3285140991211,-127.12484741210938,-2.340204954147339
69,/Users/cjpark/Desktop/ucla_courses/cs260r/assignment4/data/td3_agent_single_v6/td3,166,-4630.425698184967,209190,70,1258.6499321460724,-111.23202514648438,,212.38882446289062,0.0,-111.46497344970703,-110.73271942138672,-1.7546626329421997
70,/Users/cjpark/Desktop/ucla_courses/cs260r/assignment4/data/td3_agent_single_v6/td3,165,-4565.176417001536,212190,71,1278.9453961849213,-133.55580139160156,,171.899169921875,0.0,-134.2309112548828,-133.6669464111328,-1.7563104629516602
71,/Users/cjpark/Desktop/ucla_courses/cs260r/assignment4/data/td3_agent_single_v6/td3,165,-4501.797418819533,215190,72,1297.8338630199432,-111.59774780273438,,209.18011474609375,0.0,-108.45088195800781,-107.67595672607422,-1.1682376861572266
72,/Users/cjpark/Desktop/ucla_courses/cs260r/assignment4/data/td3_agent_single_v6/td3,165,-4440.1613970586695,218190,73,1316.5851790904999,-110.26637268066406,,222.67727661132812,0.0,-110.07276916503906,-109.32984161376953,-1.7560381889343262
73,/Users/cjpark/Desktop/ucla_courses/cs260r/assignment4/data/td3_agent_single_v6/td3,165,-4380.2241845002045,221190,74,1335.1969139575958,-113.18280792236328,,192.87954711914062,0.0,-112.35456848144531,-114.05484771728516,-2.7308878898620605
74,/Users/cjpark/Desktop/ucla_courses/cs260r/assignment4/data/td3_agent_single_v6/td3,165,-4321.856731847127,224190,75,1354.4191250801086,-106.33128356933594,,117.46726989746094,0.0,-107.83975982666016,-107.0484390258789,-2.5368025302886963
75,/Users/cjpark/Desktop/ucla_courses/cs260r/assignment4/data/td3_agent_single_v6/td3,165,-4265.014930198067,227190,76,1372.9514911174774,-98.24878692626953,,275.61468505859375,0.0,-98.94700622558594,-99.80376434326172,-1.559852123260498
76,/Users/cjpark/Desktop/ucla_courses/cs260r/assignment4/data/td3_agent_single_v6/td3,165,-4209.662652151926,230190,77,1391.3879849910736,-111.24097442626953,,211.05722045898438,0.0,-110.02864074707031,-107.8511734008789,-2.728891372680664
77,/Users/cjpark/Desktop/ucla_courses/cs260r/assignment4/data/td3_agent_single_v6/td3,165,-4155.741969683231,233190,78,1410.3877670764923,-117.66789245605469,,224.80099487304688,0.0,-117.90879821777344,-117.22061920166016,-1.1670823097229004
78,/Users/cjpark/Desktop/ucla_courses/cs260r/assignment4/data/td3_agent_single_v6/td3,165,-4103.168523571159,236190,79,1430.0008499622345,-94.52094268798828,,139.321044921875,0.0,-94.20206451416016,-95.16517639160156,-0.9741053581237793
79,/Users/cjpark/Desktop/ucla_courses/cs260r/assignment4/data/td3_agent_single_v6/td3,165,-4051.9172503829004,239190,80,1448.7818911075592,-116.1112289428711,,183.6103515625,0.0,-116.02415466308594,-115.81905364990234,-0.5841957330703735
80,/Users/cjpark/Desktop/ucla_courses/cs260r/assignment4/data/td3_agent_single_v6/td3,164,-4001.9413147325868,242190,81,1468.0565750598907,-100.6491928100586,,259.37774658203125,0.0,-100.9671859741211,-100.92424774169922,-0.9748489856719971
81,/Users/cjpark/Desktop/ucla_courses/cs260r/assignment4/data/td3_agent_single_v6/td3,164,-3953.1727670576515,245190,82,1487.3224992752075,-93.63701629638672,,249.7140350341797,0.0,-93.7737808227539,-93.62950897216797,-0.38826504349708557
82,/Users/cjpark/Desktop/ucla_courses/cs260r/assignment4/data/td3_agent_single_v6/td3,164,-3905.580911889134,248190,83,1507.0423262119293,-93.97438049316406,,123.91567993164062,0.0,-95.24674224853516,-94.6221694946289,-1.1702468395233154
83,/Users/cjpark/Desktop/ucla_courses/cs260r/assignment4/data/td3_agent_single_v6/td3,164,-3859.1175281206765,251190,84,1524.255578994751,-107.9212646484375,,125.24598693847656,0.0,-108.65534210205078,-109.47425079345703,-1.167809247970581
84,/Users/cjpark/Desktop/ucla_courses/cs260r/assignment4/data/td3_agent_single_v6/td3,165,-3813.7510033887975,254190,85,1540.3806490898132,-95.46823120117188,,131.91053771972656,0.0,-96.24781799316406,-95.26214599609375,-1.3651055097579956
85,/Users/cjpark/Desktop/ucla_courses/cs260r/assignment4/data/td3_agent_single_v6/td3,164,-3769.4348082320635,257190,86,1559.3803751468658,-96.05914306640625,,204.9512481689453,0.0,-96.59695434570312,-96.09349060058594,-0.7799428105354309
86,/Users/cjpark/Desktop/ucla_courses/cs260r/assignment4/data/td3_agent_single_v6/td3,164,-3726.145874396138,260190,87,1578.2292561531067,-95.42929077148438,,110.95994567871094,0.0,-95.90897369384766,-95.09747314453125,-0.9742869138717651
87,/Users/cjpark/Desktop/ucla_courses/cs260r/assignment4/data/td3_agent_single_v6/td3,164,-3683.8199514584107,263190,88,1597.1857171058655,-89.20409393310547,,153.62460327148438,0.0,-89.92011260986328,-89.2279281616211,-0.7799268960952759
88,/Users/cjpark/Desktop/ucla_courses/cs260r/assignment4/data/td3_agent_single_v6/td3,164,-3642.452880355749,266190,89,1616.8954691886902,-87.68468475341797,,99.51588439941406,0.0,-88.69440460205078,-90.07942962646484,-0.38929611444473267
89,/Users/cjpark/Desktop/ucla_courses/cs260r/assignment4/data/td3_agent_single_v6/td3,164,-3601.999811384413,269190,90,1636.326152086258,-93.39494323730469,,121.53797912597656,0.0,-92.21826934814453,-91.61447143554688,-1.3654887676239014
90,/Users/cjpark/Desktop/ucla_courses/cs260r/assignment4/data/td3_agent_single_v6/td3,164,-3562.4291177372356,272190,91,1655.4101991653442,-88.91828155517578,,408.037841796875,0.0,-89.08541107177734,-89.28704071044922,-1.1699013710021973
91,/Users/cjpark/Desktop/ucla_courses/cs260r/assignment4/data/td3_agent_single_v6/td3,164,-3523.7308979760046,275190,92,1674.1343791484833,-96.86917877197266,,151.26101684570312,0.0,-96.94283294677734,-97.90621948242188,-1.1701736450195312
92,/Users/cjpark/Desktop/ucla_courses/cs260r/assignment4/data/td3_agent_single_v6/td3,164,-3485.878837165012,278190,93,1693.3132870197296,-110.42160034179688,,147.822509765625,0.0,-109.681884765625,-107.68768310546875,-0.9748530387878418
93,/Users/cjpark/Desktop/ucla_courses/cs260r/assignment4/data/td3_agent_single_v6/td3,164,-3448.8088759767247,281190,94,1713.4873390197754,-97.4732437133789,,172.610595703125,0.0,-96.6911392211914,-97.65258026123047,-1.5590863227844238
94,/Users/cjpark/Desktop/ucla_courses/cs260r/assignment4/data/td3_agent_single_v6/td3,163,-3412.50917141563,284190,95,1734.0159940719604,-87.55686950683594,,94.74211120605469,0.0,-89.17364501953125,-89.49552917480469,-1.3658607006072998
95,/Users/cjpark/Desktop/ucla_courses/cs260r/assignment4/data/td3_agent_single_v6/td3,163,-3376.9700748622417,287190,96,1753.616461277008,-86.29722595214844,,116.06798553466797,0.0,-85.97623443603516,-85.98111724853516,-0.7783276438713074
96,/Users/cjpark/Desktop/ucla_courses/cs260r/assignment4/data/td3_agent_single_v6/td3,163,-3342.1689984331424,290190,97,1772.6985292434692,-103.4582290649414,,153.8651885986328,0.0,-103.37887573242188,-102.82540893554688,-2.147808074951172
97,/Users/cjpark/Desktop/ucla_courses/cs260r/assignment4/data/td3_agent_single_v6/td3,163,-3308.085365032663,293190,98,1791.6325929164886,-85.88500213623047,,149.83316040039062,0.0,-86.49173736572266,-86.3140869140625,-1.3652921915054321
98,/Users/cjpark/Desktop/ucla_courses/cs260r/assignment4/data/td3_agent_single_v6/td3,163,-3274.7047930823433,296190,99,1810.4871759414673,-90.07073974609375,,208.9306640625,0.0,-88.93624877929688,-88.84747314453125,-2.148411989212036
99,/Users/cjpark/Desktop/ucla_courses/cs260r/assignment4/data/td3_agent_single_v6/td3,163,-3241.9919071769714,299190,100,1829.2785580158234,-72.0617904663086,,81.18640899658203,0.0,-69.74050903320312,-70.61474609375,-0.780197024345398
100,/Users/cjpark/Desktop/ucla_courses/cs260r/assignment4/data/td3_agent_single_v6/td3,163,-3242.3046070098876,302190,101,1848.4806370735168,-69.63243103027344,,156.60037231445312,0.0,-68.48333740234375,-68.30066680908203,-0.7779136896133423
101,/Users/cjpark/Desktop/ucla_courses/cs260r/assignment4/data/td3_agent_single_v6/td3,163,-3242.647957210541,305190,102,1868.456073999405,-90.18528747558594,,122.15633392333984,0.0,-90.61503601074219,-90.10929870605469,-1.3659298419952393
102,/Users/cjpark/Desktop/ucla_courses/cs260r/assignment4/data/td3_agent_single_v6/td3,163,-3243.008645219803,308190,103,1887.246246099472,-85.56786346435547,,291.722900390625,0.0,-85.58097076416016,-84.60099792480469,-1.3657231330871582
103,/Users/cjpark/Desktop/ucla_courses/cs260r/assignment4/data/td3_agent_single_v6/td3,163,-3181.439669046402,311190,104,1906.594624042511,-73.15225982666016,,681.1435546875,0.0,-74.04080200195312,-74.19662475585938,-0.19258099794387817
104,/Users/cjpark/Desktop/ucla_courses/cs260r/assignment4/data/td3_agent_single_v6/td3,163,-3020.5005542087556,314190,105,1924.8745548725128,-64.11302185058594,,109.59336853027344,0.0,-61.16919708251953,-62.00224304199219,-0.9756039381027222
105,/Users/cjpark/Desktop/ucla_courses/cs260r/assignment4/data/td3_agent_single_v6/td3,163,-2882.545929775238,317190,106,1943.7786371707916,-73.37906646728516,,116.44622802734375,0.0,-71.9480972290039,-73.47171020507812,-0.7788187861442566
106,/Users/cjpark/Desktop/ucla_courses/cs260r/assignment4/data/td3_agent_single_v6/td3,163,-2730.091968545914,320190,107,1962.3937101364136,-56.57042694091797,,224.37757873535156,0.0,-56.33928680419922,-56.829444885253906,-0.7780765295028687
107,/Users/cjpark/Desktop/ucla_courses/cs260r/assignment4/data/td3_agent_single_v6/td3,163,-2582.1282154273986,323190,108,1981.2248530387878,-63.14643478393555,,106.92127990722656,0.0,-63.12071990966797,-61.201900482177734,-0.9750893115997314
108,/Users/cjpark/Desktop/ucla_courses/cs260r/assignment4/data/td3_agent_single_v6/td3,163,-2422.658785085678,326190,109,2000.988076210022,-60.03205490112305,,92.40476989746094,0.0,-60.017520904541016,-59.59492492675781,-0.38869509100914
109,/Users/cjpark/Desktop/ucla_courses/cs260r/assignment4/data/td3_agent_single_v6/td3,162,-2263.687774744034,329190,110,2020.222511291504,-40.972686767578125,,96.797119140625,0.0,-39.528594970703125,-41.81673812866211,-0.5843507051467896
110,/Users/cjpark/Desktop/ucla_courses/cs260r/assignment4/data/td3_agent_single_v6/td3,162,-2131.722575454712,332190,111,2040.5138711929321,-57.71443557739258,,87.87836456298828,0.0,-57.8838996887207,-57.312252044677734,-0.5836929082870483
111,/Users/cjpark/Desktop/ucla_courses/cs260r/assignment4/data/td3_agent_single_v6/td3,162,-1981.2510192012787,335190,112,2060.2838349342346,-66.97625732421875,,232.26072692871094,0.0,-66.2458267211914,-67.30210876464844,-1.170288324356079
112,/Users/cjpark/Desktop/ucla_courses/cs260r/assignment4/data/td3_agent_single_v6/td3,162,-1841.665214548111,338190,113,2080.299994945526,-62.31748580932617,,181.50865173339844,0.0,-62.83877944946289,-61.887962341308594,-0.584527850151062
113,/Users/cjpark/Desktop/ucla_courses/cs260r/assignment4/data/td3_agent_single_v6/td3,162,-1653.1051455688475,341190,114,2099.892864227295,-77.46858215332031,,226.41983032226562,0.0,-78.42842102050781,-76.2192611694336,-1.3658719062805176
114,/Users/cjpark/Desktop/ucla_courses/cs260r/assignment4/data/td3_agent_single_v6/td3,162,-1530.9809562683106,344190,115,2119.190351963043,-82.31010437011719,,86.56266784667969,0.0,-83.32501220703125,-84.03080749511719,-0.9748960733413696
115,/Users/cjpark/Desktop/ucla_courses/cs260r/assignment4/data/td3_agent_single_v6/td3,162,-1436.3334222602844,347190,116,2138.2745440006256,-46.75820541381836,,373.316650390625,0.0,-47.595985412597656,-48.26844787597656,-0.3869684338569641
116,/Users/cjpark/Desktop/ucla_courses/cs260r/assignment4/data/td3_agent_single_v6/td3,162,-1359.2396128940582,350190,117,2157.403916120529,-62.353538513183594,,243.7764892578125,0.0,-63.63925552368164,-63.33174514770508,-0.38888999819755554
117,/Users/cjpark/Desktop/ucla_courses/cs260r/assignment4/data/td3_agent_single_v6/td3,162,-1355.1910874557495,353190,118,2175.9966332912445,-71.91629028320312,,124.49494171142578,0.0,-71.87981414794922,-70.44540405273438,-1.3646743297576904
118,/Users/cjpark/Desktop/ucla_courses/cs260r/assignment4/data/td3_agent_single_v6/td3,162,-1353.2069956874848,356190,119,2194.8223922252655,-73.62122344970703,,128.69464111328125,0.0,-74.93463897705078,-75.4034423828125,-0.7786550521850586
119,/Users/cjpark/Desktop/ucla_courses/cs260r/assignment4/data/td3_agent_single_v6/td3,162,-1348.2460525894164,359190,120,2213.404135942459,-63.701820373535156,,106.09033966064453,0.0,-64.05712127685547,-64.7170639038086,-0.3905109167098999
120,/Users/cjpark/Desktop/ucla_courses/cs260r/assignment4/data/td3_agent_single_v6/td3,162,-1348.2603551387788,362190,121,2232.6985330581665,-70.99243927001953,,142.42471313476562,0.0,-71.1333236694336,-69.80354309082031,-1.1697907447814941
121,/Users/cjpark/Desktop/ucla_courses/cs260r/assignment4/data/td3_agent_single_v6/td3,162,-1332.724928045273,365190,122,2251.6709110736847,-95.25688171386719,,172.11764526367188,0.0,-95.41525268554688,-94.7507095336914,-1.756981372833252
122,/Users/cjpark/Desktop/ucla_courses/cs260r/assignment4/data/td3_agent_single_v6/td3,162,-1331.6002335453034,368190,123,2271.1523880958557,-68.97811889648438,,70.39047241210938,0.0,-68.42277526855469,-70.50494384765625,-0.7787606716156006
123,/Users/cjpark/Desktop/ucla_courses/cs260r/assignment4/data/td3_agent_single_v6/td3,162,-1329.9999419879914,371190,124,2290.604513168335,-62.95965576171875,,162.43238830566406,0.0,-62.91478729248047,-62.6746826171875,-1.1715669631958008
124,/Users/cjpark/Desktop/ucla_courses/cs260r/assignment4/data/td3_agent_single_v6/td3,161,-1329.3422749614715,374190,125,2311.562975168228,-52.34630584716797,,217.90191650390625,0.0,-53.7296142578125,-52.02660369873047,-0.9734183549880981
125,/Users/cjpark/Desktop/ucla_courses/cs260r/assignment4/data/td3_agent_single_v6/td3,161,-1323.320010843277,377190,126,2330.393508195877,-78.17244720458984,,113.10833740234375,0.0,-76.33403015136719,-77.0087661743164,-0.974755048751831
126,/Users/cjpark/Desktop/ucla_courses/cs260r/assignment4/data/td3_agent_single_v6/td3,161,-1323.4065258216858,380190,127,2349.4366331100464,-59.08299255371094,,160.95587158203125,0.0,-59.25910186767578,-59.093814849853516,-0.5849940180778503
127,/Users/cjpark/Desktop/ucla_courses/cs260r/assignment4/data/td3_agent_single_v6/td3,161,-952.9910785579682,383190,128,2368.4454929828644,-74.40046691894531,,120.58865356445312,0.0,-74.3543701171875,-73.62895202636719,-0.7794123291969299
128,/Users/cjpark/Desktop/ucla_courses/cs260r/assignment4/data/td3_agent_single_v6/td3,161,-950.1702559947968,386190,129,2387.879007101059,-86.81293487548828,,196.893310546875,0.0,-86.17548370361328,-87.86311340332031,-0.5842689275741577
129,/Users/cjpark/Desktop/ucla_courses/cs260r/assignment4/data/td3_agent_single_v6/td3,161,-822.7951420021058,389190,130,2406.873584985733,-71.5013656616211,,138.42112731933594,0.0,-71.70530700683594,-71.62533569335938,-0.9742373824119568
130,/Users/cjpark/Desktop/ucla_courses/cs260r/assignment4/data/td3_agent_single_v6/td3,161,-822.7693520164489,392190,131,2425.413680076599,-91.91987609863281,,115.89077758789062,0.0,-93.8987808227539,-93.3215103149414,-1.3649417161941528
131,/Users/cjpark/Desktop/ucla_courses/cs260r/assignment4/data/td3_agent_single_v6/td3,161,-676.617082939148,395190,132,2445.523980140686,-68.84678649902344,,113.62066650390625,0.0,-68.10379028320312,-67.83607482910156,-0.9744566679000854
132,/Users/cjpark/Desktop/ucla_courses/cs260r/assignment4/data/td3_agent_single_v6/td3,161,-458.2045779800415,398190,133,2464.893839120865,-69.80577087402344,,119.13058471679688,0.0,-71.43083190917969,-70.71920013427734,-0.7797746658325195
133,/Users/cjpark/Desktop/ucla_courses/cs260r/assignment4/data/td3_agent_single_v6/td3,161,-288.7908478450775,401190,134,2484.195479154587,-97.97715759277344,,127.12918090820312,0.0,-99.32323455810547,-99.268798828125,-1.5607433319091797
134,/Users/cjpark/Desktop/ucla_courses/cs260r/assignment4/data/td3_agent_single_v6/td3,161,-288.9837136554718,404190,135,2503.619277238846,-69.17227172851562,,151.02688598632812,0.0,-71.38679504394531,-70.32327270507812,0.002056378871202469
135,/Users/cjpark/Desktop/ucla_courses/cs260r/assignment4/data/td3_agent_single_v6/td3,161,-289.1767999839783,407190,136,2523.4717371463776,-94.97846984863281,,179.51156616210938,0.0,-93.06652069091797,-95.54109954833984,-0.7791833281517029
136,/Users/cjpark/Desktop/ucla_courses/cs260r/assignment4/data/td3_agent_single_v6/td3,161,-289.1982480812073,410190,137,2542.72669005394,-85.7450942993164,,263.1282958984375,0.0,-79.25731658935547,-80.42283630371094,-0.9740573167800903
137,/Users/cjpark/Desktop/ucla_courses/cs260r/assignment4/data/td3_agent_single_v6/td3,161,-289.1340513896942,413190,138,2561.224909067154,-76.8758544921875,,166.59303283691406,0.0,-76.75116729736328,-77.33045196533203,-0.3880932033061981
138,/Users/cjpark/Desktop/ucla_courses/cs260r/assignment4/data/td3_agent_single_v6/td3,161,-289.27707392692565,416190,139,2580.5777769088745,-82.86032104492188,,92.9040756225586,0.0,-84.01675415039062,-83.67437744140625,-0.5822908878326416
139,/Users/cjpark/Desktop/ucla_courses/cs260r/assignment4/data/td3_agent_single_v6/td3,161,5.059862594604493,419190,140,2599.591036081314,-52.63143539428711,,90.82334899902344,0.0,-52.39341735839844,-52.55033493041992,-0.19382940232753754
140,/Users/cjpark/Desktop/ucla_courses/cs260r/assignment4/data/td3_agent_single_v6/td3,161,4.967744255065918,422190,141,2619.0486459732056,-53.22362518310547,,61.574588775634766,0.0,-52.72230529785156,-54.55373764038086,-0.38885796070098877
141,/Users/cjpark/Desktop/ucla_courses/cs260r/assignment4/data/td3_agent_single_v6/td3,160,4.899843368530274,425190,142,2650.0062012672424,-69.75813293457031,,69.54730987548828,0.0,-70.36764526367188,-71.06828308105469,-0.780147910118103
142,/Users/cjpark/Desktop/ucla_courses/cs260r/assignment4/data/td3_agent_single_v6/td3,160,4.809661779403687,428190,143,2670.3388431072235,-53.017547607421875,,79.60269165039062,0.0,-51.909976959228516,-51.71060562133789,-0.7779242396354675
143,/Users/cjpark/Desktop/ucla_courses/cs260r/assignment4/data/td3_agent_single_v6/td3,160,4.724938993453979,431190,144,2689.1523580551147,-65.94487762451172,,207.3233642578125,0.0,-67.8963623046875,-67.7281265258789,-0.7805578708648682
144,/Users/cjpark/Desktop/ucla_courses/cs260r/assignment4/data/td3_agent_single_v6/td3,160,4.593866758346557,434190,145,2708.509118080139,-82.45429992675781,,108.60838317871094,0.0,-81.98231506347656,-82.60708618164062,-1.561829686164856
145,/Users/cjpark/Desktop/ucla_courses/cs260r/assignment4/data/td3_agent_single_v6/td3,160,4.431838960647583,437190,146,2727.8762090206146,-67.57206726074219,,80.87992858886719,0.0,-67.56865692138672,-68.13273620605469,-0.5844569206237793
146,/Users/cjpark/Desktop/ucla_courses/cs260r/assignment4/data/td3_agent_single_v6/td3,160,4.406590795516967,440190,147,2748.889519929886,-76.00069427490234,,114.08987426757812,0.0,-77.30203247070312,-78.54952239990234,-0.7797166109085083
147,/Users/cjpark/Desktop/ucla_courses/cs260r/assignment4/data/td3_agent_single_v6/td3,160,4.3087927436828615,443190,148,2768.436278104782,-76.72421264648438,,152.02276611328125,0.0,-74.97319793701172,-73.994873046875,-0.5851600170135498
148,/Users/cjpark/Desktop/ucla_courses/cs260r/assignment4/data/td3_agent_single_v6/td3,160,4.309941196441651,446190,149,2786.796877145767,-66.57447814941406,,182.36526489257812,0.0,-66.5452880859375,-67.3199691772461,-0.1935649812221527
149,/Users/cjpark/Desktop/ucla_courses/cs260r/assignment4/data/td3_agent_single_v6/td3,160,4.225367889404297,449190,150,2805.38214302063,-52.57673645019531,,109.09690856933594,0.0,-52.232460021972656,-53.40537643432617,-0.19348666071891785
150,/Users/cjpark/Desktop/ucla_courses/cs260r/assignment4/data/td3_agent_single_v6/td3,160,4.051339445114135,452190,151,2824.798189163208,-68.8537368774414,,216.46990966796875,0.0,-69.39990234375,-70.5799560546875,-1.1698333024978638
151,/Users/cjpark/Desktop/ucla_courses/cs260r/assignment4/data/td3_agent_single_v6/td3,160,3.8600331497192384,455190,152,2844.0561180114746,-68.04025268554688,,91.30049133300781,0.0,-65.57528686523438,-67.93138122558594,-0.9760705232620239
152,/Users/cjpark/Desktop/ucla_courses/cs260r/assignment4/data/td3_agent_single_v6/td3,160,3.671661558151245,458190,153,2863.3191549777985,-69.13375091552734,,80.2037124633789,0.0,-69.28624725341797,-69.08305358886719,-0.38985008001327515
153,/Users/cjpark/Desktop/ucla_courses/cs260r/assignment4/data/td3_agent_single_v6/td3,160,3.5012749004364014,461190,154,2882.334585905075,-76.3702163696289,,213.1688232421875,0.0,-75.87841796875,-78.19071960449219,-0.9750970005989075
154,/Users/cjpark/Desktop/ucla_courses/cs260r/assignment4/data/td3_agent_single_v6/td3,159,3.3759181690216065,464190,155,2901.646627187729,-86.33897399902344,,163.8446044921875,0.0,-89.55742645263672,-87.14301300048828,-0.9751957654953003
155,/Users/cjpark/Desktop/ucla_courses/cs260r/assignment4/data/td3_agent_single_v6/td3,159,3.3092308330535887,467190,156,2920.806771993637,-88.00545501708984,,378.43829345703125,0.0,-88.84988403320312,-91.32101440429688,-0.7797681093215942
156,/Users/cjpark/Desktop/ucla_courses/cs260r/assignment4/data/td3_agent_single_v6/td3,159,3.1746131229400634,470190,157,2940.3364651203156,-76.83946990966797,,132.59780883789062,0.0,-77.58967590332031,-78.35328674316406,-0.3884020745754242
157,/Users/cjpark/Desktop/ucla_courses/cs260r/assignment4/data/td3_agent_single_v6/td3,159,2.73190767288208,473190,158,2958.959001302719,-80.8126220703125,,124.86019897460938,0.0,-80.85202026367188,-81.99807739257812,-0.5821642279624939
158,/Users/cjpark/Desktop/ucla_courses/cs260r/assignment4/data/td3_agent_single_v6/td3,159,2.4511052131652833,476190,159,2978.4981179237366,-98.55069732666016,,264.496337890625,0.0,-97.24978637695312,-97.40438079833984,-0.7786195278167725
159,/Users/cjpark/Desktop/ucla_courses/cs260r/assignment4/data/td3_agent_single_v6/td3,159,1.975355978012085,479190,160,2998.385380268097,-74.04154968261719,,63.191749572753906,0.0,-73.50776672363281,-72.60874938964844,-0.7789853811264038
160,/Users/cjpark/Desktop/ucla_courses/cs260r/assignment4/data/td3_agent_single_v6/td3,159,1.7891976165771484,482190,161,3019.982476234436,-79.6064224243164,,85.16270446777344,0.0,-77.71101379394531,-78.39456939697266,-0.38784825801849365
161,/Users/cjpark/Desktop/ucla_courses/cs260r/assignment4/data/td3_agent_single_v6/td3,159,1.6173849296569824,485190,162,3039.203027009964,-76.7641372680664,,108.22015380859375,0.0,-76.8934555053711,-77.74285125732422,-0.19212374091148376
162,/Users/cjpark/Desktop/ucla_courses/cs260r/assignment4/data/td3_agent_single_v6/td3,159,1.4757301330566406,488190,163,3058.250524044037,-71.35637664794922,,94.0938720703125,0.0,-69.8565673828125,-69.59833526611328,-0.5839597582817078
163,/Users/cjpark/Desktop/ucla_courses/cs260r/assignment4/data/td3_agent_single_v6/td3,159,1.3356107902526855,491190,164,3077.270667076111,-71.3093032836914,,115.52252197265625,0.0,-70.46729278564453,-69.65608215332031,-0.19423474371433258
164,/Users/cjpark/Desktop/ucla_courses/cs260r/assignment4/data/td3_agent_single_v6/td3,159,1.3631380558013917,494190,165,3095.868954896927,-92.56067657470703,,93.64273834228516,0.0,-93.34913635253906,-93.40503692626953,-0.5831397771835327
165,/Users/cjpark/Desktop/ucla_courses/cs260r/assignment4/data/td3_agent_single_v6/td3,159,1.2302541637420654,497190,166,3114.5592811107635,-91.12826538085938,,53.446495056152344,0.0,-90.84737396240234,-91.926513671875,-0.38935375213623047
