cjunkin/reinforcement-learning/metaracer/data/td3_agent_single_v15_progress_reward/td3/progress.csv
,log_dir,frame_per_second,episode_reward,total_steps,total_episodes,total_time,target_q,actor_loss,critic_loss,success_rate,current_q1,current_q2,reward
0,/Users/cjpark/Desktop/ucla_courses/cs260r/assignment4/data/td3_agent_single_v15_progress_reward/td3,1443,3170.0413522720337,2999,1,2.0780177116394043,,,,0.0,,,
1,/Users/cjpark/Desktop/ucla_courses/cs260r/assignment4/data/td3_agent_single_v15_progress_reward/td3,1468,271.58746337890625,5999,2,4.084231853485107,,,,0.0,,,
2,/Users/cjpark/Desktop/ucla_courses/cs260r/assignment4/data/td3_agent_single_v15_progress_reward/td3,1454,1106.0952593485515,8999,3,6.1890668869018555,,,,0.0,,,
3,/Users/cjpark/Desktop/ucla_courses/cs260r/assignment4/data/td3_agent_single_v15_progress_reward/td3,1107,-2517.52534198761,10393,4,9.381772756576538,-1.370201587677002,-1.4038909673690796,175.2897186279297,0.0,-0.44621542096138,-0.43828314542770386,-1.446769118309021
4,/Users/cjpark/Desktop/ucla_courses/cs260r/assignment4/data/td3_agent_single_v15_progress_reward/td3,592,-4721.237878608704,12332,5,20.81704878807068,-4.397995471954346,,198.82684326171875,0.0,-2.5173988342285156,-2.359042167663574,-3.3936684131622314
5,/Users/cjpark/Desktop/ucla_courses/cs260r/assignment4/data/td3_agent_single_v15_progress_reward/td3,407,-6136.333110491435,14873,6,36.51431083679199,1.3962680101394653,-5.705556392669678,230.32275390625,0.0,0.6463619470596313,0.7361447215080261,-3.459016799926758
6,/Users/cjpark/Desktop/ucla_courses/cs260r/assignment4/data/td3_agent_single_v15_progress_reward/td3,326,16980.772862146372,17873,7,54.66434669494629,92.29524230957031,-109.2104263305664,314.1294250488281,0.0,91.20243835449219,91.5904541015625,4.815262317657471
7,/Users/cjpark/Desktop/ucla_courses/cs260r/assignment4/data/td3_agent_single_v15_progress_reward/td3,284,40345.03155481203,20873,8,73.28291368484497,347.7500305175781,-368.5325012207031,803.413818359375,0.0,346.6956481933594,346.254638671875,17.01573371887207
8,/Users/cjpark/Desktop/ucla_courses/cs260r/assignment4/data/td3_agent_single_v15_progress_reward/td3,262,59656.35308584077,23812,9,90.80309081077576,648.4531860351562,,891.20654296875,0.1111111111111111,643.5073852539062,642.8638916015625,22.625709533691406
9,/Users/cjpark/Desktop/ucla_courses/cs260r/assignment4/data/td3_agent_single_v15_progress_reward/td3,251,75090.25489325414,25821,10,102.67083978652954,930.59521484375,-948.312744140625,2761.1337890625,0.2,926.60595703125,928.3836669921875,30.340763092041016
10,/Users/cjpark/Desktop/ucla_courses/cs260r/assignment4/data/td3_agent_single_v15_progress_reward/td3,246,84140.52096980724,27195,11,110.49844574928284,1031.8599853515625,-1052.1265869140625,1748.297607421875,0.18181818181818182,1031.2393798828125,1030.0540771484375,32.98361587524414
11,/Users/cjpark/Desktop/ucla_courses/cs260r/assignment4/data/td3_agent_single_v15_progress_reward/td3,234,79357.57701465228,29889,12,127.39362788200378,1303.28857421875,-1330.048828125,1441.4267578125,0.16666666666666666,1305.6182861328125,1307.1365966796875,31.674856185913086
12,/Users/cjpark/Desktop/ucla_courses/cs260r/assignment4/data/td3_agent_single_v15_progress_reward/td3,232,77604.60256285957,30393,13,130.5244858264923,1420.1024169921875,-1445.598876953125,12344.521484375,0.15384615384615385,1419.0867919921875,1419.58935546875,35.81289291381836
13,/Users/cjpark/Desktop/ucla_courses/cs260r/assignment4/data/td3_agent_single_v15_progress_reward/td3,226,86736.60568728602,32348,14,142.7199056148529,1667.840087890625,,2967.6435546875,0.21428571428571427,1665.9114990234375,1666.3780517578125,42.02997589111328
14,/Users/cjpark/Desktop/ucla_courses/cs260r/assignment4/data/td3_agent_single_v15_progress_reward/td3,223,95344.46118328118,33687,15,150.70717477798462,1683.75,-1722.1925048828125,4048.90869140625,0.26666666666666666,1683.925537109375,1686.1861572265625,34.515174865722656
15,/Users/cjpark/Desktop/ucla_courses/cs260r/assignment4/data/td3_agent_single_v15_progress_reward/td3,219,102353.89518115894,35067,16,159.44509959220886,1975.5899658203125,-2012.7879638671875,4677.67724609375,0.3125,1969.100830078125,1970.94775390625,41.263641357421875
16,/Users/cjpark/Desktop/ucla_courses/cs260r/assignment4/data/td3_agent_single_v15_progress_reward/td3,214,97345.78243615177,38067,17,177.76437282562256,2328.23046875,-2364.1142578125,8960.1279296875,0.29411764705882354,2320.103271484375,2321.436767578125,44.40798568725586
17,/Users/cjpark/Desktop/ucla_courses/cs260r/assignment4/data/td3_agent_single_v15_progress_reward/td3,209,98595.25236292984,41067,18,195.65659594535828,2598.490966796875,-2663.740478515625,9176.294921875,0.2777777777777778,2615.297119140625,2610.3994140625,41.39433288574219
18,/Users/cjpark/Desktop/ucla_courses/cs260r/assignment4/data/td3_agent_single_v15_progress_reward/td3,208,102436.62567269402,42229,19,202.50081992149353,2709.831787109375,-2752.2607421875,13657.171875,0.2631578947368421,2701.650146484375,2701.83203125,38.039947509765625
19,/Users/cjpark/Desktop/ucla_courses/cs260r/assignment4/data/td3_agent_single_v15_progress_reward/td3,204,95508.22185710899,45805,21,223.47706699371338,3130.36767578125,-3171.472900390625,20026.708984375,0.23809523809523808,3137.052001953125,3137.483154296875,43.12599182128906
20,/Users/cjpark/Desktop/ucla_courses/cs260r/assignment4/data/td3_agent_single_v15_progress_reward/td3,203,98895.80272600162,46914,22,230.04831981658936,2852.616943359375,,23896.875,0.22727272727272727,2850.66748046875,2853.638427734375,38.128055572509766
21,/Users/cjpark/Desktop/ucla_courses/cs260r/assignment4/data/td3_agent_single_v15_progress_reward/td3,202,101940.13489559307,48979,23,242.05450081825256,3587.258056640625,-3653.7783203125,75743.2578125,0.2608695652173913,3601.13671875,3593.54345703125,51.796939849853516
22,/Users/cjpark/Desktop/ucla_courses/cs260r/assignment4/data/td3_agent_single_v15_progress_reward/td3,199,104324.25892789697,51188,24,256.6460528373718,3640.695556640625,,58752.40625,0.2916666666666667,3630.4384765625,3633.292236328125,45.01035690307617
23,/Users/cjpark/Desktop/ucla_courses/cs260r/assignment4/data/td3_agent_single_v15_progress_reward/td3,198,108656.41520738034,52407,25,264.0868909358978,4337.95751953125,-4388.88671875,29454.529296875,0.32,4342.99462890625,4344.5546875,60.375640869140625
24,/Users/cjpark/Desktop/ucla_courses/cs260r/assignment4/data/td3_agent_single_v15_progress_reward/td3,197,112771.76049309372,53696,26,272.32827377319336,4898.48046875,,52557.19921875,0.34615384615384615,4893.2626953125,4890.13134765625,67.98226928710938
25,/Users/cjpark/Desktop/ucla_courses/cs260r/assignment4/data/td3_agent_single_v15_progress_reward/td3,196,116531.05334102093,54945,27,280.24741983413696,4307.8720703125,-4368.71728515625,72081.1875,0.37037037037037035,4319.537109375,4323.96923828125,55.592384338378906
26,/Users/cjpark/Desktop/ucla_courses/cs260r/assignment4/data/td3_agent_single_v15_progress_reward/td3,194,118664.71478690024,57945,28,298.1783938407898,4123.3154296875,-4178.5400390625,33495.71484375,0.35714285714285715,4124.8291015625,4135.3486328125,45.73133087158203
27,/Users/cjpark/Desktop/ucla_courses/cs260r/assignment4/data/td3_agent_single_v15_progress_reward/td3,193,121952.26782658637,59223,29,305.9297106266022,5186.7060546875,-5266.52734375,39941.2109375,0.3793103448275862,5199.103515625,5195.484375,66.5230712890625
28,/Users/cjpark/Desktop/ucla_courses/cs260r/assignment4/data/td3_agent_single_v15_progress_reward/td3,192,125002.05264211097,60547,30,314.08339977264404,4687.09375,-4729.21142578125,38863.6796875,0.4,4674.3232421875,4668.6552734375,55.9355354309082
29,/Users/cjpark/Desktop/ucla_courses/cs260r/assignment4/data/td3_agent_single_v15_progress_reward/td3,191,121604.2260728442,63205,31,329.9789938926697,4807.67724609375,-4894.33056640625,38343.1015625,0.3870967741935484,4829.966796875,4829.599609375,56.77577590942383
30,/Users/cjpark/Desktop/ucla_courses/cs260r/assignment4/data/td3_agent_single_v15_progress_reward/td3,190,124518.27928809045,64430,32,337.96296882629395,5325.8349609375,,78931.1875,0.40625,5349.10791015625,5346.646484375,60.2550048828125
31,/Users/cjpark/Desktop/ucla_courses/cs260r/assignment4/data/td3_agent_single_v15_progress_reward/td3,189,127219.983784447,65710,33,346.365021944046,4855.33935546875,,123728.046875,0.42424242424242425,4852.2314453125,4846.048828125,54.7142219543457
32,/Users/cjpark/Desktop/ucla_courses/cs260r/assignment4/data/td3_agent_single_v15_progress_reward/td3,189,129783.52910367594,67019,34,354.5109648704529,6233.11865234375,-6281.7197265625,57331.6328125,0.4411764705882353,6221.14111328125,6231.08447265625,71.72049713134766
33,/Users/cjpark/Desktop/ucla_courses/cs260r/assignment4/data/td3_agent_single_v15_progress_reward/td3,188,132163.75475854563,68247,35,362.54327273368835,5706.1513671875,-5767.16259765625,52591.31640625,0.45714285714285713,5707.173828125,5701.41357421875,63.6618766784668
34,/Users/cjpark/Desktop/ucla_courses/cs260r/assignment4/data/td3_agent_single_v15_progress_reward/td3,187,134439.71355075715,69480,36,371.1236448287964,6101.4541015625,,56859.8671875,0.4722222222222222,6124.11328125,6095.158203125,70.24673461914062
35,/Users/cjpark/Desktop/ucla_courses/cs260r/assignment4/data/td3_agent_single_v15_progress_reward/td3,186,136637.0100364094,70761,37,380.1029098033905,5817.37939453125,-5921.67626953125,293134.6875,0.4864864864864865,5860.53125,5856.38330078125,64.19731903076172
36,/Users/cjpark/Desktop/ucla_courses/cs260r/assignment4/data/td3_agent_single_v15_progress_reward/td3,185,138693.91745620177,71965,38,388.6417627334595,6240.779296875,-6296.96044921875,157417.09375,0.5,6231.28955078125,6239.57861328125,67.56533813476562
37,/Users/cjpark/Desktop/ucla_courses/cs260r/assignment4/data/td3_agent_single_v15_progress_reward/td3,184,140594.81113743142,73163,39,397.1621446609497,7120.748046875,-7162.52880859375,77207.9765625,0.5128205128205128,7107.27978515625,7114.26318359375,81.99093627929688
38,/Users/cjpark/Desktop/ucla_courses/cs260r/assignment4/data/td3_agent_single_v15_progress_reward/td3,183,142429.37565088464,74384,40,406.04420375823975,6566.13623046875,,119255.8515625,0.525,6520.453125,6523.07373046875,74.8469467163086
39,/Users/cjpark/Desktop/ucla_courses/cs260r/assignment4/data/td3_agent_single_v15_progress_reward/td3,182,144240.55946759836,75603,41,414.69507360458374,7528.7001953125,-7566.4423828125,105288.8125,0.5365853658536586,7496.66796875,7499.84765625,85.87871551513672
40,/Users/cjpark/Desktop/ucla_courses/cs260r/assignment4/data/td3_agent_single_v15_progress_reward/td3,181,145909.15208467533,76882,42,424.2222399711609,7219.0029296875,,66328.125,0.5476190476190477,7168.96728515625,7173.19580078125,80.40353393554688
41,/Users/cjpark/Desktop/ucla_courses/cs260r/assignment4/data/td3_agent_single_v15_progress_reward/td3,180,147556.5445306699,78137,43,433.6675708293915,6826.0751953125,-6837.953125,54193.40625,0.5581395348837209,6767.0302734375,6773.77685546875,74.20018005371094
42,/Users/cjpark/Desktop/ucla_courses/cs260r/assignment4/data/td3_agent_single_v15_progress_reward/td3,178,145290.6144371696,81137,44,454.87155079841614,7604.8349609375,-7650.0478515625,60438.1640625,0.5454545454545454,7597.12255859375,7591.15234375,82.48377990722656
43,/Users/cjpark/Desktop/ucla_courses/cs260r/assignment4/data/td3_agent_single_v15_progress_reward/td3,177,146812.75055054194,82473,45,464.08337473869324,7720.087890625,-7780.2900390625,47655.109375,0.5555555555555556,7723.59326171875,7737.7255859375,86.20396423339844
44,/Users/cjpark/Desktop/ucla_courses/cs260r/assignment4/data/td3_agent_single_v15_progress_reward/td3,177,148271.44218258737,83702,46,472.73169565200806,7291.85888671875,,45116.53125,0.5652173913043478,7282.22900390625,7283.50146484375,76.83039093017578
45,/Users/cjpark/Desktop/ucla_courses/cs260r/assignment4/data/td3_agent_single_v15_progress_reward/td3,175,148449.51387840114,86702,47,493.63920068740845,7742.7763671875,,152301.625,0.5531914893617021,7735.7177734375,7736.81494140625,83.91789245605469
46,/Users/cjpark/Desktop/ucla_courses/cs260r/assignment4/data/td3_agent_single_v15_progress_reward/td3,174,149150.56930606466,88440,48,505.89039063453674,8297.26171875,,45877.94140625,0.5625,8278.1787109375,8286.275390625,89.53834533691406
47,/Users/cjpark/Desktop/ucla_courses/cs260r/assignment4/data/td3_agent_single_v15_progress_reward/td3,174,150461.25895827875,89772,49,515.2860097885132,7591.4765625,,147920.6875,0.5714285714285714,7632.3154296875,7625.4970703125,75.9607162475586
48,/Users/cjpark/Desktop/ucla_courses/cs260r/assignment4/data/td3_agent_single_v15_progress_reward/td3,173,151641.4638316373,91140,50,525.0678389072418,8198.583984375,,40963.375,0.58,8182.18798828125,8194.853515625,81.64691162109375
49,/Users/cjpark/Desktop/ucla_courses/cs260r/assignment4/data/td3_agent_single_v15_progress_reward/td3,172,152347.06708869856,92850,51,537.2656638622284,7611.474609375,,216826.90625,0.5882352941176471,7615.3525390625,7611.1708984375,77.30622100830078
50,/Users/cjpark/Desktop/ucla_courses/cs260r/assignment4/data/td3_agent_single_v15_progress_reward/td3,172,151906.4088952766,93683,52,543.1632766723633,7248.169921875,-7345.11865234375,141116.453125,0.5769230769230769,7257.42578125,7251.2587890625,73.43692016601562
51,/Users/cjpark/Desktop/ucla_courses/cs260r/assignment4/data/td3_agent_single_v15_progress_reward/td3,171,153060.30993966383,95001,53,552.4997639656067,8461.5830078125,-8525.412109375,94609.125,0.5849056603773585,8430.1015625,8423.87890625,87.2562026977539
52,/Users/cjpark/Desktop/ucla_courses/cs260r/assignment4/data/td3_agent_single_v15_progress_reward/td3,171,154186.7821185809,96332,54,561.9794797897339,8700.1630859375,,83117.953125,0.5925925925925926,8679.048828125,8676.2412109375,91.04838562011719
53,/Users/cjpark/Desktop/ucla_courses/cs260r/assignment4/data/td3_agent_single_v15_progress_reward/td3,170,154974.89680968993,97849,55,572.8708605766296,8320.8251953125,-8386.564453125,128424.578125,0.6,8339.9970703125,8336.302734375,83.68415832519531
54,/Users/cjpark/Desktop/ucla_courses/cs260r/assignment4/data/td3_agent_single_v15_progress_reward/td3,170,155840.09327348028,99456,56,584.2208409309387,8485.42578125,,92348.0,0.6071428571428571,8506.798828125,8496.892578125,85.85677337646484
55,/Users/cjpark/Desktop/ucla_courses/cs260r/assignment4/data/td3_agent_single_v15_progress_reward/td3,169,156799.2127214669,100777,57,593.3870108127594,9059.224609375,-9105.736328125,105841.28125,0.6140350877192983,9047.111328125,9054.5185546875,89.69298553466797
56,/Users/cjpark/Desktop/ucla_courses/cs260r/assignment4/data/td3_agent_single_v15_progress_reward/td3,169,157754.48497806737,102064,58,602.7289597988129,9072.5234375,,72573.40625,0.6206896551724138,9054.83984375,9068.6669921875,92.37255096435547
57,/Users/cjpark/Desktop/ucla_courses/cs260r/assignment4/data/td3_agent_single_v15_progress_reward/td3,168,158248.05239498307,103450,59,612.3753006458282,8686.1728515625,,144173.484375,0.6101694915254238,8657.712890625,8677.5654296875,84.7541275024414
58,/Users/cjpark/Desktop/ucla_courses/cs260r/assignment4/data/td3_agent_single_v15_progress_reward/td3,168,159094.33365893224,104938,60,622.8510127067566,8987.98046875,,136603.3125,0.6166666666666667,8962.5576171875,8966.55859375,93.56352233886719
59,/Users/cjpark/Desktop/ucla_courses/cs260r/assignment4/data/td3_agent_single_v15_progress_reward/td3,168,159888.95023422912,106385,61,632.9773728847504,9227.7958984375,-9307.7998046875,650322.375,0.6229508196721312,9231.685546875,9224.2783203125,100.3252182006836
60,/Users/cjpark/Desktop/ucla_courses/cs260r/assignment4/data/td3_agent_single_v15_progress_reward/td3,167,160720.68359821016,107872,62,643.157467842102,9522.4326171875,,164986.71875,0.6290322580645161,9465.7509765625,9460.1708984375,97.06742095947266
61,/Users/cjpark/Desktop/ucla_courses/cs260r/assignment4/data/td3_agent_single_v15_progress_reward/td3,166,160072.53911216292,110872,63,664.304292678833,8330.99609375,,92428.625,0.6190476190476191,8368.7265625,8366.2646484375,85.92546844482422
62,/Users/cjpark/Desktop/ucla_courses/cs260r/assignment4/data/td3_agent_single_v15_progress_reward/td3,166,160855.05778439157,112311,64,674.2068495750427,8431.142578125,-8475.2685546875,207090.46875,0.625,8418.9990234375,8414.3603515625,91.69341278076172
63,/Users/cjpark/Desktop/ucla_courses/cs260r/assignment4/data/td3_agent_single_v15_progress_reward/td3,166,161613.35854887814,113673,65,684.2337107658386,9441.701171875,-9512.3408203125,299426.625,0.6307692307692307,9444.615234375,9455.1318359375,100.95657348632812
64,/Users/cjpark/Desktop/ucla_courses/cs260r/assignment4/data/td3_agent_single_v15_progress_reward/td3,165,162359.37288100668,115075,66,693.9768357276917,9688.140625,-9808.0,80128.46875,0.6363636363636364,9720.2890625,9696.21875,107.14159393310547
65,/Users/cjpark/Desktop/ucla_courses/cs260r/assignment4/data/td3_agent_single_v15_progress_reward/td3,165,163086.34246668965,116433,67,704.0028717517853,9336.908203125,-9391.7998046875,137238.78125,0.6417910447761194,9323.4384765625,9310.5078125,97.01968383789062
66,/Users/cjpark/Desktop/ucla_courses/cs260r/assignment4/data/td3_agent_single_v15_progress_reward/td3,165,163803.75272028713,117823,68,713.826575756073,9004.4619140625,-9109.85546875,103052.4375,0.6470588235294118,9034.0576171875,9021.5126953125,94.86933898925781
67,/Users/cjpark/Desktop/ucla_courses/cs260r/assignment4/data/td3_agent_single_v15_progress_reward/td3,164,164485.25226966216,119275,69,723.5554869174957,9135.8330078125,-9226.08984375,156378.28125,0.6521739130434783,9143.18359375,9132.681640625,95.88370513916016
68,/Users/cjpark/Desktop/ucla_courses/cs260r/assignment4/data/td3_agent_single_v15_progress_reward/td3,164,165165.60791855003,120597,70,732.8203337192535,9142.3623046875,-9263.43359375,251708.5,0.6571428571428571,9191.53515625,9195.978515625,90.5460205078125
69,/Users/cjpark/Desktop/ucla_courses/cs260r/assignment4/data/td3_agent_single_v15_progress_reward/td3,164,165848.62261285287,122002,71,742.5525629520416,9044.5087890625,,110428.234375,0.6619718309859155,9054.5068359375,9064.7392578125,88.173828125
70,/Users/cjpark/Desktop/ucla_courses/cs260r/assignment4/data/td3_agent_single_v15_progress_reward/td3,162,166477.99481009113,123483,72,757.8682107925415,9167.486328125,-9189.171875,162419.984375,0.6666666666666666,9134.3671875,9163.3369140625,92.57296752929688
71,/Users/cjpark/Desktop/ucla_courses/cs260r/assignment4/data/td3_agent_single_v15_progress_reward/td3,161,167146.17026661575,124844,73,774.6939766407013,9319.4697265625,,133688.359375,0.6712328767123288,9277.8212890625,9272.2109375,98.65906524658203
72,/Users/cjpark/Desktop/ucla_courses/cs260r/assignment4/data/td3_agent_single_v15_progress_reward/td3,160,167762.2775100725,126180,74,785.927551984787,9571.1962890625,,173668.59375,0.6756756756756757,9546.724609375,9554.78515625,102.59510040283203
73,/Users/cjpark/Desktop/ucla_courses/cs260r/assignment4/data/td3_agent_single_v15_progress_reward/td3,160,167649.09531295812,128283,76,799.9078648090363,9377.7734375,-9463.046875,192967.890625,0.6710526315789473,9384.8046875,9369.8212890625,102.28028106689453
74,/Users/cjpark/Desktop/ucla_courses/cs260r/assignment4/data/td3_agent_single_v15_progress_reward/td3,160,168239.33570613325,129708,77,809.4490859508514,9582.1630859375,,137892.109375,0.6753246753246753,9583.92578125,9576.404296875,102.4033203125
75,/Users/cjpark/Desktop/ucla_courses/cs260r/assignment4/data/td3_agent_single_v15_progress_reward/td3,160,168774.89553836963,131197,78,819.6624917984009,9269.66796875,-9348.943359375,276440.3125,0.6794871794871795,9274.669921875,9295.4619140625,92.73649597167969
76,/Users/cjpark/Desktop/ucla_courses/cs260r/assignment4/data/td3_agent_single_v15_progress_reward/td3,159,169303.45370835476,132510,79,829.1597619056702,9489.740234375,,610198.6875,0.6835443037974683,9537.048828125,9535.20703125,97.9853744506836
77,/Users/cjpark/Desktop/ucla_courses/cs260r/assignment4/data/td3_agent_single_v15_progress_reward/td3,159,169844.6032401208,133890,80,839.6457326412201,9800.7626953125,,326053.40625,0.6875,9812.111328125,9803.85546875,105.86785125732422
78,/Users/cjpark/Desktop/ucla_courses/cs260r/assignment4/data/td3_agent_single_v15_progress_reward/td3,159,170393.75915845035,135259,81,850.4245839118958,9397.462890625,-9424.052734375,158283.59375,0.691358024691358,9334.3154296875,9343.96484375,101.13255310058594
79,/Users/cjpark/Desktop/ucla_courses/cs260r/assignment4/data/td3_agent_single_v15_progress_reward/td3,158,170896.6926577341,136647,82,860.4329147338867,9691.48828125,-9781.3876953125,80624.140625,0.6951219512195121,9688.3984375,9682.3955078125,98.48780822753906
80,/Users/cjpark/Desktop/ucla_courses/cs260r/assignment4/data/td3_agent_single_v15_progress_reward/td3,158,171406.26684495344,137951,83,869.7563798427582,9994.12109375,-10111.9296875,413769.9375,0.6987951807228916,10017.205078125,10013.22265625,101.30012512207031
81,/Users/cjpark/Desktop/ucla_courses/cs260r/assignment4/data/td3_agent_single_v15_progress_reward/td3,158,171924.83385607434,139259,84,879.6647508144379,9997.8173828125,-10090.1083984375,162018.78125,0.7023809523809523,10012.1416015625,10016.0283203125,103.07064819335938
82,/Users/cjpark/Desktop/ucla_courses/cs260r/assignment4/data/td3_agent_single_v15_progress_reward/td3,158,172450.0504630565,140574,85,889.6534609794617,9709.802734375,,296485.625,0.7058823529411765,9750.3095703125,9735.251953125,101.7861328125
83,/Users/cjpark/Desktop/ucla_courses/cs260r/assignment4/data/td3_agent_single_v15_progress_reward/td3,157,172570.48756666266,143574,86,913.1457936763763,9602.2265625,,171879.78125,0.6976744186046512,9560.1875,9563.4248046875,99.66808319091797
84,/Users/cjpark/Desktop/ucla_courses/cs260r/assignment4/data/td3_agent_single_v15_progress_reward/td3,156,173046.24771835934,144967,87,923.8498558998108,9560.748046875,-9621.7412109375,111042.359375,0.7011494252873564,9524.8603515625,9525.87109375,97.20619201660156
85,/Users/cjpark/Desktop/ucla_courses/cs260r/assignment4/data/td3_agent_single_v15_progress_reward/td3,156,173476.87253502992,146306,88,934.5875327587128,9292.0087890625,,243562.0,0.7045454545454546,9257.9453125,9258.8154296875,93.22418975830078
86,/Users/cjpark/Desktop/ucla_courses/cs260r/assignment4/data/td3_agent_single_v15_progress_reward/td3,156,173921.44173251235,147623,89,945.3806247711182,9452.60546875,-9598.00390625,286508.4375,0.7078651685393258,9531.375,9532.5556640625,96.16506958007812
87,/Users/cjpark/Desktop/ucla_courses/cs260r/assignment4/data/td3_agent_single_v15_progress_reward/td3,155,174365.54619589818,149020,90,955.5227057933807,10739.650390625,,141273.59375,0.7111111111111111,10779.994140625,10755.091796875,110.93497467041016
88,/Users/cjpark/Desktop/ucla_courses/cs260r/assignment4/data/td3_agent_single_v15_progress_reward/td3,155,174789.3866489556,150390,91,966.1629528999329,10045.8232421875,,253127.78125,0.7142857142857143,10006.55859375,10006.427734375,105.39107513427734
89,/Users/cjpark/Desktop/ucla_courses/cs260r/assignment4/data/td3_agent_single_v15_progress_reward/td3,155,175224.75629723966,151731,92,976.3492186069489,9734.314453125,-9841.029296875,471690.84375,0.717391304347826,9767.330078125,9794.646484375,101.40806579589844
90,/Users/cjpark/Desktop/ucla_courses/cs260r/assignment4/data/td3_agent_single_v15_progress_reward/td3,155,175650.17331026454,153176,93,986.9993169307709,9442.259765625,,136559.203125,0.7204301075268817,9411.2109375,9440.73046875,95.20679473876953
91,/Users/cjpark/Desktop/ucla_courses/cs260r/assignment4/data/td3_agent_single_v15_progress_reward/td3,154,176072.03802679115,154575,94,997.744993686676,10303.310546875,-10406.265625,323744.78125,0.723404255319149,10344.630859375,10345.025390625,106.16460418701172
92,/Users/cjpark/Desktop/ucla_courses/cs260r/assignment4/data/td3_agent_single_v15_progress_reward/td3,154,176469.9137574509,155821,95,1007.0164887905121,10403.10546875,-10460.203125,141144.125,0.7263157894736842,10384.7392578125,10408.26953125,110.15904235839844
93,/Users/cjpark/Desktop/ucla_courses/cs260r/assignment4/data/td3_agent_single_v15_progress_reward/td3,154,176879.09299410856,157181,96,1016.6549277305603,10569.20703125,-10615.3232421875,179262.96875,0.7291666666666666,10483.8173828125,10485.3818359375,110.56993103027344
94,/Users/cjpark/Desktop/ucla_courses/cs260r/assignment4/data/td3_agent_single_v15_progress_reward/td3,154,177267.5273492043,158514,97,1026.0171887874603,10914.0078125,,159023.046875,0.7319587628865979,10946.337890625,10936.1328125,109.39913940429688
95,/Users/cjpark/Desktop/ucla_courses/cs260r/assignment4/data/td3_agent_single_v15_progress_reward/td3,154,177642.59535811204,159875,98,1035.4784638881683,10684.7978515625,-10778.947265625,214370.90625,0.7346938775510204,10673.9765625,10650.2265625,106.7907943725586
96,/Users/cjpark/Desktop/ucla_courses/cs260r/assignment4/data/td3_agent_single_v15_progress_reward/td3,154,177994.65891151948,161183,99,1044.9856986999512,10682.779296875,-10759.712890625,217238.25,0.7373737373737373,10675.3359375,10660.39453125,107.34881591796875
97,/Users/cjpark/Desktop/ucla_courses/cs260r/assignment4/data/td3_agent_single_v15_progress_reward/td3,154,177919.19852123552,162272,100,1052.3848297595978,10754.333984375,,160521.5625,0.73,10755.8115234375,10777.7314453125,108.15640258789062
98,/Users/cjpark/Desktop/ucla_courses/cs260r/assignment4/data/td3_agent_single_v15_progress_reward/td3,154,180039.92492015247,163598,101,1060.7439367771149,10562.017578125,,125004.1640625,0.74,10564.8056640625,10570.849609375,109.3419189453125
99,/Users/cjpark/Desktop/ucla_courses/cs260r/assignment4/data/td3_agent_single_v15_progress_reward/td3,154,182215.85653774656,164840,102,1069.098207950592,10714.001953125,,79576.796875,0.75,10656.0244140625,10662.54296875,114.90792083740234
100,/Users/cjpark/Desktop/ucla_courses/cs260r/assignment4/data/td3_agent_single_v15_progress_reward/td3,154,184326.46481217296,166151,103,1076.8776607513428,11233.345703125,-11333.197265625,586985.0,0.76,11275.5859375,11257.953125,120.54219055175781
101,/Users/cjpark/Desktop/ucla_courses/cs260r/assignment4/data/td3_agent_single_v15_progress_reward/td3,154,186592.56248435553,167397,104,1084.501958847046,10517.107421875,-10624.8359375,71091.203125,0.77,10511.22265625,10512.876953125,111.28602600097656
102,/Users/cjpark/Desktop/ucla_courses/cs260r/assignment4/data/td3_agent_single_v15_progress_reward/td3,154,188882.11704604674,168846,105,1093.025937795639,10980.1396484375,,142454.796875,0.78,10987.673828125,10998.26953125,116.47962951660156
103,/Users/cjpark/Desktop/ucla_courses/cs260r/assignment4/data/td3_agent_single_v15_progress_reward/td3,154,191161.9254920665,170109,106,1101.2446188926697,10148.00390625,-10235.537109375,210367.5625,0.79,10195.376953125,10205.6044921875,106.56439208984375
104,/Users/cjpark/Desktop/ucla_courses/cs260r/assignment4/data/td3_agent_single_v15_progress_reward/td3,154,191725.68111773155,171327,107,1108.636915922165,10725.212890625,-10830.73046875,181501.421875,0.8,10746.658203125,10726.2373046875,112.94432067871094
105,/Users/cjpark/Desktop/ucla_courses/cs260r/assignment4/data/td3_agent_single_v15_progress_reward/td3,154,191836.4828359454,172643,108,1117.280600786209,11072.0712890625,-11165.2607421875,286348.78125,0.81,11092.9541015625,11100.849609375,116.93909454345703
106,/Users/cjpark/Desktop/ucla_courses/cs260r/assignment4/data/td3_agent_single_v15_progress_reward/td3,154,191848.38643211167,173893,109,1125.7678508758545,11372.14453125,-11462.6669921875,311565.9375,0.81,11371.03515625,11374.037109375,120.62997436523438
107,/Users/cjpark/Desktop/ucla_courses/cs260r/assignment4/data/td3_agent_single_v15_progress_reward/td3,154,191861.12390953058,175172,110,1134.8122267723083,11708.630859375,,379110.3125,0.81,11768.482421875,11765.876953125,118.8931655883789
108,/Users/cjpark/Desktop/ucla_courses/cs260r/assignment4/data/td3_agent_single_v15_progress_reward/td3,154,192236.12037044036,176573,111,1144.9836065769196,10768.23828125,-10898.7919921875,97323.09375,0.82,10842.4189453125,10828.7802734375,109.47502899169922
109,/Users/cjpark/Desktop/ucla_courses/cs260r/assignment4/data/td3_agent_single_v15_progress_reward/td3,154,194122.00567606074,177937,112,1154.7313778400421,11038.1318359375,-11150.3291015625,314135.5,0.83,11067.88671875,11045.8056640625,116.88871765136719
110,/Users/cjpark/Desktop/ucla_courses/cs260r/assignment4/data/td3_agent_single_v15_progress_reward/td3,153,195711.50438556483,179315,113,1164.6234607696533,11194.900390625,-11296.380859375,263847.5,0.84,11195.7158203125,11225.6494140625,123.4395751953125
111,/Users/cjpark/Desktop/ucla_courses/cs260r/assignment4/data/td3_agent_single_v15_progress_reward/td3,153,194312.81481258848,182315,114,1186.3306448459625,10490.13671875,-10533.41796875,166979.875,0.83,10471.6796875,10491.451171875,106.9151840209961
112,/Users/cjpark/Desktop/ucla_courses/cs260r/assignment4/data/td3_agent_single_v15_progress_reward/td3,153,194300.57911030212,183598,115,1195.3542668819427,11115.744140625,,136053.0,0.83,11096.404296875,11079.4111328125,117.44609069824219
113,/Users/cjpark/Desktop/ucla_courses/cs260r/assignment4/data/td3_agent_single_v15_progress_reward/td3,153,194387.8135080016,184983,116,1205.2398746013641,10768.6474609375,-10842.3291015625,308453.8125,0.83,10769.1875,10757.18359375,108.69769287109375
114,/Users/cjpark/Desktop/ucla_courses/cs260r/assignment4/data/td3_agent_single_v15_progress_reward/td3,153,196370.02784893353,186361,117,1215.2132165431976,10595.287109375,-10714.3720703125,122563.7734375,0.84,10612.0859375,10593.509765625,107.82321166992188
115,/Users/cjpark/Desktop/ucla_courses/cs260r/assignment4/data/td3_agent_single_v15_progress_reward/td3,153,197308.18414122707,187701,118,1224.7936027050018,11342.5283203125,-11453.7822265625,452000.375,0.85,11385.1025390625,11397.033203125,125.23382568359375
116,/Users/cjpark/Desktop/ucla_courses/cs260r/assignment4/data/td3_agent_single_v15_progress_reward/td3,153,197732.48276241985,188947,119,1233.3825998306274,10509.0439453125,-10603.6318359375,459250.40625,0.86,10523.962890625,10547.537109375,108.8492431640625
117,/Users/cjpark/Desktop/ucla_courses/cs260r/assignment4/data/td3_agent_single_v15_progress_reward/td3,153,198078.18829515818,189807,120,1239.7086157798767,11432.13671875,-11472.3505859375,590978.0,0.86,11384.001953125,11379.546875,124.83759307861328
118,/Users/cjpark/Desktop/ucla_courses/cs260r/assignment4/data/td3_agent_single_v15_progress_reward/td3,153,200357.2342334967,191086,121,1248.6014726161957,10802.716796875,,102997.40625,0.87,10853.373046875,10837.4853515625,112.99977111816406
119,/Users/cjpark/Desktop/ucla_courses/cs260r/assignment4/data/td3_agent_single_v15_progress_reward/td3,152,200797.43407031073,192394,122,1257.4901847839355,10811.75390625,,362216.75,0.88,10843.8662109375,10848.7138671875,117.42620849609375
120,/Users/cjpark/Desktop/ucla_courses/cs260r/assignment4/data/td3_agent_single_v15_progress_reward/td3,152,201256.55374386406,193740,123,1266.6422169208527,10496.3955078125,,598751.6875,0.88,10551.28125,10565.7265625,108.2776870727539
121,/Users/cjpark/Desktop/ucla_courses/cs260r/assignment4/data/td3_agent_single_v15_progress_reward/td3,152,199895.3672127897,194076,124,1269.233319759369,10793.3857421875,,193395.03125,0.87,10792.67578125,10792.2568359375,109.28279113769531
122,/Users/cjpark/Desktop/ucla_courses/cs260r/assignment4/data/td3_agent_single_v15_progress_reward/td3,152,198509.6883695082,195928,126,1281.481300830841,11008.32421875,,389155.28125,0.86,10995.6689453125,10982.54296875,113.54671478271484
123,/Users/cjpark/Desktop/ucla_courses/cs260r/assignment4/data/td3_agent_single_v15_progress_reward/td3,152,198510.11261366922,197184,127,1289.9702489376068,11017.1103515625,,240810.578125,0.86,10983.44921875,10948.0029296875,120.73523712158203
124,/Users/cjpark/Desktop/ucla_courses/cs260r/assignment4/data/td3_agent_single_v15_progress_reward/td3,152,198893.5935777752,198549,128,1299.1522676944733,11441.703125,-11608.1640625,794445.625,0.87,11536.9873046875,11495.677734375,122.55469512939453
125,/Users/cjpark/Desktop/ucla_courses/cs260r/assignment4/data/td3_agent_single_v15_progress_reward/td3,152,198898.5178936897,199877,129,1307.962760925293,10678.326171875,-10848.3466796875,294441.15625,0.87,10779.7470703125,10771.88671875,111.32258605957031
126,/Users/cjpark/Desktop/ucla_courses/cs260r/assignment4/data/td3_agent_single_v15_progress_reward/td3,152,198912.38195367248,201207,130,1316.67475771904,10955.8125,-10979.48828125,189589.15625,0.87,10937.076171875,10993.2333984375,119.74424743652344
127,/Users/cjpark/Desktop/ucla_courses/cs260r/assignment4/data/td3_agent_single_v15_progress_reward/td3,152,200851.1136704666,202520,131,1325.6834449768066,10978.5771484375,,385761.71875,0.88,11005.1484375,11011.970703125,120.48279571533203
128,/Users/cjpark/Desktop/ucla_courses/cs260r/assignment4/data/td3_agent_single_v15_progress_reward/td3,152,200840.95104523806,203833,132,1334.7188277244568,11040.904296875,-11186.845703125,357378.40625,0.88,11051.5263671875,11023.990234375,121.2320556640625
129,/Users/cjpark/Desktop/ucla_courses/cs260r/assignment4/data/td3_agent_single_v15_progress_reward/td3,152,200855.50455181912,205141,133,1343.673282623291,11124.296875,-11212.36328125,200301.3125,0.88,11136.6796875,11148.6572265625,115.18782806396484
130,/Users/cjpark/Desktop/ucla_courses/cs260r/assignment4/data/td3_agent_single_v15_progress_reward/td3,152,200865.62926059647,206421,134,1352.2691667079926,11778.4677734375,-11873.955078125,187461.90625,0.88,11769.9287109375,11761.431640625,129.54249572753906
131,/Users/cjpark/Desktop/ucla_courses/cs260r/assignment4/data/td3_agent_single_v15_progress_reward/td3,152,200872.4852321852,207812,135,1361.756930589676,11753.6669921875,,224847.21875,0.88,11723.251953125,11756.3056640625,121.91554260253906
132,/Users/cjpark/Desktop/ucla_courses/cs260r/assignment4/data/td3_agent_single_v15_progress_reward/td3,152,200857.11879668132,209156,136,1370.5324139595032,10506.130859375,,224239.546875,0.88,10506.134765625,10503.8671875,110.982177734375
133,/Users/cjpark/Desktop/ucla_courses/cs260r/assignment4/data/td3_agent_single_v15_progress_reward/td3,152,200844.7354428285,210438,137,1379.2374427318573,10537.126953125,,378046.96875,0.88,10542.6708984375,10538.865234375,112.79007720947266
134,/Users/cjpark/Desktop/ucla_courses/cs260r/assignment4/data/td3_agent_single_v15_progress_reward/td3,152,200824.57455049065,211839,138,1388.7197077274323,10989.3408203125,-11096.23046875,226002.0,0.88,11036.6142578125,11052.9140625,119.20320892333984
135,/Users/cjpark/Desktop/ucla_courses/cs260r/assignment4/data/td3_agent_single_v15_progress_reward/td3,152,200836.76869166992,213201,139,1398.2374227046967,11346.3330078125,-11395.5498046875,263118.5,0.88,11312.3017578125,11346.09375,125.48180389404297
136,/Users/cjpark/Desktop/ucla_courses/cs260r/assignment4/data/td3_agent_single_v15_progress_reward/td3,152,200837.20465972798,214567,140,1407.2791686058044,10777.2451171875,-10838.1044921875,302250.46875,0.88,10760.388671875,10770.39453125,118.92454528808594
137,/Users/cjpark/Desktop/ucla_courses/cs260r/assignment4/data/td3_agent_single_v15_progress_reward/td3,152,200808.7786637566,215947,141,1416.6299867630005,10638.0517578125,-10747.7890625,284648.0625,0.88,10649.701171875,10630.640625,114.9761962890625
138,/Users/cjpark/Desktop/ucla_courses/cs260r/assignment4/data/td3_agent_single_v15_progress_reward/td3,152,200803.95679752014,217290,142,1425.7247297763824,10343.330078125,,233485.671875,0.88,10319.2744140625,10310.857421875,108.93213653564453
139,/Users/cjpark/Desktop/ucla_courses/cs260r/assignment4/data/td3_agent_single_v15_progress_reward/td3,152,200753.1667296597,218700,143,1435.8855156898499,11295.82421875,,231200.34375,0.88,11277.6708984375,11286.7021484375,128.05613708496094
140,/Users/cjpark/Desktop/ucla_courses/cs260r/assignment4/data/td3_agent_single_v15_progress_reward/td3,152,202417.79960830446,220055,144,1445.1652448177338,10700.701171875,-10776.7783203125,414946.3125,0.89,10681.126953125,10696.6513671875,118.74237823486328
141,/Users/cjpark/Desktop/ucla_courses/cs260r/assignment4/data/td3_agent_single_v15_progress_reward/td3,152,202423.034424154,221427,145,1454.3261198997498,11678.6748046875,-11748.9404296875,310878.125,0.89,11667.8828125,11685.859375,127.26932525634766
142,/Users/cjpark/Desktop/ucla_courses/cs260r/assignment4/data/td3_agent_single_v15_progress_reward/td3,152,202405.26927691966,222748,146,1463.1393687725067,10950.490234375,,385046.25,0.89,10986.185546875,10997.44921875,116.05192565917969
143,/Users/cjpark/Desktop/ucla_courses/cs260r/assignment4/data/td3_agent_single_v15_progress_reward/td3,152,202963.24603654363,224122,147,1472.7418458461761,11552.091796875,,151603.0,0.9,11566.544921875,11570.740234375,129.22581481933594
144,/Users/cjpark/Desktop/ucla_courses/cs260r/assignment4/data/td3_agent_single_v15_progress_reward/td3,152,203065.89481171762,225654,148,1482.9044916629791,11455.8740234375,,551362.1875,0.89,11418.8984375,11446.1630859375,128.07424926757812
145,/Users/cjpark/Desktop/ucla_courses/cs260r/assignment4/data/td3_agent_single_v15_progress_reward/td3,152,203050.62678090195,227045,149,1492.187650680542,11745.9814453125,-11840.9521484375,148144.28125,0.89,11727.5703125,11734.3486328125,129.43093872070312
146,/Users/cjpark/Desktop/ucla_courses/cs260r/assignment4/data/td3_agent_single_v15_progress_reward/td3,152,203098.6842180992,228335,150,1500.840491771698,11179.96484375,-11262.3408203125,142640.59375,0.89,11161.212890625,11147.3232421875,120.10137176513672
147,/Users/cjpark/Desktop/ucla_courses/cs260r/assignment4/data/td3_agent_single_v15_progress_reward/td3,152,203348.05901310744,229675,151,1509.8516037464142,10396.4384765625,-10508.818359375,462644.3125,0.89,10426.927734375,10458.3212890625,110.81952667236328
148,/Users/cjpark/Desktop/ucla_courses/cs260r/assignment4/data/td3_agent_single_v15_progress_reward/td3,152,204198.97684344184,230987,152,1518.5541167259216,11089.294921875,-11175.2978515625,219455.84375,0.9,11084.333984375,11097.404296875,122.46288299560547
149,/Users/cjpark/Desktop/ucla_courses/cs260r/assignment4/data/td3_agent_single_v15_progress_reward/td3,152,204206.12847801886,232293,153,1528.1165478229523,10717.5556640625,-10799.9130859375,214551.046875,0.9,10682.119140625,10659.181640625,111.27373504638672
150,/Users/cjpark/Desktop/ucla_courses/cs260r/assignment4/data/td3_agent_single_v15_progress_reward/td3,151,204207.78240658157,233691,154,1537.9516925811768,11271.3740234375,-11394.794921875,273910.9375,0.9,11297.7705078125,11302.740234375,122.59761047363281
151,/Users/cjpark/Desktop/ucla_courses/cs260r/assignment4/data/td3_agent_single_v15_progress_reward/td3,151,204379.18099600068,235134,155,1547.9420237541199,11682.0703125,,399575.90625,0.9,11674.5849609375,11686.9404296875,126.99496459960938
152,/Users/cjpark/Desktop/ucla_courses/cs260r/assignment4/data/td3_agent_single_v15_progress_reward/td3,151,204477.14452337485,236446,156,1556.9452469348907,11243.078125,,240976.5,0.9,11256.890625,11250.21484375,118.71505737304688
153,/Users/cjpark/Desktop/ucla_courses/cs260r/assignment4/data/td3_agent_single_v15_progress_reward/td3,151,203554.00175891363,237236,157,1562.2852869033813,11496.16015625,,271957.84375,0.89,11552.20703125,11530.5947265625,122.3670654296875
154,/Users/cjpark/Desktop/ucla_courses/cs260r/assignment4/data/td3_agent_single_v15_progress_reward/td3,151,203569.74916361418,238585,158,1571.4275069236755,11752.732421875,-11875.4580078125,429497.4375,0.89,11791.0546875,11797.8994140625,125.00039672851562
155,/Users/cjpark/Desktop/ucla_courses/cs260r/assignment4/data/td3_agent_single_v15_progress_reward/td3,151,203837.39840257715,240055,159,1581.2548758983612,11549.1513671875,-11694.25390625,297397.625,0.9,11636.1083984375,11626.3984375,123.66798400878906
156,/Users/cjpark/Desktop/ucla_courses/cs260r/assignment4/data/td3_agent_single_v15_progress_reward/td3,151,203868.58132630817,241455,160,1590.5949318408966,11408.541015625,-11528.9853515625,333664.5,0.9,11462.4130859375,11442.09765625,124.93709564208984
157,/Users/cjpark/Desktop/ucla_courses/cs260r/assignment4/data/td3_agent_single_v15_progress_reward/td3,151,203929.95116405174,242738,161,1599.097084760666,10902.0078125,,285342.8125,0.9,10915.4296875,10907.216796875,119.97438049316406
158,/Users/cjpark/Desktop/ucla_courses/cs260r/assignment4/data/td3_agent_single_v15_progress_reward/td3,151,203943.0449692085,244138,162,1609.1310677528381,12165.3525390625,,174166.4375,0.9,12187.6103515625,12161.5166015625,133.22323608398438
159,/Users/cjpark/Desktop/ucla_courses/cs260r/assignment4/data/td3_agent_single_v15_progress_reward/td3,151,204897.90023445568,245530,163,1619.3561878204346,10796.2294921875,,389493.875,0.91,10718.990234375,10733.07421875,116.22677612304688
160,/Users/cjpark/Desktop/ucla_courses/cs260r/assignment4/data/td3_agent_single_v15_progress_reward/td3,151,204920.07148080124,246898,164,1629.2292857170105,11548.7626953125,,256742.015625,0.91,11532.525390625,11494.5458984375,126.4916763305664
161,/Users/cjpark/Desktop/ucla_courses/cs260r/assignment4/data/td3_agent_single_v15_progress_reward/td3,151,204951.4009619403,248224,165,1638.5550458431244,11542.763671875,,405279.5,0.91,11550.3798828125,11542.369140625,127.8651123046875
162,/Users/cjpark/Desktop/ucla_courses/cs260r/assignment4/data/td3_agent_single_v15_progress_reward/td3,151,204753.1859280937,249652,166,1648.817374944687,11204.3671875,,212017.796875,0.9,11177.12109375,11191.341796875,126.33511352539062
163,/Users/cjpark/Desktop/ucla_courses/cs260r/assignment4/data/td3_agent_single_v15_progress_reward/td3,151,204769.46531231847,250994,167,1658.1187798976898,11604.634765625,,221039.84375,0.9,11702.1494140625,11678.5869140625,128.6379852294922
164,/Users/cjpark/Desktop/ucla_courses/cs260r/assignment4/data/td3_agent_single_v15_progress_reward/td3,151,204758.02963099233,252416,168,1667.8552277088165,11935.107421875,,234482.171875,0.9,11878.783203125,11879.8359375,130.4329376220703
165,/Users/cjpark/Desktop/ucla_courses/cs260r/assignment4/data/td3_agent_single_v15_progress_reward/td3,151,204772.94584454055,253842,169,1677.5749278068542,10560.5009765625,,276780.625,0.9,10596.568359375,10604.8671875,115.62462615966797
166,/Users/cjpark/Desktop/ucla_courses/cs260r/assignment4/data/td3_agent_single_v15_progress_reward/td3,151,204770.4606680678,255113,170,1686.7198128700256,11052.5634765625,-11155.9677734375,140889.21875,0.9,11054.6162109375,11050.337890625,115.3795166015625
167,/Users/cjpark/Desktop/ucla_courses/cs260r/assignment4/data/td3_agent_single_v15_progress_reward/td3,151,204774.40270789104,256565,171,1696.9920117855072,11924.34375,-12021.1328125,143514.59375,0.9,11963.1630859375,11987.4794921875,130.6304168701172
168,/Users/cjpark/Desktop/ucla_courses/cs260r/assignment4/data/td3_agent_single_v15_progress_reward/td3,151,204808.04990925436,257855,172,1706.166997909546,11168.2197265625,-11286.908203125,297586.25,0.9,11144.501953125,11116.263671875,120.66393280029297
169,/Users/cjpark/Desktop/ucla_courses/cs260r/assignment4/data/td3_agent_single_v15_progress_reward/td3,151,204799.92537354532,259225,173,1716.0916078090668,11512.013671875,-11606.0703125,413994.625,0.9,11498.6025390625,11476.484375,129.1339111328125
170,/Users/cjpark/Desktop/ucla_courses/cs260r/assignment4/data/td3_agent_single_v15_progress_reward/td3,151,204840.99210558337,260552,174,1725.3473677635193,11380.1240234375,,157790.25,0.9,11392.0556640625,11424.470703125,125.76102447509766
171,/Users/cjpark/Desktop/ucla_courses/cs260r/assignment4/data/td3_agent_single_v15_progress_reward/td3,150,205815.94677729803,261946,175,1736.1985516548157,11144.994140625,,233045.0625,0.91,11123.5322265625,11129.96875,118.6694564819336
172,/Users/cjpark/Desktop/ucla_courses/cs260r/assignment4/data/td3_agent_single_v15_progress_reward/td3,150,205820.17343277915,263303,176,1746.8056597709656,11923.0498046875,-12043.140625,553056.5,0.91,11986.5322265625,12021.177734375,127.36445617675781
173,/Users/cjpark/Desktop/ucla_courses/cs260r/assignment4/data/td3_agent_single_v15_progress_reward/td3,150,205830.45759145092,264682,177,1757.7408158779144,11673.005859375,,563070.8125,0.91,11658.623046875,11673.2880859375,127.85902404785156
174,/Users/cjpark/Desktop/ucla_courses/cs260r/assignment4/data/td3_agent_single_v15_progress_reward/td3,150,205844.14462682806,266063,178,1769.4166197776794,11834.9326171875,-11935.5634765625,212857.421875,0.91,11847.85546875,11825.86328125,130.06634521484375
175,/Users/cjpark/Desktop/ucla_courses/cs260r/assignment4/data/td3_agent_single_v15_progress_reward/td3,150,205863.73927736812,267386,179,1780.1073207855225,11783.7119140625,,245432.40625,0.91,11761.03125,11763.5859375,129.48406982421875
176,/Users/cjpark/Desktop/ucla_courses/cs260r/assignment4/data/td3_agent_single_v15_progress_reward/td3,150,205855.56849697835,268811,180,1791.7038178443909,11708.03125,-11820.7919921875,201385.09375,0.91,11691.4755859375,11668.56640625,127.77645874023438
177,/Users/cjpark/Desktop/ucla_courses/cs260r/assignment4/data/td3_agent_single_v15_progress_reward/td3,150,205852.38794739413,270131,181,1800.7857987880707,10871.9208984375,-10981.5068359375,244840.4375,0.91,10915.9404296875,10901.7939453125,124.79756927490234
178,/Users/cjpark/Desktop/ucla_courses/cs260r/assignment4/data/td3_agent_single_v15_progress_reward/td3,149,205844.31859162703,271495,182,1811.334089756012,11772.783203125,-11878.2373046875,367473.3125,0.91,11760.93359375,11770.861328125,127.07574462890625
179,/Users/cjpark/Desktop/ucla_courses/cs260r/assignment4/data/td3_agent_single_v15_progress_reward/td3,149,205816.50017331433,272922,183,1822.3798196315765,11859.8125,,200874.21875,0.91,11881.2236328125,11904.8671875,131.0964813232422
180,/Users/cjpark/Desktop/ucla_courses/cs260r/assignment4/data/td3_agent_single_v15_progress_reward/td3,149,205806.9545502865,274200,184,1831.767139673233,12404.2685546875,,304456.25,0.91,12383.8330078125,12350.158203125,139.40338134765625
181,/Users/cjpark/Desktop/ucla_courses/cs260r/assignment4/data/td3_agent_single_v15_progress_reward/td3,149,205780.69316682097,275483,185,1841.6757698059082,11767.6689453125,-11896.251953125,267818.875,0.91,11754.0322265625,11706.7607421875,134.14645385742188
182,/Users/cjpark/Desktop/ucla_courses/cs260r/assignment4/data/td3_agent_single_v15_progress_reward/td3,149,206067.41742417242,276865,186,1852.3896687030792,11570.6298828125,-11677.1484375,485504.125,0.92,11580.5869140625,11603.267578125,128.66969299316406
183,/Users/cjpark/Desktop/ucla_courses/cs260r/assignment4/data/td3_agent_single_v15_progress_reward/td3,149,206076.80896558057,278214,187,1865.4342937469482,11851.7509765625,,141741.125,0.92,11901.3359375,11910.1640625,130.60499572753906
184,/Users/cjpark/Desktop/ucla_courses/cs260r/assignment4/data/td3_agent_single_v15_progress_reward/td3,148,206042.33131541242,279545,188,1878.519271850586,11597.2265625,-11621.51953125,178778.953125,0.92,11520.9482421875,11517.125,130.32569885253906
185,/Users/cjpark/Desktop/ucla_courses/cs260r/assignment4/data/td3_agent_single_v15_progress_reward/td3,148,206030.011361143,280895,189,1892.552542924881,11648.5205078125,-11777.5439453125,152286.53125,0.92,11684.7333984375,11703.8662109375,122.5492935180664
186,/Users/cjpark/Desktop/ucla_courses/cs260r/assignment4/data/td3_agent_single_v15_progress_reward/td3,148,206001.12026181415,282260,190,1906.1461548805237,11726.4990234375,,122564.6875,0.92,11710.4873046875,11713.9365234375,131.71597290039062
187,/Users/cjpark/Desktop/ucla_courses/cs260r/assignment4/data/td3_agent_single_v15_progress_reward/td3,147,205015.8051440686,283015,191,1913.6720099449158,11907.12890625,-11979.2119140625,219941.9375,0.91,11872.4423828125,11878.6669921875,132.60760498046875
188,/Users/cjpark/Desktop/ucla_courses/cs260r/assignment4/data/td3_agent_single_v15_progress_reward/td3,147,205019.16684083352,284389,192,1927.2708497047424,11538.962890625,-11657.1318359375,126366.4375,0.91,11556.9970703125,11565.669921875,126.58029174804688
189,/Users/cjpark/Desktop/ucla_courses/cs260r/assignment4/data/td3_agent_single_v15_progress_reward/td3,147,204999.5456547483,285717,193,1940.2297699451447,11789.9072265625,-11900.0029296875,364630.40625,0.91,11812.4267578125,11809.921875,132.08322143554688
190,/Users/cjpark/Desktop/ucla_courses/cs260r/assignment4/data/td3_agent_single_v15_progress_reward/td3,146,204981.94079692187,287090,194,1954.2006347179413,12003.3583984375,,265063.3125,0.91,12021.1640625,12027.404296875,129.38302612304688
191,/Users/cjpark/Desktop/ucla_courses/cs260r/assignment4/data/td3_agent_single_v15_progress_reward/td3,146,204910.16472033435,288726,195,1970.3821187019348,11741.216796875,,212896.0,0.91,11621.1142578125,11633.6943359375,125.26387023925781
192,/Users/cjpark/Desktop/ucla_courses/cs260r/assignment4/data/td3_agent_single_v15_progress_reward/td3,146,204880.07479871533,290238,196,1985.1557025909424,12220.439453125,,192370.171875,0.91,12220.935546875,12212.0390625,132.61929321289062
193,/Users/cjpark/Desktop/ucla_courses/cs260r/assignment4/data/td3_agent_single_v15_progress_reward/td3,145,204840.13859837013,291540,197,1997.9215188026428,11503.03515625,,240631.84375,0.91,11447.41015625,11452.9150390625,128.0038299560547
194,/Users/cjpark/Desktop/ucla_courses/cs260r/assignment4/data/td3_agent_single_v15_progress_reward/td3,145,204222.0525213951,292755,198,2009.3384728431702,11313.90234375,-11494.6025390625,438822.625,0.9,11409.341796875,11409.9697265625,129.1882781982422
195,/Users/cjpark/Desktop/ucla_courses/cs260r/assignment4/data/td3_agent_single_v15_progress_reward/td3,145,204251.5947484959,294050,199,2021.7133367061615,11288.361328125,,158592.78125,0.9,11313.087890625,11260.18359375,123.8705825805664
196,/Users/cjpark/Desktop/ucla_courses/cs260r/assignment4/data/td3_agent_single_v15_progress_reward/td3,145,204701.3223239444,295436,200,2034.803769826889,12234.7529296875,,173949.046875,0.91,12310.7607421875,12316.69140625,135.8280487060547
197,/Users/cjpark/Desktop/ucla_courses/cs260r/assignment4/data/td3_agent_single_v15_progress_reward/td3,144,204676.7984275833,296842,201,2049.1193358898163,12035.287109375,,119129.515625,0.91,11989.0380859375,12017.6337890625,132.8098907470703
198,/Users/cjpark/Desktop/ucla_courses/cs260r/assignment4/data/td3_agent_single_v15_progress_reward/td3,144,204665.53856510407,298166,202,2063.142378807068,11410.7421875,,231130.65625,0.91,11371.0,11352.2822265625,127.91165924072266
199,/Users/cjpark/Desktop/ucla_courses/cs260r/assignment4/data/td3_agent_single_v15_progress_reward/td3,144,204647.32666262667,299691,203,2078.0076217651367,11292.7451171875,-11407.4560546875,159661.171875,0.91,11261.3857421875,11264.7314453125,127.28746032714844
200,/Users/cjpark/Desktop/ucla_courses/cs260r/assignment4/data/td3_agent_single_v15_progress_reward/td3,143,204625.9347432861,302691,204,2107.9209978580475,11504.8583984375,-11650.71484375,417946.8125,0.9,11579.3017578125,11560.3115234375,124.0037612915039
201,/Users/cjpark/Desktop/ucla_courses/cs260r/assignment4/data/td3_agent_single_v15_progress_reward/td3,143,204597.25717511403,304053,205,2120.8205478191376,10973.9697265625,-11103.052734375,311569.5625,0.9,11006.4609375,11003.15234375,127.86885070800781
202,/Users/cjpark/Desktop/ucla_courses/cs260r/assignment4/data/td3_agent_single_v15_progress_reward/td3,143,204564.62275899065,305502,206,2135.043208837509,11512.4365234375,,152392.546875,0.9,11514.490234375,11522.146484375,126.64028930664062
203,/Users/cjpark/Desktop/ucla_courses/cs260r/assignment4/data/td3_agent_single_v15_progress_reward/td3,142,204594.0007585304,306900,207,2148.0077328681946,10761.388671875,,519617.625,0.9,10756.9404296875,10789.982421875,123.98870849609375
204,/Users/cjpark/Desktop/ucla_courses/cs260r/assignment4/data/td3_agent_single_v15_progress_reward/td3,142,204598.35858649746,308299,208,2161.3362107276917,11859.275390625,-11921.0,214441.078125,0.9,11861.1826171875,11873.78515625,131.49954223632812
205,/Users/cjpark/Desktop/ucla_courses/cs260r/assignment4/data/td3_agent_single_v15_progress_reward/td3,142,204560.14887890007,309584,209,2174.6418108940125,11409.33984375,,134406.234375,0.9,11379.62109375,11383.193359375,126.78470611572266
206,/Users/cjpark/Desktop/ucla_courses/cs260r/assignment4/data/td3_agent_single_v15_progress_reward/td3,142,204537.15204872642,311043,210,2188.9006626605988,11550.3232421875,-11647.0537109375,446715.8125,0.9,11544.2451171875,11520.361328125,126.26211547851562
207,/Users/cjpark/Desktop/ucla_courses/cs260r/assignment4/data/td3_agent_single_v15_progress_reward/td3,141,204528.5365871147,312340,211,2201.553853750229,12295.865234375,,106488.140625,0.9,12289.427734375,12285.3564453125,135.7432861328125
208,/Users/cjpark/Desktop/ucla_courses/cs260r/assignment4/data/td3_agent_single_v15_progress_reward/td3,141,204494.722809038,313719,212,2214.8024837970734,12109.765625,-12233.984375,158068.375,0.9,12126.48046875,12142.5068359375,130.8898468017578
209,/Users/cjpark/Desktop/ucla_courses/cs260r/assignment4/data/td3_agent_single_v15_progress_reward/td3,141,204475.9949085852,315124,213,2228.786511659622,11265.4716796875,,261084.09375,0.9,11268.96875,11292.51171875,125.17572021484375
210,/Users/cjpark/Desktop/ucla_courses/cs260r/assignment4/data/td3_agent_single_v15_progress_reward/td3,141,205948.0050374457,316501,214,2242.153835773468,12049.0546875,-12143.3701171875,154876.5,0.91,12049.4287109375,12039.693359375,135.45895385742188
211,/Users/cjpark/Desktop/ucla_courses/cs260r/assignment4/data/td3_agent_single_v15_progress_reward/td3,140,205902.01529706153,317843,215,2256.465791940689,11947.203125,-11986.912109375,154339.21875,0.91,11921.541015625,11925.55078125,133.49114990234375
212,/Users/cjpark/Desktop/ucla_courses/cs260r/assignment4/data/td3_agent_single_v15_progress_reward/td3,140,205895.76881407996,319172,216,2269.170389890671,11890.5146484375,,142865.40625,0.91,11870.26171875,11863.478515625,129.95220947265625
213,/Users/cjpark/Desktop/ucla_courses/cs260r/assignment4/data/td3_agent_single_v15_progress_reward/td3,140,205888.80571001186,320473,217,2281.4816267490387,12196.17578125,-12342.6650390625,173782.03125,0.91,12252.4833984375,12251.9111328125,135.1607666015625
214,/Users/cjpark/Desktop/ucla_courses/cs260r/assignment4/data/td3_agent_single_v15_progress_reward/td3,140,205873.40662855227,321826,218,2294.579060792923,11699.9677734375,,192182.921875,0.91,11652.4951171875,11678.8740234375,126.5985107421875
215,/Users/cjpark/Desktop/ucla_courses/cs260r/assignment4/data/td3_agent_single_v15_progress_reward/td3,140,205870.04594117322,323174,219,2308.325902700424,11828.3994140625,,338696.0625,0.91,11841.0556640625,11826.3984375,129.57925415039062
216,/Users/cjpark/Desktop/ucla_courses/cs260r/assignment4/data/td3_agent_single_v15_progress_reward/td3,139,206923.87222708244,324541,220,2321.579921722412,11835.552734375,-11886.130859375,249097.1875,0.92,11755.853515625,11761.0087890625,134.3524169921875
217,/Users/cjpark/Desktop/ucla_courses/cs260r/assignment4/data/td3_agent_single_v15_progress_reward/td3,139,206920.87211115137,325946,221,2335.2482068538666,12728.453125,,270346.625,0.92,12694.8203125,12709.34765625,144.18312072753906
218,/Users/cjpark/Desktop/ucla_courses/cs260r/assignment4/data/td3_agent_single_v15_progress_reward/td3,139,204629.74775412824,328946,222,2365.5922565460205,11191.50390625,,260936.90625,0.91,11124.580078125,11123.8369140625,125.82058715820312
219,/Users/cjpark/Desktop/ucla_courses/cs260r/assignment4/data/td3_agent_single_v15_progress_reward/td3,138,204625.2435688532,330330,223,2379.7874796390533,11401.705078125,,248094.5,0.91,11393.9169921875,11385.4482421875,132.43063354492188
220,/Users/cjpark/Desktop/ucla_courses/cs260r/assignment4/data/td3_agent_single_v15_progress_reward/td3,138,206537.3507672489,331681,224,2393.6545598506927,12076.267578125,-12176.140625,221990.328125,0.92,12129.86328125,12107.9970703125,137.19937133789062
221,/Users/cjpark/Desktop/ucla_courses/cs260r/assignment4/data/td3_agent_single_v15_progress_reward/td3,138,207915.5877496655,333061,225,2406.865758895874,11552.6806640625,-11659.48046875,128578.828125,0.93,11581.787109375,11564.2783203125,133.10264587402344
222,/Users/cjpark/Desktop/ucla_courses/cs260r/assignment4/data/td3_agent_single_v15_progress_reward/td3,138,207933.62802180304,334511,226,2420.9042477607727,10943.486328125,-11056.021484375,309498.3125,0.93,10904.0849609375,10887.83984375,120.482666015625
223,/Users/cjpark/Desktop/ucla_courses/cs260r/assignment4/data/td3_agent_single_v15_progress_reward/td3,138,207905.86274383334,335916,227,2433.691002845764,11616.978515625,,278233.59375,0.93,11641.525390625,11623.548828125,127.17867279052734
224,/Users/cjpark/Desktop/ucla_courses/cs260r/assignment4/data/td3_agent_single_v15_progress_reward/td3,137,207894.1641922726,337245,228,2446.771078824997,11380.892578125,-11527.85546875,345566.5625,0.93,11395.6484375,11349.0439453125,127.21722412109375
225,/Users/cjpark/Desktop/ucla_courses/cs260r/assignment4/data/td3_agent_single_v15_progress_reward/td3,137,207889.44480910423,338816,229,2461.2879219055176,11203.1552734375,,151861.0,0.93,11190.79296875,11215.859375,131.46031188964844
226,/Users/cjpark/Desktop/ucla_courses/cs260r/assignment4/data/td3_agent_single_v15_progress_reward/td3,137,207874.16719129766,340138,230,2473.625509738922,10773.5419921875,,279961.90625,0.93,10730.779296875,10742.42578125,123.1548843383789
227,/Users/cjpark/Desktop/ucla_courses/cs260r/assignment4/data/td3_agent_single_v15_progress_reward/td3,137,207858.09999847453,341420,231,2486.461851835251,11991.1435546875,,166219.71875,0.93,11970.20703125,11997.681640625,137.15904235839844
228,/Users/cjpark/Desktop/ucla_courses/cs260r/assignment4/data/td3_agent_single_v15_progress_reward/td3,137,207841.99273004092,342723,232,2498.9495706558228,11116.1728515625,-11212.3017578125,384066.4375,0.93,11114.9443359375,11112.111328125,122.32453918457031
229,/Users/cjpark/Desktop/ucla_courses/cs260r/assignment4/data/td3_agent_single_v15_progress_reward/td3,136,207646.97249353153,345077,233,2521.8095848560333,11750.1787109375,-11830.4033203125,600363.625,0.93,11796.1787109375,11811.30859375,131.79232788085938
230,/Users/cjpark/Desktop/ucla_courses/cs260r/assignment4/data/td3_agent_single_v15_progress_reward/td3,136,207625.78709600252,346566,234,2536.386417865753,11345.078125,,130973.2578125,0.93,11340.654296875,11321.12890625,128.9449920654297
231,/Users/cjpark/Desktop/ucla_courses/cs260r/assignment4/data/td3_agent_single_v15_progress_reward/td3,136,207623.15049824252,347909,235,2550.3167595863342,11618.314453125,-11766.224609375,469354.09375,0.93,11677.1201171875,11662.158203125,132.62405395507812
232,/Users/cjpark/Desktop/ucla_courses/cs260r/assignment4/data/td3_agent_single_v15_progress_reward/td3,136,207638.697135567,349345,236,2565.5763845443726,11679.1689453125,-11747.4833984375,206931.109375,0.93,11667.55859375,11657.67578125,133.76422119140625
233,/Users/cjpark/Desktop/ucla_courses/cs260r/assignment4/data/td3_agent_single_v15_progress_reward/td3,136,207387.92079847705,350750,237,2578.5564815998077,11489.822265625,,228138.3125,0.92,11437.2177734375,11471.2373046875,132.83367919921875
234,/Users/cjpark/Desktop/ucla_courses/cs260r/assignment4/data/td3_agent_single_v15_progress_reward/td3,135,207407.81568237237,352141,238,2593.53537774086,11531.11328125,-11677.39453125,209544.75,0.92,11552.0478515625,11475.6201171875,138.53836059570312
235,/Users/cjpark/Desktop/ucla_courses/cs260r/assignment4/data/td3_agent_single_v15_progress_reward/td3,135,207401.9110846385,353535,239,2607.8048038482666,11179.1494140625,-11275.72265625,179923.0625,0.92,11159.6884765625,11145.4365234375,131.94650268554688
236,/Users/cjpark/Desktop/ucla_courses/cs260r/assignment4/data/td3_agent_single_v15_progress_reward/td3,135,207400.74434480869,354868,240,2622.983452796936,11654.728515625,,237096.28125,0.92,11652.0595703125,11669.0810546875,136.08563232421875
237,/Users/cjpark/Desktop/ucla_courses/cs260r/assignment4/data/td3_agent_single_v15_progress_reward/td3,134,205493.59218598992,357868,241,2651.989903688431,10877.6240234375,,126957.8515625,0.91,10889.8671875,10910.5419921875,126.7357406616211
238,/Users/cjpark/Desktop/ucla_courses/cs260r/assignment4/data/td3_agent_single_v15_progress_reward/td3,134,203926.18263140297,358359,242,2656.715930700302,11787.88671875,-11960.650390625,259945.71875,0.9,11840.5185546875,11802.529296875,135.7445526123047
239,/Users/cjpark/Desktop/ucla_courses/cs260r/assignment4/data/td3_agent_single_v15_progress_reward/td3,134,203934.83251043133,359712,243,2670.0310196876526,10652.923828125,,171612.9375,0.9,10680.181640625,10678.42578125,124.9256820678711
240,/Users/cjpark/Desktop/ucla_courses/cs260r/assignment4/data/td3_agent_single_v15_progress_reward/td3,134,203924.46901924413,361018,244,2681.703769683838,10691.5859375,,338734.125,0.9,10705.23046875,10666.0478515625,126.08796691894531
241,/Users/cjpark/Desktop/ucla_courses/cs260r/assignment4/data/td3_agent_single_v15_progress_reward/td3,134,202154.12320180712,362480,245,2695.0863139629364,11319.0859375,,245762.90625,0.89,11322.1005859375,11315.056640625,127.5428466796875
242,/Users/cjpark/Desktop/ucla_courses/cs260r/assignment4/data/td3_agent_single_v15_progress_reward/td3,134,202148.9963846052,363928,246,2708.07496881485,11134.7734375,,640579.0,0.89,11112.2548828125,11082.6953125,131.2649688720703
243,/Users/cjpark/Desktop/ucla_courses/cs260r/assignment4/data/td3_agent_single_v15_progress_reward/td3,134,202178.0320760192,365253,247,2719.7356798648834,10938.650390625,-11109.3837890625,139608.6875,0.89,10982.615234375,10937.041015625,126.9188232421875
244,/Users/cjpark/Desktop/ucla_courses/cs260r/assignment4/data/td3_agent_single_v15_progress_reward/td3,134,202365.5147403862,366570,248,2730.741639852524,11336.1943359375,,272080.8125,0.9,11392.8359375,11394.53125,135.79483032226562
245,/Users/cjpark/Desktop/ucla_courses/cs260r/assignment4/data/td3_agent_single_v15_progress_reward/td3,134,202370.39258413788,368044,249,2743.8564846515656,10886.994140625,,643386.4375,0.9,10951.267578125,10961.634765625,128.72337341308594
246,/Users/cjpark/Desktop/ucla_courses/cs260r/assignment4/data/td3_agent_single_v15_progress_reward/td3,134,202362.444058575,369416,250,2756.4284496307373,11148.7939453125,,353807.9375,0.9,11219.927734375,11136.7568359375,133.88351440429688
247,/Users/cjpark/Desktop/ucla_courses/cs260r/assignment4/data/td3_agent_single_v15_progress_reward/td3,133,202379.40636848015,370766,251,2769.1496608257294,11885.1181640625,,142894.90625,0.9,11869.8359375,11872.9296875,140.0658721923828
248,/Users/cjpark/Desktop/ucla_courses/cs260r/assignment4/data/td3_agent_single_v15_progress_reward/td3,133,202342.5329730854,372053,252,2780.809184551239,10699.04296875,-10826.43359375,387891.78125,0.9,10733.703125,10734.986328125,127.56126403808594
249,/Users/cjpark/Desktop/ucla_courses/cs260r/assignment4/data/td3_agent_single_v15_progress_reward/td3,133,202336.63066045352,373462,253,2795.224189758301,11749.716796875,,229329.8125,0.9,11775.5576171875,11762.8642578125,141.94891357421875
250,/Users/cjpark/Desktop/ucla_courses/cs260r/assignment4/data/td3_agent_single_v15_progress_reward/td3,133,202309.80728752312,374814,254,2807.734195947647,10952.85546875,,189848.0625,0.9,10948.328125,10970.6875,129.748046875
251,/Users/cjpark/Desktop/ucla_courses/cs260r/assignment4/data/td3_agent_single_v15_progress_reward/td3,133,202278.57437354437,376079,255,2819.3848028182983,10853.7373046875,-10966.7587890625,289071.0,0.9,10873.6337890625,10861.1455078125,127.62358093261719
252,/Users/cjpark/Desktop/ucla_courses/cs260r/assignment4/data/td3_agent_single_v15_progress_reward/td3,133,201406.19471886347,377756,257,2836.7617127895355,10918.0947265625,,194115.75,0.9,10885.27734375,10845.2744140625,127.35364532470703
253,/Users/cjpark/Desktop/ucla_courses/cs260r/assignment4/data/td3_agent_single_v15_progress_reward/td3,132,201371.98402686007,379188,258,2851.4960997104645,11058.140625,,269841.28125,0.9,11068.99609375,11059.150390625,130.39285278320312
254,/Users/cjpark/Desktop/ucla_courses/cs260r/assignment4/data/td3_agent_single_v15_progress_reward/td3,132,201384.46156935446,380494,259,2864.948386669159,11089.69140625,,141960.265625,0.9,11093.4150390625,11095.044921875,132.34310913085938
255,/Users/cjpark/Desktop/ucla_courses/cs260r/assignment4/data/td3_agent_single_v15_progress_reward/td3,132,201381.23281673354,381871,260,2878.8400309085846,11087.7578125,-11215.28515625,248572.671875,0.9,11054.373046875,11032.9404296875,135.34994506835938
256,/Users/cjpark/Desktop/ucla_courses/cs260r/assignment4/data/td3_agent_single_v15_progress_reward/td3,132,201387.4153317076,383256,261,2893.119090795517,11299.6728515625,,163450.0625,0.9,11300.87109375,11294.5615234375,132.9793701171875
257,/Users/cjpark/Desktop/ucla_courses/cs260r/assignment4/data/td3_agent_single_v15_progress_reward/td3,132,201366.88052041805,384569,262,2905.0019845962524,10732.994140625,-10812.8681640625,177154.125,0.9,10655.5029296875,10634.0234375,121.89750671386719
258,/Users/cjpark/Desktop/ucla_courses/cs260r/assignment4/data/td3_agent_single_v15_progress_reward/td3,132,201348.54083668411,386034,263,2920.4860467910767,10768.23828125,,253478.296875,0.9,10795.9453125,10771.3798828125,129.28353881835938
259,/Users/cjpark/Desktop/ucla_courses/cs260r/assignment4/data/td3_agent_single_v15_progress_reward/td3,131,199740.56067136885,387846,265,2941.1998929977417,10957.8466796875,,232526.75,0.89,10917.58984375,10889.7314453125,127.35885620117188
260,/Users/cjpark/Desktop/ucla_courses/cs260r/assignment4/data/td3_agent_single_v15_progress_reward/td3,131,199916.54767143828,389255,266,2954.510145664215,11064.740234375,-11154.41015625,157401.8125,0.9,11074.03125,11107.7490234375,126.35274505615234
261,/Users/cjpark/Desktop/ucla_courses/cs260r/assignment4/data/td3_agent_single_v15_progress_reward/td3,131,199902.4159144184,390583,267,2967.429042816162,10947.935546875,-11055.115234375,115476.65625,0.9,10955.8134765625,10992.2744140625,127.72303771972656
262,/Users/cjpark/Desktop/ucla_courses/cs260r/assignment4/data/td3_agent_single_v15_progress_reward/td3,131,198910.61512992348,391377,268,2976.071984767914,11529.9755859375,-11609.07421875,196931.15625,0.89,11499.6220703125,11504.5927734375,130.79531860351562
263,/Users/cjpark/Desktop/ucla_courses/cs260r/assignment4/data/td3_agent_single_v15_progress_reward/td3,131,197601.7684841533,392002,269,2982.8426327705383,11250.4267578125,,132578.765625,0.88,11274.259765625,11250.875,133.15432739257812
264,/Users/cjpark/Desktop/ucla_courses/cs260r/assignment4/data/td3_agent_single_v15_progress_reward/td3,131,196583.1780669536,393687,270,3000.5791397094727,11792.1103515625,-11870.3916015625,237523.1875,0.87,11771.7333984375,11778.251953125,135.217041015625
265,/Users/cjpark/Desktop/ucla_courses/cs260r/assignment4/data/td3_agent_single_v15_progress_reward/td3,131,195953.08898748786,395114,271,3014.252052783966,11290.4873046875,,255047.4375,0.86,11260.2578125,11273.6572265625,130.4390106201172
266,/Users/cjpark/Desktop/ucla_courses/cs260r/assignment4/data/td3_agent_single_v15_progress_reward/td3,130,195933.35956782757,396404,272,3026.76459980011,11298.755859375,,171259.796875,0.86,11201.9853515625,11192.072265625,134.83058166503906
267,/Users/cjpark/Desktop/ucla_courses/cs260r/assignment4/data/td3_agent_single_v15_progress_reward/td3,130,195917.83645183858,397733,273,3040.101884841919,11097.9521484375,-11183.21875,165652.5625,0.86,11132.7763671875,11104.9111328125,136.85899353027344
268,/Users/cjpark/Desktop/ucla_courses/cs260r/assignment4/data/td3_agent_single_v15_progress_reward/td3,130,195870.40066459923,399033,274,3052.589426755905,11108.1171875,-11215.7568359375,127517.046875,0.86,11102.384765625,11085.3857421875,130.2671661376953
269,/Users/cjpark/Desktop/ucla_courses/cs260r/assignment4/data/td3_agent_single_v15_progress_reward/td3,130,195842.63914027408,400466,275,3066.820676803589,11195.828125,,254696.46875,0.86,11278.6533203125,11260.505859375,130.02072143554688
270,/Users/cjpark/Desktop/ucla_courses/cs260r/assignment4/data/td3_agent_single_v15_progress_reward/td3,130,195860.50716709415,401806,276,3079.3274438381195,11282.6875,,251732.28125,0.86,11321.8818359375,11311.6396484375,141.56349182128906
271,/Users/cjpark/Desktop/ucla_courses/cs260r/assignment4/data/td3_agent_single_v15_progress_reward/td3,130,194339.58286956418,402327,277,3084.738635778427,10536.3798828125,-10653.9033203125,339313.4375,0.85,10615.478515625,10589.8232421875,129.6756591796875
272,/Users/cjpark/Desktop/ucla_courses/cs260r/assignment4/data/td3_agent_single_v15_progress_reward/td3,130,194350.2935430156,403626,278,3097.1395757198334,11150.26171875,,205338.03125,0.85,11115.662109375,11155.0068359375,129.50428771972656
273,/Users/cjpark/Desktop/ucla_courses/cs260r/assignment4/data/td3_agent_single_v15_progress_reward/td3,130,194359.88603942108,405015,279,3109.7808146476746,10852.8466796875,-10911.619140625,207425.15625,0.85,10816.3564453125,10820.30078125,132.71762084960938
274,/Users/cjpark/Desktop/ucla_courses/cs260r/assignment4/data/td3_agent_single_v15_progress_reward/td3,130,192656.81272812374,406879,281,3128.460320711136,10762.8544921875,-10812.8076171875,238096.34375,0.84,10709.626953125,10731.59375,130.5559844970703
275,/Users/cjpark/Desktop/ucla_courses/cs260r/assignment4/data/td3_agent_single_v15_progress_reward/td3,129,192704.4089975465,408298,282,3141.2786407470703,10920.9853515625,,295843.5,0.84,10932.564453125,10943.873046875,131.8909149169922
276,/Users/cjpark/Desktop/ucla_courses/cs260r/assignment4/data/td3_agent_single_v15_progress_reward/td3,129,192763.02727531167,409655,283,3153.6456665992737,11545.9755859375,-11618.9365234375,123713.9921875,0.84,11520.8779296875,11497.083984375,137.63938903808594
277,/Users/cjpark/Desktop/ucla_courses/cs260r/assignment4/data/td3_agent_single_v15_progress_reward/td3,129,192751.21850053908,410972,284,3167.2690229415894,11222.4794921875,,268189.21875,0.84,11259.7021484375,11298.2109375,132.31195068359375
278,/Users/cjpark/Desktop/ucla_courses/cs260r/assignment4/data/td3_agent_single_v15_progress_reward/td3,129,192756.1980998076,412314,285,3180.0582797527313,10681.666015625,,220630.71875,0.84,10727.8056640625,10732.5341796875,124.50630950927734
279,/Users/cjpark/Desktop/ucla_courses/cs260r/assignment4/data/td3_agent_single_v15_progress_reward/td3,129,191849.51413103924,413186,286,3189.248448610306,11464.4091796875,,194886.140625,0.83,11455.71484375,11461.236328125,140.1183624267578
280,/Users/cjpark/Desktop/ucla_courses/cs260r/assignment4/data/td3_agent_single_v15_progress_reward/td3,129,191859.2473587956,414456,287,3201.1081516742706,11693.826171875,,332507.28125,0.83,11689.8916015625,11644.7021484375,135.5990753173828
281,/Users/cjpark/Desktop/ucla_courses/cs260r/assignment4/data/td3_agent_single_v15_progress_reward/td3,129,191931.558520876,415784,288,3213.5440707206726,10623.111328125,,406818.75,0.83,10688.35546875,10721.548828125,124.00304412841797
282,/Users/cjpark/Desktop/ucla_courses/cs260r/assignment4/data/td3_agent_single_v15_progress_reward/td3,129,191908.33766400427,417193,289,3226.758423805237,10680.32421875,-10739.76953125,211670.34375,0.83,10639.0654296875,10663.396484375,126.10249328613281
283,/Users/cjpark/Desktop/ucla_courses/cs260r/assignment4/data/td3_agent_single_v15_progress_reward/td3,129,191921.47310772596,418617,290,3240.7937517166138,10043.0205078125,-10114.4765625,194167.046875,0.83,9997.2275390625,9995.9599609375,116.80802154541016
284,/Users/cjpark/Desktop/ucla_courses/cs260r/assignment4/data/td3_agent_single_v15_progress_reward/td3,129,192917.26749084366,419885,291,3253.1278886795044,11651.12109375,-11755.884765625,192009.6875,0.84,11672.6279296875,11629.458984375,139.97633361816406
285,/Users/cjpark/Desktop/ucla_courses/cs260r/assignment4/data/td3_agent_single_v15_progress_reward/td3,128,192911.22187180715,421128,292,3264.6258187294006,10908.447265625,,223668.6875,0.84,10989.30078125,10993.4072265625,127.69947814941406
286,/Users/cjpark/Desktop/ucla_courses/cs260r/assignment4/data/td3_agent_single_v15_progress_reward/td3,128,192915.62614794518,422482,293,3278.0721538066864,10693.158203125,,300810.3125,0.84,10691.5830078125,10686.5439453125,136.5309295654297
287,/Users/cjpark/Desktop/ucla_courses/cs260r/assignment4/data/td3_agent_single_v15_progress_reward/td3,128,192923.03721887164,423784,294,3292.888128757477,11037.625,,218427.625,0.84,10977.396484375,10986.4482421875,133.33203125
288,/Users/cjpark/Desktop/ucla_courses/cs260r/assignment4/data/td3_agent_single_v15_progress_reward/td3,128,192993.6871733167,425047,295,3306.891548871994,10869.419921875,-10944.1630859375,237805.28125,0.84,10845.328125,10848.939453125,135.146240234375
289,/Users/cjpark/Desktop/ucla_courses/cs260r/assignment4/data/td3_agent_single_v15_progress_reward/td3,128,192989.90026617795,426460,296,3320.7179956436157,10492.3388671875,,175758.703125,0.84,10456.71875,10406.7021484375,126.83717346191406
290,/Users/cjpark/Desktop/ucla_courses/cs260r/assignment4/data/td3_agent_single_v15_progress_reward/td3,128,193008.9191160088,427901,297,3336.224881887436,9956.642578125,-10046.873046875,161923.1875,0.84,9985.0380859375,9966.83203125,125.44713592529297
291,/Users/cjpark/Desktop/ucla_courses/cs260r/assignment4/data/td3_agent_single_v15_progress_reward/td3,128,193628.19516498977,429283,298,3350.0494368076324,11092.701171875,-11278.982421875,235829.984375,0.85,11187.625,11146.720703125,135.17196655273438
292,/Users/cjpark/Desktop/ucla_courses/cs260r/assignment4/data/td3_agent_single_v15_progress_reward/td3,127,193623.44663105733,430660,299,3364.998124599457,10871.73046875,,166558.1875,0.85,10809.5654296875,10777.4013671875,132.04466247558594
293,/Users/cjpark/Desktop/ucla_courses/cs260r/assignment4/data/td3_agent_single_v15_progress_reward/td3,127,193601.18919043214,432037,300,3378.7422268390656,11122.041015625,-11265.0087890625,216776.46875,0.85,11145.904296875,11126.1572265625,138.04637145996094
294,/Users/cjpark/Desktop/ucla_courses/cs260r/assignment4/data/td3_agent_single_v15_progress_reward/td3,127,192099.6469453146,433933,302,3398.8431339263916,11210.5888671875,-11252.28125,159377.9375,0.84,11194.76171875,11214.5927734375,135.9127197265625
295,/Users/cjpark/Desktop/ucla_courses/cs260r/assignment4/data/td3_agent_single_v15_progress_reward/td3,127,192113.32808825,435232,303,3412.4053707122803,10880.2880859375,,668195.25,0.84,10897.2822265625,10983.091796875,133.53123474121094
296,/Users/cjpark/Desktop/ucla_courses/cs260r/assignment4/data/td3_agent_single_v15_progress_reward/td3,127,192156.66518943003,436616,304,3428.1254217624664,10404.9150390625,,264504.9375,0.85,10389.5576171875,10405.9580078125,127.00346374511719
297,/Users/cjpark/Desktop/ucla_courses/cs260r/assignment4/data/td3_agent_single_v15_progress_reward/td3,127,190261.75902317464,439616,305,3455.798179626465,10667.6318359375,,147022.65625,0.84,10698.5,10704.1357421875,131.623779296875
298,/Users/cjpark/Desktop/ucla_courses/cs260r/assignment4/data/td3_agent_single_v15_progress_reward/td3,127,190292.27080719077,440905,306,3468.001775741577,11251.060546875,-11420.9736328125,240399.609375,0.84,11323.3037109375,11289.939453125,137.23580932617188
299,/Users/cjpark/Desktop/ucla_courses/cs260r/assignment4/data/td3_agent_single_v15_progress_reward/td3,127,190264.82659003962,442338,307,3482.5423696041107,10422.4091796875,,140514.34375,0.84,10395.1962890625,10405.736328125,131.2493896484375
300,/Users/cjpark/Desktop/ucla_courses/cs260r/assignment4/data/td3_agent_single_v15_progress_reward/td3,126,190223.27524632026,443582,308,3494.768827676773,10896.5107421875,,154183.171875,0.84,10991.3984375,10989.470703125,133.68075561523438
301,/Users/cjpark/Desktop/ucla_courses/cs260r/assignment4/data/td3_agent_single_v15_progress_reward/td3,126,190253.0379031158,444860,309,3506.9464156627655,10928.6611328125,,354802.1875,0.84,10993.0146484375,10942.35546875,138.98297119140625
302,/Users/cjpark/Desktop/ucla_courses/cs260r/assignment4/data/td3_agent_single_v15_progress_reward/td3,126,189251.91541579366,445647,310,3515.1890227794647,11014.0791015625,-11146.984375,1837497.75,0.83,11057.0888671875,11042.591796875,133.63690185546875
303,/Users/cjpark/Desktop/ucla_courses/cs260r/assignment4/data/td3_agent_single_v15_progress_reward/td3,126,189263.80019859187,446997,311,3528.240763902664,10500.7333984375,-10615.09765625,137057.015625,0.83,10508.2001953125,10503.0361328125,123.31393432617188
304,/Users/cjpark/Desktop/ucla_courses/cs260r/assignment4/data/td3_agent_single_v15_progress_reward/td3,126,189280.0528665923,448349,312,3541.1435277462006,10477.228515625,-10545.5283203125,182012.234375,0.83,10435.9677734375,10442.3125,129.86080932617188
305,/Users/cjpark/Desktop/ucla_courses/cs260r/assignment4/data/td3_agent_single_v15_progress_reward/td3,126,189289.26322307758,449653,313,3560.447732925415,11086.623046875,-11168.75,325289.75,0.83,11068.880859375,11122.00390625,135.79627990722656
306,/Users/cjpark/Desktop/ucla_courses/cs260r/assignment4/data/td3_agent_single_v15_progress_reward/td3,126,189295.0912488537,450968,314,3576.3956427574158,10815.6904296875,,255088.65625,0.83,10909.771484375,10884.109375,129.8938751220703
307,/Users/cjpark/Desktop/ucla_courses/cs260r/assignment4/data/td3_agent_single_v15_progress_reward/td3,125,189340.71675633124,452276,315,3589.5108799934387,10364.234375,,134929.15625,0.83,10384.8779296875,10383.7138671875,130.06031799316406
308,/Users/cjpark/Desktop/ucla_courses/cs260r/assignment4/data/td3_agent_single_v15_progress_reward/td3,125,189321.9873512161,453645,316,3602.1975338459015,11039.33203125,-11170.287109375,268130.5,0.83,11046.6103515625,11023.27734375,140.03753662109375
309,/Users/cjpark/Desktop/ucla_courses/cs260r/assignment4/data/td3_agent_single_v15_progress_reward/td3,125,189295.28578051776,454995,317,3615.123443841934,11101.17578125,-11221.39453125,204825.375,0.83,11109.62109375,11070.853515625,134.3896026611328
310,/Users/cjpark/Desktop/ucla_courses/cs260r/assignment4/data/td3_agent_single_v15_progress_reward/td3,125,189295.63785713474,456398,318,3627.4709656238556,11039.70703125,,261878.296875,0.83,11007.63671875,11009.33984375,135.97726440429688
311,/Users/cjpark/Desktop/ucla_courses/cs260r/assignment4/data/td3_agent_single_v15_progress_reward/td3,125,189261.29325620935,457729,319,3641.59818482399,10974.064453125,-11089.205078125,236296.09375,0.83,10977.765625,10969.1328125,131.88296508789062
312,/Users/cjpark/Desktop/ucla_courses/cs260r/assignment4/data/td3_agent_single_v15_progress_reward/td3,125,188690.3805464977,460729,320,3671.2221777439117,11110.140625,-11212.79296875,214677.28125,0.82,11097.453125,11101.876953125,134.42559814453125
313,/Users/cjpark/Desktop/ucla_courses/cs260r/assignment4/data/td3_agent_single_v15_progress_reward/td3,125,188702.77179149535,462062,321,3684.162359714508,10935.162109375,,193087.5625,0.82,10978.46875,10956.69140625,138.2453155517578
314,/Users/cjpark/Desktop/ucla_courses/cs260r/assignment4/data/td3_agent_single_v15_progress_reward/td3,125,190972.99055080963,463413,322,3697.617934703827,10692.6865234375,-10830.8271484375,206146.28125,0.83,10727.076171875,10696.240234375,131.29534912109375
315,/Users/cjpark/Desktop/ucla_courses/cs260r/assignment4/data/td3_agent_single_v15_progress_reward/td3,125,190977.22971917276,464694,323,3711.038510799408,10261.2041015625,,173891.015625,0.83,10324.23828125,10298.7822265625,130.5167236328125
316,/Users/cjpark/Desktop/ucla_courses/cs260r/assignment4/data/td3_agent_single_v15_progress_reward/td3,125,190930.21080431284,466122,324,3728.436994791031,9570.72265625,,156549.09375,0.83,9572.2939453125,9585.5517578125,126.12535858154297
317,/Users/cjpark/Desktop/ucla_courses/cs260r/assignment4/data/td3_agent_single_v15_progress_reward/td3,124,190928.8603909479,467499,325,3741.348380804062,11147.291015625,-11251.1923828125,160067.75,0.83,11154.8525390625,11145.1513671875,139.4764404296875
318,/Users/cjpark/Desktop/ucla_courses/cs260r/assignment4/data/td3_agent_single_v15_progress_reward/td3,124,190882.3774790331,468846,326,3756.733151912689,10332.990234375,,296108.375,0.83,10305.533203125,10314.181640625,132.899169921875
319,/Users/cjpark/Desktop/ucla_courses/cs260r/assignment4/data/td3_agent_single_v15_progress_reward/td3,124,190896.46514409952,470187,327,3770.5692386627197,10589.59765625,-10664.91796875,258199.28125,0.83,10544.8525390625,10540.7119140625,132.05325317382812
320,/Users/cjpark/Desktop/ucla_courses/cs260r/assignment4/data/td3_agent_single_v15_progress_reward/td3,124,189881.45280992877,472239,329,3791.7525568008423,10540.0087890625,-10696.0322265625,959499.4375,0.82,10626.9501953125,10596.173828125,130.7516632080078
321,/Users/cjpark/Desktop/ucla_courses/cs260r/assignment4/data/td3_agent_single_v15_progress_reward/td3,124,189858.2939887131,473585,330,3804.461094856262,10279.912109375,-10369.7197265625,293792.875,0.82,10279.392578125,10240.794921875,128.65965270996094
322,/Users/cjpark/Desktop/ucla_courses/cs260r/assignment4/data/td3_agent_single_v15_progress_reward/td3,124,189874.37519371544,474942,331,3819.4947097301483,10675.1904296875,,301643.46875,0.82,10646.9921875,10699.1005859375,136.58309936523438
323,/Users/cjpark/Desktop/ucla_courses/cs260r/assignment4/data/td3_agent_single_v15_progress_reward/td3,124,189866.06029582198,476253,332,3833.139770746231,10540.8779296875,-10613.92578125,212621.21875,0.82,10577.3798828125,10666.279296875,130.18243408203125
324,/Users/cjpark/Desktop/ucla_courses/cs260r/assignment4/data/td3_agent_single_v15_progress_reward/td3,124,190067.47339926902,477592,333,3847.8023529052734,10217.744140625,,206553.0,0.82,10151.8837890625,10175.146484375,123.07600402832031
325,/Users/cjpark/Desktop/ucla_courses/cs260r/assignment4/data/td3_agent_single_v15_progress_reward/td3,124,190069.99541042105,478965,334,3862.5434107780457,11478.0751953125,-11552.1826171875,190705.25,0.82,11474.2109375,11485.9326171875,138.03176879882812
326,/Users/cjpark/Desktop/ucla_courses/cs260r/assignment4/data/td3_agent_single_v15_progress_reward/td3,123,190077.44798352485,480342,335,3875.5532116889954,10410.501953125,,162849.296875,0.82,10370.927734375,10382.4794921875,132.5430908203125
327,/Users/cjpark/Desktop/ucla_courses/cs260r/assignment4/data/td3_agent_single_v15_progress_reward/td3,123,190093.34149566825,481659,336,3890.513793706894,11001.5634765625,-11041.755859375,170654.71875,0.82,10885.5498046875,10879.9208984375,134.4032440185547
328,/Users/cjpark/Desktop/ucla_courses/cs260r/assignment4/data/td3_agent_single_v15_progress_reward/td3,123,190348.39249779444,483015,337,3906.380015850067,11377.9501953125,-11466.9755859375,208007.8125,0.83,11390.4091796875,11390.83984375,138.6613311767578
329,/Users/cjpark/Desktop/ucla_courses/cs260r/assignment4/data/td3_agent_single_v15_progress_reward/td3,123,189596.67264344852,485285,339,3928.3559098243713,10615.625,-10682.0703125,189955.078125,0.82,10543.64453125,10601.1533203125,131.97225952148438
330,/Users/cjpark/Desktop/ucla_courses/cs260r/assignment4/data/td3_agent_single_v15_progress_reward/td3,123,189582.61957479268,486659,340,3940.497921705246,11308.4658203125,-11450.6171875,166369.21875,0.82,11313.001953125,11275.80078125,137.030029296875
331,/Users/cjpark/Desktop/ucla_courses/cs260r/assignment4/data/td3_agent_single_v15_progress_reward/td3,123,191473.34275330938,487952,341,3952.6181077957153,10609.462890625,,272509.0,0.83,10618.8935546875,10637.3564453125,128.76719665527344
332,/Users/cjpark/Desktop/ucla_courses/cs260r/assignment4/data/td3_agent_single_v15_progress_reward/td3,123,193034.8365852124,489344,342,3965.961417913437,10886.21484375,,165373.875,0.84,10837.0634765625,10802.177734375,135.45416259765625
333,/Users/cjpark/Desktop/ucla_courses/cs260r/assignment4/data/td3_agent_single_v15_progress_reward/td3,123,192049.48755086985,490167,343,3974.3416957855225,10158.45703125,-10265.34765625,250858.53125,0.83,10161.2783203125,10139.466796875,130.26385498046875
334,/Users/cjpark/Desktop/ucla_courses/cs260r/assignment4/data/td3_agent_single_v15_progress_reward/td3,123,191971.0765248103,491786,345,3989.261410713196,10570.103515625,,242353.53125,0.83,10600.3466796875,10559.8330078125,132.60337829589844
335,/Users/cjpark/Desktop/ucla_courses/cs260r/assignment4/data/td3_agent_single_v15_progress_reward/td3,123,190986.79197687976,492617,346,3996.468827724457,10496.169921875,-10602.564453125,251898.078125,0.82,10468.5732421875,10436.4208984375,128.22207641601562
336,/Users/cjpark/Desktop/ucla_courses/cs260r/assignment4/data/td3_agent_single_v15_progress_reward/td3,123,190995.29833782482,493954,347,4009.2849617004395,10841.080078125,,311788.6875,0.82,10889.16796875,10829.3671875,133.3240509033203
337,/Users/cjpark/Desktop/ucla_courses/cs260r/assignment4/data/td3_agent_single_v15_progress_reward/td3,123,189707.0566614136,495174,348,4019.930065870285,10738.896484375,,243636.234375,0.81,10781.9072265625,10722.580078125,129.8352813720703
338,/Users/cjpark/Desktop/ucla_courses/cs260r/assignment4/data/td3_agent_single_v15_progress_reward/td3,123,189729.1700168368,496438,349,4031.2263038158417,11043.48046875,,238486.328125,0.81,11024.55859375,11024.9912109375,140.6253662109375
339,/Users/cjpark/Desktop/ucla_courses/cs260r/assignment4/data/td3_agent_single_v15_progress_reward/td3,123,189739.4032034761,497697,350,4042.1619398593903,9903.7021484375,-10002.7451171875,183773.03125,0.81,9898.8623046875,9874.2587890625,127.02752685546875
340,/Users/cjpark/Desktop/ucla_courses/cs260r/assignment4/data/td3_agent_single_v15_progress_reward/td3,123,189372.59199918856,500697,351,4068.7696788311005,11009.005859375,-11139.806640625,229124.84375,0.8,11048.849609375,11067.74609375,134.35047912597656
341,/Users/cjpark/Desktop/ucla_courses/cs260r/assignment4/data/td3_agent_single_v15_progress_reward/td3,122,189405.39908972118,502027,352,4081.6916699409485,10838.4501953125,-10874.259765625,215905.890625,0.8,10797.7353515625,10805.74609375,138.84112548828125
342,/Users/cjpark/Desktop/ucla_courses/cs260r/assignment4/data/td3_agent_single_v15_progress_reward/td3,122,189406.9821008331,503294,353,4093.716497898102,10209.9375,,419232.4375,0.8,10300.9423828125,10281.154296875,130.00424194335938
343,/Users/cjpark/Desktop/ucla_courses/cs260r/assignment4/data/td3_agent_single_v15_progress_reward/td3,122,189449.21273960784,504656,354,4106.7556166648865,10628.564453125,,295171.875,0.8,10575.693359375,10610.080078125,133.80198669433594
344,/Users/cjpark/Desktop/ucla_courses/cs260r/assignment4/data/td3_agent_single_v15_progress_reward/td3,122,189476.98981341848,505950,355,4118.306264638901,10418.1845703125,,291406.09375,0.8,10408.072265625,10482.0439453125,133.8167266845703
345,/Users/cjpark/Desktop/ucla_courses/cs260r/assignment4/data/td3_agent_single_v15_progress_reward/td3,122,191297.9707309674,507391,356,4130.549455881119,10768.0478515625,-10833.5673828125,189793.53125,0.81,10771.3271484375,10763.962890625,135.7256317138672
346,/Users/cjpark/Desktop/ucla_courses/cs260r/assignment4/data/td3_agent_single_v15_progress_reward/td3,113,191304.60075253743,508745,357,4478.778753757477,11156.330078125,-11184.052734375,560361.4375,0.81,11092.517578125,11134.35546875,139.5016326904297
347,/Users/cjpark/Desktop/ucla_courses/cs260r/assignment4/data/td3_agent_single_v15_progress_reward/td3,113,191336.50960610624,510080,358,4493.4101366996765,11484.701171875,,330975.0,0.81,11503.5224609375,11459.791015625,148.53045654296875
348,/Users/cjpark/Desktop/ucla_courses/cs260r/assignment4/data/td3_agent_single_v15_progress_reward/td3,113,189775.14967613184,512146,360,4517.823777675629,10608.5634765625,,199537.15625,0.8,10643.580078125,10635.66796875,133.2150421142578
349,/Users/cjpark/Desktop/ucla_courses/cs260r/assignment4/data/td3_agent_single_v15_progress_reward/td3,113,188804.6207717835,514259,362,4540.731998920441,10688.734375,-10703.5224609375,279544.9375,0.79,10623.57421875,10696.197265625,140.00759887695312
350,/Users/cjpark/Desktop/ucla_courses/cs260r/assignment4/data/td3_agent_single_v15_progress_reward/td3,113,188796.29776918213,515693,363,4553.2222509384155,10099.330078125,-10205.0068359375,285266.9375,0.79,10091.595703125,10075.1357421875,126.40421295166016
351,/Users/cjpark/Desktop/ucla_courses/cs260r/assignment4/data/td3_agent_single_v15_progress_reward/td3,113,190398.9844279418,516987,364,4565.064071893692,10846.4609375,-10921.041015625,153148.15625,0.8,10854.9033203125,10853.51171875,130.09844970703125
352,/Users/cjpark/Desktop/ucla_courses/cs260r/assignment4/data/td3_agent_single_v15_progress_reward/td3,113,189064.80973281834,517597,365,4571.081118822098,10263.921875,-10380.9306640625,137623.40625,0.79,10247.3173828125,10256.6357421875,130.63931274414062
353,/Users/cjpark/Desktop/ucla_courses/cs260r/assignment4/data/td3_agent_single_v15_progress_reward/td3,113,188672.82264552693,518745,366,4581.220325708389,11337.708984375,-11403.6318359375,189413.40625,0.78,11327.681640625,11358.021484375,141.28607177734375
354,/Users/cjpark/Desktop/ucla_courses/cs260r/assignment4/data/td3_agent_single_v15_progress_reward/td3,113,188675.37504748732,520009,367,4592.951073646545,11049.1875,-11082.2861328125,237825.125,0.78,10999.7392578125,10999.34375,140.78248596191406
355,/Users/cjpark/Desktop/ucla_courses/cs260r/assignment4/data/td3_agent_single_v15_progress_reward/td3,113,189690.02433671113,521375,368,4604.78808760643,10732.650390625,-10876.720703125,219043.859375,0.79,10768.138671875,10684.3056640625,137.62991333007812
356,/Users/cjpark/Desktop/ucla_courses/cs260r/assignment4/data/td3_agent_single_v15_progress_reward/td3,113,190398.32892046112,523163,370,4621.699520587921,11224.6416015625,-11318.52734375,289035.375,0.8,11209.2734375,11243.1376953125,143.4842987060547
357,/Users/cjpark/Desktop/ucla_courses/cs260r/assignment4/data/td3_agent_single_v15_progress_reward/td3,113,191031.19905181802,524506,371,4633.9239728450775,10934.04296875,,199156.359375,0.81,10995.7099609375,10888.890625,137.59878540039062
358,/Users/cjpark/Desktop/ucla_courses/cs260r/assignment4/data/td3_agent_single_v15_progress_reward/td3,113,188521.68369274848,527506,372,4661.80232667923,9722.099609375,,478078.6875,0.8,9815.8583984375,9837.291015625,124.85828399658203
359,/Users/cjpark/Desktop/ucla_courses/cs260r/assignment4/data/td3_agent_single_v15_progress_reward/td3,113,186692.58768190362,530506,373,4688.942699670792,10983.826171875,,195510.03125,0.79,10962.126953125,11047.935546875,141.15426635742188
360,/Users/cjpark/Desktop/ucla_courses/cs260r/assignment4/data/td3_agent_single_v15_progress_reward/td3,113,186707.93268976358,531910,374,4702.57724070549,10543.115234375,,124951.15625,0.79,10538.8740234375,10528.2080078125,133.3424072265625
361,/Users/cjpark/Desktop/ucla_courses/cs260r/assignment4/data/td3_agent_single_v15_progress_reward/td3,113,186767.35960760017,533160,375,4714.972508907318,10017.7265625,,1179910.0,0.79,10006.0712890625,10100.763671875,127.10521697998047
362,/Users/cjpark/Desktop/ucla_courses/cs260r/assignment4/data/td3_agent_single_v15_progress_reward/td3,113,186256.51814684633,534830,377,4730.691319704056,10757.927734375,,132785.4375,0.79,10765.216796875,10791.42578125,134.41574096679688
363,/Users/cjpark/Desktop/ucla_courses/cs260r/assignment4/data/td3_agent_single_v15_progress_reward/td3,113,186272.38830086828,536170,378,4743.433074951172,11122.908203125,,427260.875,0.79,11145.33203125,11134.44921875,137.25125122070312
364,/Users/cjpark/Desktop/ucla_courses/cs260r/assignment4/data/td3_agent_single_v15_progress_reward/td3,112,186289.66716339238,537542,379,4757.15250992775,10653.8662109375,,183196.25,0.79,10608.80859375,10622.611328125,140.36228942871094
365,/Users/cjpark/Desktop/ucla_courses/cs260r/assignment4/data/td3_agent_single_v15_progress_reward/td3,112,188017.94261644795,538947,380,4770.201860666275,10566.6552734375,-10694.40625,759619.25,0.8,10625.1455078125,10628.005859375,133.3185577392578
366,/Users/cjpark/Desktop/ucla_courses/cs260r/assignment4/data/td3_agent_single_v15_progress_reward/td3,112,188003.44440095685,540182,381,4782.8979597091675,11069.9140625,,349190.25,0.8,11034.26953125,11061.6005859375,140.71945190429688
367,/Users/cjpark/Desktop/ucla_courses/cs260r/assignment4/data/td3_agent_single_v15_progress_reward/td3,112,187965.10378008353,541483,382,4793.988959789276,11591.986328125,-11711.595703125,148694.5,0.8,11597.6171875,11576.494140625,141.97000122070312
368,/Users/cjpark/Desktop/ucla_courses/cs260r/assignment4/data/td3_agent_single_v15_progress_reward/td3,112,186965.41969197127,544483,383,4822.855269670486,10582.7216796875,-10671.8427734375,276654.4375,0.79,10561.3466796875,10563.134765625,138.63980102539062
369,/Users/cjpark/Desktop/ucla_courses/cs260r/assignment4/data/td3_agent_single_v15_progress_reward/td3,112,186942.11179698937,545743,384,4834.473218679428,10096.9384765625,-10186.8427734375,183871.71875,0.79,10116.96484375,10181.4296875,130.44949340820312
370,/Users/cjpark/Desktop/ucla_courses/cs260r/assignment4/data/td3_agent_single_v15_progress_reward/td3,112,186951.8784073769,547059,385,4845.733087778091,10456.9169921875,-10543.4775390625,191273.46875,0.79,10420.9599609375,10433.33203125,131.33074951171875
371,/Users/cjpark/Desktop/ucla_courses/cs260r/assignment4/data/td3_agent_single_v15_progress_reward/td3,112,187887.12458491788,548362,386,4857.893723726273,9694.185546875,,221455.578125,0.8,9705.4501953125,9697.0771484375,119.80123138427734
372,/Users/cjpark/Desktop/ucla_courses/cs260r/assignment4/data/td3_agent_single_v15_progress_reward/td3,112,186378.23781630435,550290,388,4876.225924730301,10871.474609375,,238450.375,0.79,10812.771484375,10807.17578125,138.12448120117188
373,/Users/cjpark/Desktop/ucla_courses/cs260r/assignment4/data/td3_agent_single_v15_progress_reward/td3,112,186418.32486869718,551567,389,4887.668617963791,9818.4794921875,-9990.908203125,362978.9375,0.79,9869.8798828125,9852.6826171875,130.44309997558594
374,/Users/cjpark/Desktop/ucla_courses/cs260r/assignment4/data/td3_agent_single_v15_progress_reward/td3,112,186424.27643438365,552843,390,4901.293278932571,10161.224609375,-10266.8388671875,149294.078125,0.79,10177.4775390625,10179.3759765625,137.53260803222656
375,/Users/cjpark/Desktop/ucla_courses/cs260r/assignment4/data/td3_agent_single_v15_progress_reward/td3,112,186422.06516261588,554115,391,4914.359979629517,10345.0078125,-10517.4716796875,984380.6875,0.79,10473.46484375,10476.7880859375,130.45062255859375
376,/Users/cjpark/Desktop/ucla_courses/cs260r/assignment4/data/td3_agent_single_v15_progress_reward/td3,112,186413.12020192403,555412,392,4931.814387798309,10603.8837890625,,139247.84375,0.79,10610.787109375,10547.9560546875,136.5504150390625
377,/Users/cjpark/Desktop/ucla_courses/cs260r/assignment4/data/td3_agent_single_v15_progress_reward/td3,112,186408.90508380515,556817,393,4950.568714857101,9465.7685546875,-9593.908203125,199148.671875,0.79,9506.291015625,9414.5361328125,124.18046569824219
378,/Users/cjpark/Desktop/ucla_courses/cs260r/assignment4/data/td3_agent_single_v15_progress_reward/td3,112,185443.48245790825,557588,394,4959.711400747299,10935.73046875,,166954.53125,0.78,10944.296875,10875.791015625,134.89486694335938
379,/Users/cjpark/Desktop/ucla_courses/cs260r/assignment4/data/td3_agent_single_v15_progress_reward/td3,112,185447.01335148688,559021,395,4976.104535579681,9877.6787109375,-9988.0771484375,279680.3125,0.78,9843.775390625,9848.5361328125,130.96600341796875
380,/Users/cjpark/Desktop/ucla_courses/cs260r/assignment4/data/td3_agent_single_v15_progress_reward/td3,112,185466.70551950458,560435,396,4990.1585958004,10220.130859375,-10298.8681640625,453553.4375,0.78,10216.228515625,10176.88671875,132.9034423828125
381,/Users/cjpark/Desktop/ucla_courses/cs260r/assignment4/data/td3_agent_single_v15_progress_reward/td3,112,185465.99921533265,561744,397,5004.20131778717,9998.2216796875,,339605.0625,0.78,10036.875,10021.7138671875,129.993408203125
382,/Users/cjpark/Desktop/ucla_courses/cs260r/assignment4/data/td3_agent_single_v15_progress_reward/td3,112,185457.53216350428,563113,398,5018.475959777832,10244.404296875,-10319.44140625,311603.3125,0.78,10274.0634765625,10302.2900390625,132.55665588378906
383,/Users/cjpark/Desktop/ucla_courses/cs260r/assignment4/data/td3_agent_single_v15_progress_reward/td3,112,185427.61814500456,564486,399,5031.380121707916,9464.6591796875,,571694.75,0.78,9533.8154296875,9553.4140625,127.64295959472656
384,/Users/cjpark/Desktop/ucla_courses/cs260r/assignment4/data/td3_agent_single_v15_progress_reward/td3,112,185441.25085902706,565924,400,5045.416314840317,11118.9638671875,,321244.4375,0.78,11126.7890625,11096.1328125,145.35084533691406
385,/Users/cjpark/Desktop/ucla_courses/cs260r/assignment4/data/td3_agent_single_v15_progress_reward/td3,112,186975.2265277444,567319,401,5059.936329841614,10277.26953125,-10427.3330078125,327173.78125,0.79,10247.5048828125,10245.130859375,135.16908264160156
386,/Users/cjpark/Desktop/ucla_courses/cs260r/assignment4/data/td3_agent_single_v15_progress_reward/td3,112,186949.31993867535,568617,402,5073.173699617386,10277.373046875,-10393.2265625,242127.609375,0.79,10281.3876953125,10276.7431640625,129.2843475341797
387,/Users/cjpark/Desktop/ucla_courses/cs260r/assignment4/data/td3_agent_single_v15_progress_reward/td3,112,186947.2227118033,569905,403,5085.569147825241,10754.8798828125,-10897.3134765625,361147.25,0.79,10824.1953125,10799.2578125,133.17205810546875
388,/Users/cjpark/Desktop/ucla_courses/cs260r/assignment4/data/td3_agent_single_v15_progress_reward/td3,112,186914.04095265563,571194,404,5097.800802707672,10244.2314453125,,208520.453125,0.79,10205.0947265625,10221.5712890625,131.39459228515625
389,/Users/cjpark/Desktop/ucla_courses/cs260r/assignment4/data/td3_agent_single_v15_progress_reward/td3,112,188825.49726324447,572522,405,5110.472755908966,10724.7734375,,521946.3125,0.8,10697.6318359375,10727.1552734375,138.5781707763672
390,/Users/cjpark/Desktop/ucla_courses/cs260r/assignment4/data/td3_agent_single_v15_progress_reward/td3,111,188841.59458249618,573917,406,5124.461046695709,9999.2021484375,-10040.6875,335305.9375,0.8,9922.8310546875,9937.943359375,133.0032196044922
391,/Users/cjpark/Desktop/ucla_courses/cs260r/assignment4/data/td3_agent_single_v15_progress_reward/td3,111,188842.84543677402,575312,407,5137.811071872711,10714.541015625,,223320.0,0.8,10681.4755859375,10683.8662109375,139.88328552246094
392,/Users/cjpark/Desktop/ucla_courses/cs260r/assignment4/data/td3_agent_single_v15_progress_reward/td3,111,188848.62236756447,576727,408,5151.6475348472595,10418.01171875,-10470.5859375,232997.0625,0.8,10318.7890625,10314.822265625,131.40086364746094
393,/Users/cjpark/Desktop/ucla_courses/cs260r/assignment4/data/td3_agent_single_v15_progress_reward/td3,111,188819.26993146495,578134,409,5164.9474947452545,10935.2734375,,151221.90625,0.8,10908.6591796875,10964.0927734375,138.4170379638672
394,/Users/cjpark/Desktop/ucla_courses/cs260r/assignment4/data/td3_agent_single_v15_progress_reward/td3,111,189804.56938378248,579391,410,5177.557161808014,9943.1767578125,-10084.5712890625,207480.4375,0.81,10001.359375,10006.4296875,134.3978271484375
395,/Users/cjpark/Desktop/ucla_courses/cs260r/assignment4/data/td3_agent_single_v15_progress_reward/td3,111,189802.15210832606,580692,411,5190.706207990646,9991.5966796875,,705058.8125,0.81,10068.380859375,10097.861328125,128.73013305664062
396,/Users/cjpark/Desktop/ucla_courses/cs260r/assignment4/data/td3_agent_single_v15_progress_reward/td3,111,189763.34239999295,581961,412,5203.4088497161865,10371.0732421875,-10441.75,214480.4375,0.81,10361.7978515625,10375.548828125,135.45196533203125
397,/Users/cjpark/Desktop/ucla_courses/cs260r/assignment4/data/td3_agent_single_v15_progress_reward/td3,111,189755.4160864054,583261,413,5215.518253803253,11223.84375,-11305.18359375,147144.625,0.81,11190.19921875,11246.833984375,148.06809997558594
