cjunkin/reinforcement-learning/ppo-td3-cartpole/MetaDrive-Tut-5Env-v0/td3/progress.csv
,log_dir,frame_per_second,episode_reward,total_steps,total_episodes,total_time,target_q,actor_loss,critic_loss,success_rate,current_q1,current_q2,reward
0,MetaDrive-Tut-5Env-v0,869,11.7314657390685,2001,2,2.301609992980957,,,,0.0,,,
1,MetaDrive-Tut-5Env-v0,1000,11.801851956310893,3002,3,2.9991211891174316,,,,0.0,,,
2,MetaDrive-Tut-5Env-v0,886,12.10897519900553,4003,4,4.516292095184326,,,,0.0,,,
3,MetaDrive-Tut-5Env-v0,979,11.904265527891962,5004,5,5.1111531257629395,,,,0.0,,,
4,MetaDrive-Tut-5Env-v0,1049,11.73202620532654,6005,6,5.721014976501465,,,,0.0,,,
5,MetaDrive-Tut-5Env-v0,1105,11.661317723687022,7006,7,6.335736036300659,,,,0.0,,,
6,MetaDrive-Tut-5Env-v0,1152,11.633944055136602,8007,8,6.945896148681641,,,,0.0,,,
7,MetaDrive-Tut-5Env-v0,1090,11.233727325408339,9995,10,9.164855003356934,,,,0.0,,,
8,MetaDrive-Tut-5Env-v0,1054,10.974018522153335,10062,11,9.544749021530151,0.014059582725167274,,0.001849728636443615,0.0,-0.009115749038755894,0.012509912252426147,0.011887340806424618
9,MetaDrive-Tut-5Env-v0,709,0.43170059403258404,11008,57,15.523785829544067,0.062433354556560516,,0.003150753676891327,0.0,0.06186208128929138,0.06532025337219238,0.016559429466724396
10,MetaDrive-Tut-5Env-v0,566,-0.2685198849844721,12035,72,21.262052059173584,0.08315679430961609,-0.09883559495210648,0.008917773142457008,0.0,0.07469738274812698,0.07660910487174988,0.022933803498744965
11,MetaDrive-Tut-5Env-v0,482,-1.411863408424521,13004,103,26.94636297225952,0.09425510466098785,,0.15927377343177795,0.0,0.07433014363050461,0.14024320244789124,0.005358639173209667
12,MetaDrive-Tut-5Env-v0,423,-2.740317963419129,14037,135,33.178508043289185,0.1039520800113678,-0.13499091565608978,0.13013750314712524,0.0,0.09518307447433472,0.08714243769645691,0.014110300689935684
13,MetaDrive-Tut-5Env-v0,365,-2.6547123267520463,15921,149,43.51267600059509,0.0426349975168705,-0.08389246463775635,0.013722042553126812,0.0,0.02228647470474243,0.016969740390777588,0.022813234478235245
14,MetaDrive-Tut-5Env-v0,345,-2.5891434263462587,16922,150,48.9641809463501,0.020486827939748764,,0.022784065455198288,0.0,0.023547686636447906,0.02178988978266716,-0.01841912604868412
15,MetaDrive-Tut-5Env-v0,343,-2.5560212109835234,17011,151,49.4727258682251,0.08340528607368469,-0.14902882277965546,0.015431344509124756,0.0,0.06498409807682037,0.07131268829107285,0.02891886606812477
16,MetaDrive-Tut-5Env-v0,324,-1.2940121212457298,18111,163,55.746225118637085,0.09862755239009857,-0.13440637290477753,0.09893698990345001,0.0,0.06306244432926178,0.06630311161279678,-0.0019519445486366749
17,MetaDrive-Tut-5Env-v0,309,-0.21264642347511825,19455,168,62.92601799964905,0.21239182353019714,-0.24552124738693237,0.1372562050819397,0.0,0.1757820099592209,0.17842429876327515,0.01744653657078743
18,MetaDrive-Tut-5Env-v0,301,0.5195287741500854,20002,179,66.28004002571106,0.28768032789230347,,0.0981905609369278,0.0,0.25156426429748535,0.25849226117134094,0.025876684114336967
19,MetaDrive-Tut-5Env-v0,291,0.8831077195291216,21184,184,72.5909469127655,0.49543988704681396,,0.023952117189764977,0.0,0.5189591646194458,0.5403921008110046,0.039420969784259796
20,MetaDrive-Tut-5Env-v0,284,3.7102463150977973,22005,194,77.24449610710144,0.5816591382026672,-0.6822103261947632,0.22269773483276367,0.0,0.5874902009963989,0.5978837013244629,0.010196547023952007
21,MetaDrive-Tut-5Env-v0,276,7.917193582844357,23048,208,83.27837800979614,0.5911378860473633,,0.45357251167297363,0.0,0.537578284740448,0.543238639831543,0.04738038778305054
22,MetaDrive-Tut-5Env-v0,270,11.648623040866733,24001,219,88.82361793518066,0.995861291885376,-1.106909990310669,0.36610734462738037,0.0,1.0076735019683838,1.00154709815979,0.007827285677194595
23,MetaDrive-Tut-5Env-v0,263,17.3287640996456,25150,228,95.52532911300659,1.367662787437439,,0.5916328430175781,0.0,1.4115269184112549,1.4087330102920532,0.02646929770708084
24,MetaDrive-Tut-5Env-v0,258,22.93906031140981,26089,235,100.94862008094788,1.7269036769866943,-1.8166117668151855,0.22731123864650726,0.0,1.7215428352355957,1.7121042013168335,0.03800152987241745
25,MetaDrive-Tut-5Env-v0,252,31.380894468768016,27242,240,107.92363786697388,2.447787046432495,,1.088159441947937,0.01,2.4007742404937744,2.4649176597595215,0.1373828649520874
26,MetaDrive-Tut-5Env-v0,247,38.3317440123975,28292,246,114.19695782661438,3.0718612670898438,,1.3817780017852783,0.01,3.132554769515991,3.159188747406006,0.0861780196428299
27,MetaDrive-Tut-5Env-v0,244,43.44366822148121,29106,249,118.95750284194946,3.6745822429656982,,3.5684664249420166,0.01,3.704103946685791,3.7348642349243164,0.0944254919886589
28,MetaDrive-Tut-5Env-v0,241,49.24670298843766,30109,254,124.76387810707092,4.376803398132324,-4.623126983642578,0.34642308950424194,0.01,4.387887001037598,4.426367282867432,0.13014373183250427
29,MetaDrive-Tut-5Env-v0,237,55.41112436811632,31145,259,130.94847893714905,5.11781644821167,-5.4601311683654785,0.7772030830383301,0.01,5.165932655334473,5.189517974853516,0.15886281430721283
30,MetaDrive-Tut-5Env-v0,235,61.969695105493194,32033,266,136.2443609237671,5.962410926818848,-6.019266128540039,0.2922566831111908,0.01,5.8468804359436035,5.900819778442383,0.22395280003547668
31,MetaDrive-Tut-5Env-v0,232,69.68339727590168,33048,273,142.29509592056274,6.712887287139893,,0.7560732364654541,0.03,6.739593505859375,6.739463806152344,0.20455126464366913
32,MetaDrive-Tut-5Env-v0,229,77.69732276132844,34012,282,148.05115008354187,7.089985370635986,,0.2851487398147583,0.03,6.997185230255127,7.051336288452148,0.21377983689308167
33,MetaDrive-Tut-5Env-v0,227,84.73548687593672,35008,291,153.79832220077515,8.129186630249023,,3.215371608734131,0.03,8.33344841003418,8.338597297668457,0.21501556038856506
34,MetaDrive-Tut-5Env-v0,224,91.3067459326588,36034,301,160.22420001029968,9.278536796569824,,2.134380340576172,0.03,9.532059669494629,9.562297821044922,0.2775838375091553
35,MetaDrive-Tut-5Env-v0,222,97.57698530265179,37087,312,166.45688891410828,10.588746070861816,-11.007524490356445,3.8734183311462402,0.03,10.3866548538208,10.333080291748047,0.273934006690979
36,MetaDrive-Tut-5Env-v0,220,103.62982799818086,38107,320,172.62707495689392,12.256686210632324,-12.551410675048828,0.6385517120361328,0.03,12.108589172363281,12.171168327331543,0.4125745892524719
37,MetaDrive-Tut-5Env-v0,218,107.29352148743891,39042,328,178.3424937725067,12.22380256652832,,3.969428062438965,0.03,12.303498268127441,12.212632179260254,0.2650449275970459
38,MetaDrive-Tut-5Env-v0,216,110.72164238720494,40070,336,184.78581285476685,13.496505737304688,,0.5761438608169556,0.03,13.35078239440918,13.423164367675781,0.36208346486091614
39,MetaDrive-Tut-5Env-v0,215,105.43429032409635,41038,346,190.51717710494995,13.824653625488281,,6.667304039001465,0.02,13.991043090820312,13.866618156433105,0.3198282718658447
40,MetaDrive-Tut-5Env-v0,213,98.95536589981057,42117,357,196.88835191726685,15.140909194946289,-15.785444259643555,4.489960193634033,0.02,15.202444076538086,15.216694831848145,0.32968875765800476
41,MetaDrive-Tut-5Env-v0,212,96.15665981252418,43081,367,202.5877389907837,14.94307804107666,-15.407437324523926,12.025646209716797,0.02,15.448197364807129,15.599766731262207,0.33245283365249634
42,MetaDrive-Tut-5Env-v0,211,95.36159348655278,44032,376,208.43787789344788,16.570446014404297,,20.281803131103516,0.0,17.1828556060791,17.07166290283203,0.28544512391090393
43,MetaDrive-Tut-5Env-v0,209,94.11947386276779,45075,386,214.89721488952637,18.686691284179688,-19.26148796081543,13.657720565795898,0.0,18.546070098876953,18.5369873046875,0.40501725673675537
44,MetaDrive-Tut-5Env-v0,208,93.45421622031994,46043,395,220.6579670906067,17.69733238220215,-18.192947387695312,11.19723129272461,0.0,17.908878326416016,17.800432205200195,0.3671570420265198
45,MetaDrive-Tut-5Env-v0,207,94.27994578298046,47075,405,226.4731879234314,20.418373107910156,-21.479734420776367,13.594280242919922,0.0,20.759462356567383,20.599525451660156,0.4731001853942871
46,MetaDrive-Tut-5Env-v0,206,99.12235120001259,48161,413,233.16445398330688,21.04489517211914,-21.502716064453125,1.4560680389404297,0.0,20.738208770751953,20.903043746948242,0.44291192293167114
47,MetaDrive-Tut-5Env-v0,205,100.64763548516449,49143,421,239.36907505989075,21.863601684570312,-22.376422882080078,1.5600723028182983,0.0,21.99148941040039,21.962358474731445,0.5187625885009766
48,MetaDrive-Tut-5Env-v0,204,97.87083401224073,50083,430,245.09979796409607,22.02589225769043,-22.43781089782715,5.215182781219482,0.0,21.255290985107422,21.24859619140625,0.41813191771507263
49,MetaDrive-Tut-5Env-v0,203,99.10440773175507,51061,438,251.06459498405457,24.231271743774414,-24.579742431640625,3.188417434692383,0.0,24.043987274169922,24.100156784057617,0.5503429770469666
50,MetaDrive-Tut-5Env-v0,202,102.32403670559292,52116,448,257.48536586761475,24.2746524810791,,4.010508060455322,0.0,24.495458602905273,24.398147583007812,0.4642447233200073
51,MetaDrive-Tut-5Env-v0,201,106.95657156222394,53126,456,263.5031180381775,25.505691528320312,,2.3489139080047607,0.0,25.19293975830078,25.18815040588379,0.5311118960380554
52,MetaDrive-Tut-5Env-v0,200,109.57527331254468,54040,464,269.32489585876465,26.797286987304688,,8.789773941040039,0.0,26.28864860534668,26.231176376342773,0.5251222252845764
53,MetaDrive-Tut-5Env-v0,199,112.68581306628043,55039,472,275.4350697994232,25.956457138061523,-26.91337013244629,17.091205596923828,0.0,26.288433074951172,26.260093688964844,0.45538249611854553
54,MetaDrive-Tut-5Env-v0,199,117.38409063379713,56075,481,281.7310559749603,28.0291805267334,-28.53571891784668,11.46405029296875,0.0,28.376140594482422,28.450851440429688,0.5546548366546631
55,MetaDrive-Tut-5Env-v0,198,120.64999731455629,57008,487,287.3423171043396,27.69525718688965,,5.792057037353516,0.0,27.483600616455078,27.531557083129883,0.5143935680389404
56,MetaDrive-Tut-5Env-v0,197,124.47713334826862,58038,495,293.61260890960693,30.42083740234375,,14.577454566955566,0.0,31.14279556274414,31.0177001953125,0.5547153949737549
57,MetaDrive-Tut-5Env-v0,197,128.16995836164412,59077,504,299.8161709308624,28.60349464416504,-29.893817901611328,5.159172058105469,0.0,29.018985748291016,28.908206939697266,0.506838321685791
58,MetaDrive-Tut-5Env-v0,196,126.43397493052906,60006,512,305.29912996292114,29.49652862548828,,15.524680137634277,0.01,30.24042320251465,30.118343353271484,0.5438166856765747
59,MetaDrive-Tut-5Env-v0,195,126.00225424879645,61076,521,311.90371918678284,31.285507202148438,,12.727764129638672,0.01,31.807449340820312,31.876646041870117,0.5429632067680359
60,MetaDrive-Tut-5Env-v0,195,128.95730440109665,62068,529,318.1460859775543,31.82741928100586,,6.996494770050049,0.01,31.195138931274414,31.648338317871094,0.49381381273269653
61,MetaDrive-Tut-5Env-v0,194,132.28075118562953,63049,536,324.20036816596985,33.997352600097656,-34.748390197753906,4.932196617126465,0.01,33.35323715209961,33.18705749511719,0.6345243453979492
62,MetaDrive-Tut-5Env-v0,193,132.65543031922783,64050,545,330.391282081604,35.02759552001953,,7.861823081970215,0.01,35.00979995727539,35.01594924926758,0.6119459867477417
63,MetaDrive-Tut-5Env-v0,193,137.35295884827093,65006,551,336.73207211494446,35.07243347167969,,16.855182647705078,0.01,34.79100799560547,34.43516540527344,0.5400422215461731
64,MetaDrive-Tut-5Env-v0,192,135.91479762123566,66265,561,344.2973952293396,34.763023376464844,-35.55570983886719,5.458839416503906,0.02,34.139678955078125,34.25040817260742,0.5223816633224487
65,MetaDrive-Tut-5Env-v0,192,137.1226637498844,67007,567,348.67703223228455,35.00275802612305,-35.40518569946289,11.790628433227539,0.02,34.804351806640625,34.76441955566406,0.6352041959762573
66,MetaDrive-Tut-5Env-v0,191,138.44398753268595,68062,575,355.22767901420593,35.49717712402344,,5.206412315368652,0.02,35.768089294433594,35.642826080322266,0.6030215620994568
67,MetaDrive-Tut-5Env-v0,190,141.7105532811499,69168,582,362.1763789653778,37.946964263916016,,5.651266098022461,0.02,37.483116149902344,37.59425735473633,0.6887561678886414
68,MetaDrive-Tut-5Env-v0,190,141.41246691907034,70122,589,368.0974760055542,38.99838638305664,,5.022199630737305,0.02,39.22755432128906,39.47157287597656,0.6462869048118591
69,MetaDrive-Tut-5Env-v0,190,140.37259587221695,71004,596,373.5035409927368,39.768287658691406,,8.251461029052734,0.02,40.08103942871094,39.881439208984375,0.6973259449005127
70,MetaDrive-Tut-5Env-v0,189,144.3391183965165,72039,601,379.8573098182678,38.49142837524414,-39.07743835449219,19.852027893066406,0.03,38.49131393432617,38.46459197998047,0.621733546257019
71,MetaDrive-Tut-5Env-v0,189,147.65910952732244,73100,609,386.3362100124359,37.90930938720703,,9.725194931030273,0.02,38.42481994628906,38.55059051513672,0.7029420733451843
72,MetaDrive-Tut-5Env-v0,188,153.0061659188814,74261,615,393.4447259902954,40.668853759765625,-41.79924392700195,11.103832244873047,0.03,41.271480560302734,41.0239372253418,0.6327062845230103
73,MetaDrive-Tut-5Env-v0,188,153.27134752361164,75072,619,398.2867889404297,39.48798751831055,,11.399564743041992,0.04,38.660037994384766,38.9420280456543,0.7156550884246826
74,MetaDrive-Tut-5Env-v0,187,156.8775811246339,76132,624,405.06797790527344,40.580299377441406,,34.538291931152344,0.05,39.346839904785156,39.430015563964844,0.6790997982025146
75,MetaDrive-Tut-5Env-v0,187,163.91651056535508,77319,630,412.63205909729004,40.80775451660156,-41.28787612915039,24.44656753540039,0.06,41.0479621887207,40.88874435424805,0.636742115020752
76,MetaDrive-Tut-5Env-v0,187,165.14437783944734,78085,635,417.442330121994,40.29050827026367,-40.908687591552734,11.381571769714355,0.06,39.90265655517578,39.65570831298828,0.6832187175750732
77,MetaDrive-Tut-5Env-v0,186,164.91499591378047,79094,641,423.7576539516449,41.3928337097168,,15.690668106079102,0.06,42.112632751464844,42.02460479736328,0.6974695920944214
78,MetaDrive-Tut-5Env-v0,186,171.86850754519475,80107,645,430.01497316360474,42.855926513671875,-43.2960319519043,5.545778751373291,0.07,42.86365509033203,42.85556411743164,0.7360495924949646
79,MetaDrive-Tut-5Env-v0,185,168.5515015518627,81012,651,435.697870016098,42.54178237915039,,15.424808502197266,0.07,42.69839096069336,42.336143493652344,0.7246335744857788
80,MetaDrive-Tut-5Env-v0,185,168.05641893938352,82050,657,441.80621099472046,40.29289245605469,,36.7635612487793,0.07,40.83610153198242,40.42530059814453,0.6987931728363037
81,MetaDrive-Tut-5Env-v0,185,169.98819010638144,83348,660,448.96840596199036,41.999107360839844,,23.783039093017578,0.07,42.812843322753906,42.96449279785156,0.7083978056907654
82,MetaDrive-Tut-5Env-v0,185,170.65579943669513,84161,664,454.06538581848145,41.43124008178711,-41.77355194091797,31.195819854736328,0.06,40.96616744995117,40.86444091796875,0.688140869140625
83,MetaDrive-Tut-5Env-v0,185,173.42580891489237,85554,667,461.97848105430603,40.39651870727539,,9.793961524963379,0.06,40.54571533203125,40.28842544555664,0.6973423957824707
84,MetaDrive-Tut-5Env-v0,185,172.2118607483517,86555,668,467.3469240665436,41.273929595947266,-41.9461669921875,28.36446762084961,0.06,42.20435333251953,42.55293273925781,0.6959501504898071
85,MetaDrive-Tut-5Env-v0,185,171.72060681334176,87125,671,470.84570693969727,42.35601043701172,-43.373966217041016,5.87150764465332,0.06,42.9812126159668,42.55564880371094,0.6453983783721924
86,MetaDrive-Tut-5Env-v0,184,173.03954034436774,88065,677,476.62253308296204,41.17796325683594,-41.71788024902344,8.72116470336914,0.06,41.07247543334961,41.15978240966797,0.7621983289718628
87,MetaDrive-Tut-5Env-v0,184,172.40791197732,89151,683,483.5422089099884,41.215023040771484,-42.107791900634766,26.142919540405273,0.06,41.185020446777344,41.18073654174805,0.6325017809867859
88,MetaDrive-Tut-5Env-v0,184,171.39330358853556,90084,689,489.17106199264526,43.44321823120117,,7.434730529785156,0.06,42.36852264404297,43.07762145996094,0.7211485505104065
89,MetaDrive-Tut-5Env-v0,183,173.18697674386624,91075,695,495.3909559249878,42.51200866699219,-42.26319122314453,10.164773941040039,0.06,41.70568084716797,41.45193862915039,0.7009637951850891
90,MetaDrive-Tut-5Env-v0,183,167.15692461404905,92098,703,501.4812331199646,42.923133850097656,,17.545143127441406,0.05,43.04587936401367,43.10226821899414,0.7015523910522461
91,MetaDrive-Tut-5Env-v0,183,169.53184859406764,93051,707,507.76768493652344,43.2353401184082,-43.90624237060547,11.934131622314453,0.05,43.40886306762695,43.37060546875,0.6978085041046143
92,MetaDrive-Tut-5Env-v0,183,170.96322572392785,94573,711,516.4985320568085,42.1165885925293,-42.766624450683594,17.682445526123047,0.05,41.3733024597168,41.59630584716797,0.7137457132339478
93,MetaDrive-Tut-5Env-v0,182,171.7321573624187,95185,714,520.3175330162048,41.553466796875,-42.05707931518555,14.03238582611084,0.05,42.270816802978516,42.09276580810547,0.7248360514640808
94,MetaDrive-Tut-5Env-v0,182,170.02602729330636,96194,718,526.4271779060364,43.040225982666016,,37.277889251708984,0.04,42.892112731933594,43.044071197509766,0.6379171013832092
95,MetaDrive-Tut-5Env-v0,182,173.70974163528558,97069,721,532.3383641242981,43.72006607055664,-43.927146911621094,13.234236717224121,0.04,43.783939361572266,43.778663635253906,0.6501880288124084
96,MetaDrive-Tut-5Env-v0,182,173.11451494874458,98168,726,539.304281949997,44.40679168701172,,19.73319435119629,0.03,43.922359466552734,44.01917266845703,0.7296603322029114
97,MetaDrive-Tut-5Env-v0,181,173.55035125501502,99214,730,545.7144320011139,45.92005157470703,,16.37541389465332,0.04,44.91944122314453,45.490604400634766,0.8176750540733337
98,MetaDrive-Tut-5Env-v0,181,177.18709436610902,100034,733,550.5221381187439,43.34934616088867,,20.93175506591797,0.06,42.80793762207031,42.74595260620117,0.7310688495635986
99,MetaDrive-Tut-5Env-v0,181,179.3192245489259,101055,736,557.19260597229,43.178916931152344,-43.08835983276367,7.549648284912109,0.07,42.923072814941406,43.4822883605957,0.7802210450172424
100,MetaDrive-Tut-5Env-v0,181,180.13277795936233,102021,740,563.6331460475922,44.328269958496094,-44.81776428222656,16.503828048706055,0.07,44.73000717163086,44.86370086669922,0.7356826663017273
101,MetaDrive-Tut-5Env-v0,180,183.78157449937996,103322,744,571.2222771644592,43.17210006713867,,22.831655502319336,0.1,42.108680725097656,42.1997184753418,0.657293975353241
102,MetaDrive-Tut-5Env-v0,180,182.3337877604601,104016,746,575.2490689754486,45.18283462524414,,11.40829849243164,0.11,44.81622314453125,45.063968658447266,0.8026072978973389
103,MetaDrive-Tut-5Env-v0,180,187.22023512469576,105296,750,583.5665011405945,44.844879150390625,,16.60337257385254,0.12,44.75336456298828,44.85435485839844,0.7964596152305603
104,MetaDrive-Tut-5Env-v0,180,190.88171291752124,106144,753,588.6793918609619,42.99285125732422,,8.775949478149414,0.13,43.19853210449219,42.461578369140625,0.7252923250198364
105,MetaDrive-Tut-5Env-v0,179,197.3659378776114,107107,756,595.050980091095,43.787044525146484,-43.98763656616211,12.837926864624023,0.15,43.51247787475586,43.35901641845703,0.6538547873497009
106,MetaDrive-Tut-5Env-v0,179,200.7804160999303,108055,759,600.6055099964142,46.37101745605469,-46.980873107910156,13.227436065673828,0.17,47.00452423095703,46.78718566894531,0.7796148061752319
107,MetaDrive-Tut-5Env-v0,179,204.47653527559433,109110,762,607.0279431343079,43.86683654785156,,17.663314819335938,0.19,44.150291442871094,44.366477966308594,0.7384798526763916
108,MetaDrive-Tut-5Env-v0,179,205.3348080193582,110185,766,613.6604070663452,43.93333053588867,-43.87000274658203,12.157417297363281,0.21,43.39765167236328,43.814266204833984,0.7147899866104126
109,MetaDrive-Tut-5Env-v0,179,208.0142663850351,111066,769,619.5658750534058,46.59602355957031,,22.57101821899414,0.22,46.445621490478516,46.57749557495117,0.7085829973220825
110,MetaDrive-Tut-5Env-v0,179,211.10872485318782,112048,774,625.8186190128326,44.86452102661133,,13.58905029296875,0.22,44.25853729248047,44.52387237548828,0.6535069346427917
111,MetaDrive-Tut-5Env-v0,178,213.09681875229614,113100,778,632.7289578914642,48.16463851928711,,27.241527557373047,0.23,49.08301544189453,48.404457092285156,0.6872256994247437
112,MetaDrive-Tut-5Env-v0,178,216.31279482746532,114080,782,638.8529579639435,44.556461334228516,,9.713500022888184,0.25,43.60003662109375,44.17274856567383,0.6901038289070129
113,MetaDrive-Tut-5Env-v0,178,219.17060339305243,115083,784,645.1203927993774,46.13706970214844,-46.954345703125,36.23133087158203,0.27,45.63277816772461,45.636207580566406,0.7788060903549194
114,MetaDrive-Tut-5Env-v0,177,224.29188987519302,116990,788,657.4959018230438,45.37841796875,,9.582391738891602,0.28,44.874122619628906,45.35068893432617,0.6526975035667419
115,MetaDrive-Tut-5Env-v0,177,225.67347465546055,117234,789,659.0315430164337,45.718902587890625,,11.019311904907227,0.28,46.07710647583008,45.8215446472168,0.7422935366630554
116,MetaDrive-Tut-5Env-v0,177,229.47937029291154,118003,792,663.5856170654297,47.98149108886719,-47.78300476074219,22.27423095703125,0.3,47.54988098144531,48.01494598388672,0.6553903222084045
117,MetaDrive-Tut-5Env-v0,177,231.08335723317057,119101,798,670.3535709381104,46.37594985961914,-46.63227462768555,35.580291748046875,0.31,46.63977813720703,46.44291687011719,0.766801655292511
118,MetaDrive-Tut-5Env-v0,177,236.72039680397873,120062,801,676.6987109184265,47.32944869995117,,15.546136856079102,0.32,47.822715759277344,47.98568344116211,0.7425035238265991
119,MetaDrive-Tut-5Env-v0,177,241.3379587824633,121352,805,684.9120960235596,45.98652267456055,,10.212799072265625,0.34,46.542030334472656,46.031089782714844,0.7433691024780273
120,MetaDrive-Tut-5Env-v0,177,241.7878977954975,122425,810,691.6051740646362,45.885921478271484,-46.372432708740234,19.453018188476562,0.35,46.07404327392578,46.12152862548828,0.7501062750816345
121,MetaDrive-Tut-5Env-v0,176,240.6756466601242,123034,813,695.2498219013214,44.949241638183594,,14.743611335754395,0.35,43.30836486816406,43.78359603881836,0.7179863452911377
122,MetaDrive-Tut-5Env-v0,176,240.85764937808636,124091,817,701.77357006073,44.78250503540039,-45.951568603515625,19.46796417236328,0.36,44.740970611572266,44.740745544433594,0.7485129833221436
123,MetaDrive-Tut-5Env-v0,176,242.7786538881353,125159,820,708.8107838630676,47.10010528564453,-47.46153259277344,16.358240127563477,0.38,46.075462341308594,46.338077545166016,0.6922683119773865
124,MetaDrive-Tut-5Env-v0,176,245.1359000405635,126452,825,716.7063558101654,46.64158248901367,,9.933012962341309,0.41,46.166072845458984,46.364078521728516,0.7371693849563599
125,MetaDrive-Tut-5Env-v0,176,245.50054978926502,127263,828,721.6364369392395,45.63084030151367,-46.73542022705078,13.762663841247559,0.43,45.673770904541016,45.34587097167969,0.7553050518035889
126,MetaDrive-Tut-5Env-v0,176,246.26345151910886,128179,831,727.4265699386597,45.526329040527344,-45.61915588378906,15.34402847290039,0.42,45.042015075683594,45.34516143798828,0.7185028791427612
127,MetaDrive-Tut-5Env-v0,176,242.63508819737174,129201,836,733.9590408802032,45.292213439941406,-45.25157928466797,8.538880348205566,0.4,45.45178985595703,45.516719818115234,0.6587527990341187
128,MetaDrive-Tut-5Env-v0,175,245.46743645149775,130476,840,742.1433620452881,43.651268005371094,,10.951403617858887,0.42,43.30353546142578,43.39961624145508,0.6068883538246155
129,MetaDrive-Tut-5Env-v0,175,248.32140624224095,131017,841,745.9503359794617,45.33622741699219,-46.11967086791992,15.406248092651367,0.43,44.45620346069336,44.21822738647461,0.7788299918174744
130,MetaDrive-Tut-5Env-v0,175,248.8525517234046,132012,844,751.9850239753723,42.69093322753906,,12.548873901367188,0.43,41.718936920166016,41.767356872558594,0.7566177845001221
131,MetaDrive-Tut-5Env-v0,175,246.7835980389818,133162,849,758.9495668411255,44.336097717285156,,14.529193878173828,0.44,44.01640701293945,44.165306091308594,0.7614172101020813
132,MetaDrive-Tut-5Env-v0,175,243.88472189316136,134056,853,764.2779319286346,45.096282958984375,,35.83559799194336,0.43,45.5688591003418,45.24258804321289,0.7316017150878906
133,MetaDrive-Tut-5Env-v0,175,244.77311390803868,135047,856,770.9462168216705,48.40160369873047,-48.63745880126953,20.67532730102539,0.42,47.910804748535156,48.02983856201172,0.7446948885917664
134,MetaDrive-Tut-5Env-v0,174,247.52047112709064,136507,861,780.5714731216431,44.785072326660156,-46.151126861572266,12.337693214416504,0.41,45.34605026245117,44.96428680419922,0.7371084690093994
135,MetaDrive-Tut-5Env-v0,174,248.9493734034151,137072,862,784.5059781074524,45.051979064941406,,17.440021514892578,0.41,43.844364166259766,44.47267150878906,0.7117887139320374
136,MetaDrive-Tut-5Env-v0,174,250.7241960351066,138094,865,790.799485206604,43.809226989746094,,19.198894500732422,0.43,44.1370735168457,44.28216552734375,0.7523604035377502
137,MetaDrive-Tut-5Env-v0,174,250.8054780708175,139309,868,798.3154580593109,42.32916259765625,-43.5474967956543,29.40317153930664,0.44,42.24384307861328,41.83542251586914,0.6948525309562683
138,MetaDrive-Tut-5Env-v0,174,255.73840556468457,140232,870,804.0703449249268,43.375118255615234,,20.040164947509766,0.46,43.889339447021484,42.98613739013672,0.8240591287612915
139,MetaDrive-Tut-5Env-v0,174,256.80042114410224,141073,874,809.2024190425873,43.76365280151367,-44.76378631591797,31.33574867248535,0.48,43.85084533691406,43.775115966796875,0.6835699081420898
140,MetaDrive-Tut-5Env-v0,174,259.22073434898647,142124,877,815.5487339496613,44.366355895996094,,9.741819381713867,0.49,44.173118591308594,43.89935302734375,0.7292402386665344
141,MetaDrive-Tut-5Env-v0,174,262.2123805351956,143395,881,823.9291927814484,48.13427734375,-48.40950012207031,8.762859344482422,0.5,48.26882553100586,48.194252014160156,0.7246873378753662
142,MetaDrive-Tut-5Env-v0,174,260.9452986772058,144004,883,827.4350900650024,48.10304260253906,,9.188190460205078,0.49,48.09846115112305,48.06206130981445,0.7776143550872803
143,MetaDrive-Tut-5Env-v0,173,258.1238474567444,145002,886,833.6802279949188,45.77265167236328,,31.835445404052734,0.49,45.33940505981445,45.518184661865234,0.6644647121429443
144,MetaDrive-Tut-5Env-v0,173,264.07730814947934,146031,888,840.4145431518555,46.79599380493164,-47.80073165893555,48.77553176879883,0.51,47.78104782104492,47.32561492919922,0.7156745791435242
145,MetaDrive-Tut-5Env-v0,173,265.21196458501083,147180,892,847.4207680225372,42.17497634887695,,15.697293281555176,0.52,41.839046478271484,41.57552719116211,0.6665390133857727
146,MetaDrive-Tut-5Env-v0,173,264.99328661437977,148081,896,852.9178509712219,45.54906463623047,-44.99702835083008,21.861618041992188,0.53,44.169498443603516,44.425472259521484,0.6841927170753479
147,MetaDrive-Tut-5Env-v0,173,271.40436209881216,149135,898,859.8276629447937,46.4561653137207,-47.143402099609375,17.251615524291992,0.55,46.909645080566406,47.312461853027344,0.83586186170578
148,MetaDrive-Tut-5Env-v0,173,271.59241325138476,150162,901,866.0400149822235,45.068077087402344,,17.91180419921875,0.57,45.9186897277832,45.229515075683594,0.8121200799942017
149,MetaDrive-Tut-5Env-v0,173,275.1367452631158,151164,903,872.215411901474,45.93996047973633,,51.04154968261719,0.58,46.59981155395508,46.71635055541992,0.7310908436775208
150,MetaDrive-Tut-5Env-v0,173,275.4199184640218,152425,907,879.9305939674377,49.5013542175293,-51.16255569458008,8.150857925415039,0.6,49.6074333190918,49.26075744628906,0.8405221700668335
151,MetaDrive-Tut-5Env-v0,173,276.04639824601765,153175,910,884.6508860588074,45.214744567871094,-45.58728790283203,11.774782180786133,0.6,44.503299713134766,44.895870208740234,0.7640353441238403
152,MetaDrive-Tut-5Env-v0,172,280.17741747542345,154140,914,891.0147812366486,45.0062141418457,,11.744674682617188,0.61,45.045223236083984,44.897239685058594,0.7154701352119446
153,MetaDrive-Tut-5Env-v0,172,277.1433614708837,155231,919,898.0224821567535,46.21145248413086,-47.17822265625,18.51529884338379,0.6,46.221492767333984,45.94144821166992,0.8715204000473022
154,MetaDrive-Tut-5Env-v0,172,282.07277568951037,156440,922,905.3843319416046,43.686988830566406,,30.7624568939209,0.62,44.269195556640625,44.05126953125,0.7875401377677917
155,MetaDrive-Tut-5Env-v0,172,282.2777913983316,157091,924,909.3636541366577,44.760379791259766,-45.121700286865234,17.664182662963867,0.61,44.82280349731445,45.776004791259766,0.629966139793396
156,MetaDrive-Tut-5Env-v0,172,280.81235536527953,158056,928,915.3755900859833,46.42158508300781,,14.11642074584961,0.6,47.1608772277832,47.196414947509766,0.7507137060165405
157,MetaDrive-Tut-5Env-v0,172,278.25418299126574,159425,934,923.5727548599243,44.64896774291992,-44.56379318237305,18.860897064208984,0.61,43.25239562988281,43.65520477294922,0.729758083820343
158,MetaDrive-Tut-5Env-v0,172,275.139312692166,160175,939,928.4849319458008,43.7883186340332,-43.88798522949219,12.19708251953125,0.6,43.61959457397461,44.19140625,0.7198684811592102
159,MetaDrive-Tut-5Env-v0,172,272.1939948979854,161352,942,935.9977231025696,45.04402542114258,,19.146652221679688,0.59,44.1993293762207,45.074462890625,0.8281648755073547
160,MetaDrive-Tut-5Env-v0,172,272.52986954637606,162056,944,940.4876210689545,45.92232131958008,,15.967693328857422,0.58,45.96147155761719,45.87099838256836,0.7415114641189575
161,MetaDrive-Tut-5Env-v0,172,276.89136268973186,163168,947,947.4970548152924,47.98286056518555,,22.201595306396484,0.58,47.8263053894043,47.41880416870117,0.8242781758308411
162,MetaDrive-Tut-5Env-v0,172,281.1550256644821,164471,950,955.4568679332733,48.40650939941406,-48.67107391357422,32.869972229003906,0.59,47.94871520996094,48.217140197753906,0.8612953424453735
163,MetaDrive-Tut-5Env-v0,172,284.8486772177701,165022,951,959.2907271385193,46.234745025634766,,14.776287078857422,0.6,46.68454360961914,46.585731506347656,0.7764992117881775
164,MetaDrive-Tut-5Env-v0,171,286.7517279619565,166266,954,967.0397601127625,45.94352340698242,,15.040193557739258,0.6,45.75608825683594,46.24673080444336,0.8567491769790649
165,MetaDrive-Tut-5Env-v0,171,287.31538374319257,167467,957,974.3141191005707,45.37077713012695,-46.448482513427734,11.330317497253418,0.61,44.79730987548828,44.202911376953125,0.7784921526908875
166,MetaDrive-Tut-5Env-v0,171,289.146782379575,168167,959,978.6016290187836,44.809844970703125,-45.321815490722656,17.14842414855957,0.63,45.88967514038086,45.797061920166016,0.7879867553710938
167,MetaDrive-Tut-5Env-v0,171,285.5835249178888,169241,962,985.0933539867401,47.952938079833984,-49.25477600097656,13.62480354309082,0.64,48.71207046508789,48.5500373840332,0.8096940517425537
168,MetaDrive-Tut-5Env-v0,171,285.53971101905273,170244,965,991.2142300605774,46.71741485595703,,67.66758728027344,0.64,45.3619384765625,45.55169677734375,0.7601418495178223
169,MetaDrive-Tut-5Env-v0,171,283.52851806811833,171237,968,997.4268870353699,48.24272918701172,-48.87853240966797,13.68562126159668,0.63,48.0201530456543,47.68922805786133,0.7453051805496216
170,MetaDrive-Tut-5Env-v0,171,283.51236446418875,172228,970,1003.5718829631805,46.46621322631836,,35.725074768066406,0.63,45.9232063293457,45.53504180908203,0.8703991174697876
171,MetaDrive-Tut-5Env-v0,171,285.2755643813808,173076,973,1008.7451229095459,45.342491149902344,,24.041126251220703,0.64,44.63199234008789,44.80702209472656,0.7686848044395447
172,MetaDrive-Tut-5Env-v0,171,283.9137349419225,174082,976,1014.9990599155426,45.085960388183594,,50.23167419433594,0.64,45.371421813964844,44.87889862060547,0.777087390422821
173,MetaDrive-Tut-5Env-v0,171,289.6675055406006,175097,978,1021.7025561332703,46.79246520996094,-46.93775177001953,19.380149841308594,0.65,45.35586166381836,45.74373245239258,0.8042530417442322
174,MetaDrive-Tut-5Env-v0,171,287.4015711779377,176055,981,1027.6718530654907,46.1135368347168,-46.320308685302734,13.61909294128418,0.65,47.04973220825195,46.93171310424805,0.7513829469680786
175,MetaDrive-Tut-5Env-v0,171,286.7397965550727,177420,986,1036.1794679164886,45.323184967041016,,15.70413875579834,0.65,46.30036163330078,46.62334442138672,0.7381213903427124
176,MetaDrive-Tut-5Env-v0,171,285.239162269985,178252,988,1041.6790051460266,46.00855255126953,,13.20164680480957,0.65,45.73653793334961,45.949825286865234,0.771420955657959
177,MetaDrive-Tut-5Env-v0,171,284.8651382979907,179094,991,1046.86207985878,45.96714782714844,,8.970495223999023,0.63,45.41584014892578,45.38547897338867,0.867834210395813
178,MetaDrive-Tut-5Env-v0,171,288.1124832137873,180224,994,1053.8556411266327,46.10015869140625,,14.834919929504395,0.64,45.68961715698242,45.322872161865234,0.8045879602432251
179,MetaDrive-Tut-5Env-v0,170,285.64832488344774,181021,997,1059.0194311141968,43.06855010986328,-43.44780349731445,12.199697494506836,0.63,42.670799255371094,42.11286926269531,0.7369179129600525
180,MetaDrive-Tut-5Env-v0,170,286.05736984612844,182215,1000,1066.4680290222168,45.96575164794922,-46.11576843261719,11.587200164794922,0.63,45.89695739746094,46.564491271972656,0.8360141515731812
181,MetaDrive-Tut-5Env-v0,170,283.0352150378253,183247,1004,1072.9320900440216,45.554847717285156,-46.197784423828125,14.511871337890625,0.62,46.62984848022461,46.432979583740234,0.7118771076202393
182,MetaDrive-Tut-5Env-v0,170,281.25814903345645,184245,1008,1079.3802399635315,46.07147216796875,-47.354679107666016,22.292522430419922,0.59,45.791015625,45.80059051513672,0.8192806243896484
183,MetaDrive-Tut-5Env-v0,170,280.96506941117093,185013,1011,1084.2143030166626,47.420780181884766,-48.68011474609375,13.58057689666748,0.59,46.294830322265625,46.54982376098633,0.7958725094795227
184,MetaDrive-Tut-5Env-v0,170,279.15250925308845,186059,1015,1090.6729431152344,47.18144226074219,-48.720726013183594,30.75397491455078,0.58,48.45543670654297,48.403663635253906,0.8071452379226685
185,MetaDrive-Tut-5Env-v0,170,281.87904462525717,187401,1017,1098.6344439983368,45.56504821777344,-46.24055099487305,11.130979537963867,0.58,45.37517547607422,45.73694610595703,0.811808705329895
186,MetaDrive-Tut-5Env-v0,170,280.04684289217175,188292,1020,1104.3335559368134,47.3858642578125,,9.898425102233887,0.56,46.59015655517578,46.9200553894043,0.7596467137336731
187,MetaDrive-Tut-5Env-v0,170,279.77786001929985,189123,1023,1109.654825925827,46.99092102050781,-47.818363189697266,20.6573486328125,0.55,46.51121139526367,46.726661682128906,0.7852264642715454
188,MetaDrive-Tut-5Env-v0,170,280.7907607112554,190135,1026,1116.087336063385,47.69209289550781,-47.958396911621094,13.186408996582031,0.54,47.65163803100586,47.92703628540039,0.785624086856842
189,MetaDrive-Tut-5Env-v0,170,284.01486763516954,191244,1029,1123.0557417869568,46.33238983154297,,10.747365951538086,0.54,45.91954040527344,46.93047332763672,0.7649976015090942
190,MetaDrive-Tut-5Env-v0,170,286.82148889739034,192154,1033,1128.8935511112213,46.534271240234375,,13.963289260864258,0.52,46.18589782714844,46.312740325927734,0.783983588218689
191,MetaDrive-Tut-5Env-v0,170,289.3370742336828,193278,1037,1135.7423520088196,43.24319076538086,,12.315900802612305,0.54,43.11674880981445,43.268428802490234,0.847418487071991
192,MetaDrive-Tut-5Env-v0,170,292.133128976345,194811,1040,1145.3368339538574,46.13162612915039,-46.29508972167969,10.966487884521484,0.54,45.438819885253906,45.862632751464844,0.7573811411857605
193,MetaDrive-Tut-5Env-v0,170,288.02280802541895,195081,1042,1147.127196073532,45.357017517089844,-45.562774658203125,15.092850685119629,0.52,46.338844299316406,46.21336364746094,0.8166903257369995
194,MetaDrive-Tut-5Env-v0,170,281.9226513715955,196031,1046,1152.8582928180695,44.41300964355469,-45.2822380065918,10.589807510375977,0.51,44.300376892089844,44.9078483581543,0.7277154326438904
195,MetaDrive-Tut-5Env-v0,169,272.78716290238805,197065,1051,1159.2678179740906,48.31937026977539,-48.91809844970703,17.336515426635742,0.48,47.89689254760742,47.815818786621094,0.9094663858413696
196,MetaDrive-Tut-5Env-v0,169,267.705688152683,198986,1056,1170.7729089260101,46.39332962036133,,16.374052047729492,0.45,47.01289367675781,47.13227081298828,0.8212276101112366
197,MetaDrive-Tut-5Env-v0,169,266.6739885208633,199333,1057,1172.973769903183,44.47355651855469,-45.056827545166016,22.61858367919922,0.44,44.323116302490234,45.06660079956055,0.7723342180252075
198,MetaDrive-Tut-5Env-v0,169,263.54440729429075,200159,1060,1177.9235661029816,44.81441879272461,-45.71470642089844,13.781728744506836,0.42,44.786407470703125,44.55575942993164,0.9070128202438354
199,MetaDrive-Tut-5Env-v0,169,259.6947410922397,201712,1064,1186.8894848823547,44.489036560058594,,14.555761337280273,0.39,44.11155319213867,44.75138854980469,0.7981555461883545
200,MetaDrive-Tut-5Env-v0,169,260.25960069200494,202713,1065,1192.7267858982086,45.99300765991211,-45.97953414916992,18.863895416259766,0.38,46.56132507324219,46.55555725097656,0.8240000009536743
201,MetaDrive-Tut-5Env-v0,169,262.5296629459434,203050,1066,1194.8509359359741,45.49945068359375,,29.85936164855957,0.38,45.569374084472656,46.22517013549805,0.762496829032898
202,MetaDrive-Tut-5Env-v0,169,256.7179069255877,204032,1071,1201.3653869628906,45.52402114868164,,15.705013275146484,0.33,45.318668365478516,45.66473388671875,0.8198561668395996
203,MetaDrive-Tut-5Env-v0,169,253.70673515669296,205033,1072,1206.6669049263,44.48885726928711,-43.61882019042969,14.991897583007812,0.32,43.429744720458984,45.101646423339844,0.7649593353271484
204,MetaDrive-Tut-5Env-v0,169,254.4215750785406,206094,1076,1213.377021074295,44.60635757446289,,12.027616500854492,0.31,45.23892593383789,45.1800537109375,0.7714558243751526
205,MetaDrive-Tut-5Env-v0,169,250.8434669255916,207169,1079,1219.8884210586548,46.73016357421875,-46.79973602294922,15.45426082611084,0.31,46.40271759033203,46.61067581176758,0.7831394076347351
206,MetaDrive-Tut-5Env-v0,169,248.84748457525427,208681,1081,1228.1533780097961,45.06671142578125,-46.99266052246094,19.394027709960938,0.31,45.975196838378906,45.254417419433594,0.7864153385162354
207,MetaDrive-Tut-5Env-v0,169,251.2761755901094,209347,1083,1232.4300661087036,44.0018310546875,-43.692283630371094,17.15229034423828,0.3,43.17605972290039,43.5876350402832,0.8214489221572876
208,MetaDrive-Tut-5Env-v0,169,243.29347745460691,210639,1088,1240.297879934311,44.08878707885742,-44.112762451171875,11.013933181762695,0.27,43.535377502441406,43.25696563720703,0.782721221446991
209,MetaDrive-Tut-5Env-v0,169,244.2840009427925,211255,1089,1244.187469959259,43.974395751953125,-44.514610290527344,17.603389739990234,0.28,43.51875686645508,44.056236267089844,0.7875462770462036
210,MetaDrive-Tut-5Env-v0,169,245.85801017260613,212152,1092,1249.8673257827759,44.915061950683594,,62.22660827636719,0.28,43.86845016479492,44.2473030090332,0.8581162095069885
211,MetaDrive-Tut-5Env-v0,169,243.66228280732105,213006,1095,1255.253615140915,43.27202606201172,,32.42674255371094,0.28,42.39154815673828,42.42038345336914,0.7606614232063293
212,MetaDrive-Tut-5Env-v0,169,242.7903924093511,214185,1099,1262.666885137558,43.12983703613281,-43.863739013671875,13.497493743896484,0.27,42.85139465332031,43.14374923706055,0.7505019903182983
213,MetaDrive-Tut-5Env-v0,169,243.41523883350837,215248,1103,1269.4272260665894,40.534324645996094,,15.368759155273438,0.26,40.560001373291016,40.87297058105469,0.7296026945114136
214,MetaDrive-Tut-5Env-v0,169,239.8607968788503,216410,1108,1276.5463840961456,43.50319290161133,,12.379939079284668,0.27,44.804344177246094,44.633548736572266,0.7407036423683167
215,MetaDrive-Tut-5Env-v0,169,239.0448243166397,217121,1111,1280.7449641227722,46.03233337402344,-46.86836624145508,13.823197364807129,0.28,46.5439567565918,46.26390838623047,0.8345963954925537
216,MetaDrive-Tut-5Env-v0,169,234.37158262316996,218067,1117,1286.7280611991882,45.74497604370117,-45.464210510253906,28.765579223632812,0.28,44.999908447265625,45.125885009765625,0.7143571376800537
217,MetaDrive-Tut-5Env-v0,169,236.42871032644504,219424,1119,1294.919888973236,42.88435363769531,,14.063362121582031,0.29,43.583526611328125,42.94210433959961,0.7498939037322998
218,MetaDrive-Tut-5Env-v0,169,235.85827550576596,220275,1122,1300.071170091629,43.47905349731445,-43.63794708251953,17.029624938964844,0.3,43.52916717529297,43.88125991821289,0.7087971568107605
219,MetaDrive-Tut-5Env-v0,169,234.73365136165117,221036,1125,1304.8579559326172,44.020347595214844,,10.137392044067383,0.3,44.578956604003906,44.704437255859375,0.776677668094635
220,MetaDrive-Tut-5Env-v0,169,233.01254000709926,222481,1129,1313.8263988494873,41.196868896484375,-42.845855712890625,27.622108459472656,0.32,41.68470001220703,41.00399398803711,0.7277082800865173
221,MetaDrive-Tut-5Env-v0,169,235.22469258138088,223116,1131,1317.9187541007996,43.66908645629883,,9.48010540008545,0.33,43.67393493652344,43.30376434326172,0.7688089609146118
222,MetaDrive-Tut-5Env-v0,169,238.20799164709086,224211,1134,1324.88880610466,45.12537384033203,-46.06697463989258,13.80331039428711,0.35,45.824668884277344,45.67321014404297,0.8267856240272522
223,MetaDrive-Tut-5Env-v0,169,239.29309596994008,225062,1136,1330.2255609035492,43.6763916015625,,22.3121280670166,0.34,43.621665954589844,43.41371154785156,0.7937220931053162
224,MetaDrive-Tut-5Env-v0,169,239.91336966596165,226008,1139,1336.2574970722198,44.10763931274414,,11.537403106689453,0.35,44.37723159790039,44.55695343017578,0.8186301589012146
225,MetaDrive-Tut-5Env-v0,169,243.6220289862357,227146,1142,1343.532014131546,44.68181610107422,,12.487960815429688,0.37,45.75282669067383,45.173988342285156,0.7641880512237549
226,MetaDrive-Tut-5Env-v0,169,246.97248835562746,228244,1145,1350.368604183197,44.74522399902344,,14.172296524047852,0.38,44.222801208496094,45.009483337402344,0.7474766373634338
227,MetaDrive-Tut-5Env-v0,169,248.31878877044943,229048,1148,1355.2827360630035,42.860191345214844,,16.72374153137207,0.39,43.544185638427734,43.46146774291992,0.7756030559539795
228,MetaDrive-Tut-5Env-v0,168,252.35779916699101,230057,1152,1361.9338719844818,45.265628814697266,-46.529239654541016,11.278803825378418,0.4,45.6868782043457,45.4140625,0.8422027230262756
229,MetaDrive-Tut-5Env-v0,168,252.4937279602981,231130,1157,1368.8199751377106,43.65606689453125,,8.07017707824707,0.41,43.117984771728516,43.468505859375,0.7107395529747009
230,MetaDrive-Tut-5Env-v0,168,254.1762154959355,232261,1162,1376.0962779521942,42.71934127807617,-43.633026123046875,11.168506622314453,0.39,42.43076705932617,41.69537353515625,0.8247202634811401
231,MetaDrive-Tut-5Env-v0,168,255.67332411885036,233324,1165,1382.6698648929596,45.121124267578125,,9.99241828918457,0.41,45.65269470214844,45.86790466308594,0.8838318586349487
232,MetaDrive-Tut-5Env-v0,168,256.93288204205396,234177,1167,1387.991383075714,46.151615142822266,-46.69402313232422,14.060222625732422,0.42,46.00083923339844,45.857749938964844,0.8334797620773315
233,MetaDrive-Tut-5Env-v0,168,260.23695229778104,235180,1170,1394.2476279735565,43.147010803222656,,14.540520668029785,0.45,41.806968688964844,42.031219482421875,0.7440927028656006
234,MetaDrive-Tut-5Env-v0,168,264.39357704953954,236397,1173,1401.7996871471405,44.09677505493164,-44.632240295410156,36.80790710449219,0.48,43.769954681396484,43.7464714050293,0.8166841864585876
235,MetaDrive-Tut-5Env-v0,168,266.0322951367892,237076,1175,1406.1386580467224,40.97152328491211,,12.405668258666992,0.48,40.89186096191406,40.45085144042969,0.7647895216941833
236,MetaDrive-Tut-5Env-v0,168,266.95048955144625,238066,1178,1412.3821218013763,45.90311050415039,,19.11091423034668,0.48,45.94065475463867,46.13032531738281,0.7701557874679565
237,MetaDrive-Tut-5Env-v0,168,266.5854904653619,239105,1182,1418.9978229999542,44.193355560302734,-44.357295989990234,11.248443603515625,0.47,44.61985778808594,44.276241302490234,0.8345271944999695
238,MetaDrive-Tut-5Env-v0,168,272.0645533887912,240107,1184,1425.6511659622192,41.454559326171875,-41.87232971191406,15.107316970825195,0.49,40.65161895751953,40.85188674926758,0.765277624130249
239,MetaDrive-Tut-5Env-v0,168,277.5487913190837,241352,1187,1433.5247070789337,44.709136962890625,,9.468709945678711,0.51,44.852333068847656,45.26957702636719,0.7636727094650269
240,MetaDrive-Tut-5Env-v0,168,276.54974323527983,242145,1189,1438.3510229587555,43.12847137451172,-43.51181411743164,13.216057777404785,0.51,43.086631774902344,43.27241516113281,0.8270813226699829
241,MetaDrive-Tut-5Env-v0,168,274.7693636124337,243056,1192,1444.4215168952942,45.1513557434082,,11.205862045288086,0.5,45.28783416748047,44.306243896484375,0.8106752634048462
242,MetaDrive-Tut-5Env-v0,168,277.11835399985506,244197,1196,1451.6292011737823,39.19374084472656,-39.529964447021484,19.02379608154297,0.5,38.48878479003906,39.09235382080078,0.7403758764266968
243,MetaDrive-Tut-5Env-v0,168,278.4158107308878,245206,1198,1457.8932111263275,44.314857482910156,,10.809585571289062,0.51,44.185123443603516,43.88847732543945,0.7663304805755615
244,MetaDrive-Tut-5Env-v0,168,280.13737553192163,246050,1200,1463.119423866272,43.05183029174805,,14.073208808898926,0.51,42.89164352416992,42.916053771972656,0.7879742383956909
245,MetaDrive-Tut-5Env-v0,168,280.76084979845723,247126,1205,1470.041894197464,41.96544647216797,,11.912254333496094,0.51,40.9621467590332,41.24082946777344,0.8307501673698425
246,MetaDrive-Tut-5Env-v0,168,281.1593211591033,248062,1208,1475.801885843277,43.73858642578125,,13.126941680908203,0.5,44.309364318847656,45.06875991821289,0.8265337944030762
247,MetaDrive-Tut-5Env-v0,168,282.53915447989766,249185,1212,1482.5696601867676,42.667762756347656,-43.25759506225586,11.410679817199707,0.52,43.03409194946289,42.322662353515625,0.8313292264938354
248,MetaDrive-Tut-5Env-v0,168,288.43551887959393,250229,1214,1489.0908179283142,42.54169464111328,-43.46727752685547,14.329163551330566,0.54,43.062156677246094,43.04558563232422,0.7391165494918823
249,MetaDrive-Tut-5Env-v0,168,290.66051605949355,251060,1217,1494.4010338783264,42.64834976196289,,15.495649337768555,0.54,42.684017181396484,42.847103118896484,0.7885081171989441
250,MetaDrive-Tut-5Env-v0,168,288.47483638664113,252061,1218,1499.767863035202,45.210079193115234,-45.639671325683594,16.341726303100586,0.54,46.066184997558594,45.875244140625,0.7096472382545471
251,MetaDrive-Tut-5Env-v0,168,285.4802901586026,253012,1222,1505.3719878196716,42.6100959777832,,14.965514183044434,0.54,42.18873596191406,41.83060836791992,0.8057583570480347
252,MetaDrive-Tut-5Env-v0,167,286.57826215912644,254167,1226,1513.0419700145721,45.47708511352539,-44.9012336730957,10.17306900024414,0.53,46.33956527709961,45.657352447509766,0.7765130400657654
253,MetaDrive-Tut-5Env-v0,167,285.9157491343778,255059,1229,1518.6847012043,43.02851486206055,-42.75454330444336,21.017919540405273,0.51,43.38119125366211,42.54882049560547,0.8104352951049805
254,MetaDrive-Tut-5Env-v0,167,285.64194391649573,256217,1232,1525.6267819404602,38.808570861816406,-39.590755462646484,16.368112564086914,0.53,38.49040222167969,39.19145202636719,0.7134184241294861
255,MetaDrive-Tut-5Env-v0,167,279.6843771945371,257303,1236,1532.2705519199371,43.100643157958984,-43.40492248535156,13.727527618408203,0.51,42.47325134277344,42.673126220703125,0.8312124609947205
256,MetaDrive-Tut-5Env-v0,167,279.6870409201015,258106,1238,1537.2377519607544,43.86561965942383,,17.795425415039062,0.52,43.587188720703125,43.407196044921875,0.8007671236991882
257,MetaDrive-Tut-5Env-v0,167,281.63718150376405,259336,1241,1544.9244740009308,44.71752166748047,,9.766532897949219,0.53,45.31816864013672,44.698341369628906,0.8046741485595703
258,MetaDrive-Tut-5Env-v0,167,282.4047697300047,260167,1243,1550.094720840454,45.7758903503418,-46.10376739501953,7.887341499328613,0.52,45.635066986083984,45.732749938964844,0.7870400547981262
259,MetaDrive-Tut-5Env-v0,167,281.8750579757134,261298,1246,1557.4579870700836,43.78945541381836,,18.57672119140625,0.52,44.153526306152344,44.63618087768555,0.7661005258560181
260,MetaDrive-Tut-5Env-v0,167,283.67045413454485,262392,1249,1564.2071330547333,43.6926155090332,,16.522045135498047,0.53,43.398536682128906,43.85688400268555,0.7899760007858276
261,MetaDrive-Tut-5Env-v0,167,284.68991170185194,263228,1251,1569.331060886383,41.37873077392578,,14.086240768432617,0.55,41.77321243286133,40.96098327636719,0.7564436793327332
262,MetaDrive-Tut-5Env-v0,167,286.8408901628362,264182,1254,1575.3728728294373,41.735164642333984,,13.455034255981445,0.56,41.89073181152344,42.21505355834961,0.7893867492675781
263,MetaDrive-Tut-5Env-v0,167,288.80329175959,265160,1258,1581.6059730052948,43.67411804199219,,11.056920051574707,0.57,44.41150665283203,44.17726135253906,0.8202246427536011
264,MetaDrive-Tut-5Env-v0,167,290.13911599543496,266327,1261,1589.1116349697113,46.872318267822266,-47.62180709838867,26.553682327270508,0.59,46.12038803100586,46.45867919921875,0.8414342403411865
265,MetaDrive-Tut-5Env-v0,167,291.9934013954727,267352,1263,1595.5343091487885,44.919952392578125,,10.705322265625,0.6,44.267730712890625,44.94465255737305,0.7635895609855652
266,MetaDrive-Tut-5Env-v0,167,289.42177433421574,268283,1266,1601.2444369792938,44.009971618652344,-45.39915084838867,9.19548511505127,0.6,43.410491943359375,43.66401672363281,0.7614089250564575
267,MetaDrive-Tut-5Env-v0,167,290.2197457311975,269157,1268,1606.5368371009827,42.687889099121094,-43.79758834838867,23.744731903076172,0.61,42.35800552368164,42.866493225097656,0.8200936317443848
268,MetaDrive-Tut-5Env-v0,167,288.7802494955293,270148,1271,1612.8516070842743,43.05678176879883,,15.53846549987793,0.6,43.910221099853516,44.38136672973633,0.7951648831367493
269,MetaDrive-Tut-5Env-v0,167,289.41603482554603,271264,1274,1619.7910051345825,42.56232833862305,,11.53609561920166,0.6,43.65339660644531,43.09370803833008,0.8190330266952515
270,MetaDrive-Tut-5Env-v0,167,287.8194085251661,272381,1277,1626.3189659118652,43.16498565673828,-44.83940505981445,17.505863189697266,0.6,43.916717529296875,43.527442932128906,0.7909010648727417
271,MetaDrive-Tut-5Env-v0,167,288.1459426995254,273116,1280,1631.310744047165,42.020111083984375,,15.684654235839844,0.6,40.93452835083008,41.272918701171875,0.8590857982635498
272,MetaDrive-Tut-5Env-v0,167,289.87304535602846,274022,1282,1636.7802300453186,42.01866912841797,,15.715190887451172,0.61,42.45159912109375,43.07146453857422,0.7709563374519348
273,MetaDrive-Tut-5Env-v0,167,285.610033792834,275012,1285,1643.3269901275635,43.50721740722656,,9.952665328979492,0.59,43.18334197998047,43.56135559082031,0.8317047357559204
274,MetaDrive-Tut-5Env-v0,167,284.88473097334224,276091,1288,1649.6555948257446,41.825538635253906,-42.545257568359375,13.14738655090332,0.6,42.57078552246094,42.106407165527344,0.7479261755943298
275,MetaDrive-Tut-5Env-v0,167,286.94318785178274,277293,1291,1657.0633471012115,41.8900260925293,-42.35606384277344,14.020833969116211,0.61,41.028106689453125,41.7069091796875,0.7693729996681213
276,MetaDrive-Tut-5Env-v0,167,285.89373805856724,278053,1293,1661.980896949768,44.85285186767578,-46.44684600830078,13.331146240234375,0.61,44.61118698120117,43.83428955078125,0.7999501824378967
277,MetaDrive-Tut-5Env-v0,167,286.8186348259869,279172,1297,1669.463772058487,43.728633880615234,,13.951891899108887,0.61,43.842308044433594,43.25137710571289,0.8342626094818115
278,MetaDrive-Tut-5Env-v0,167,285.7685052379451,280295,1300,1676.4876670837402,41.3521614074707,-40.67051315307617,15.139034271240234,0.61,40.7481689453125,41.458778381347656,0.8347305655479431
279,MetaDrive-Tut-5Env-v0,167,287.2363308267654,281149,1303,1681.5116248130798,39.7623291015625,-40.49650955200195,17.338706970214844,0.62,41.32799530029297,41.027557373046875,0.8783668875694275
280,MetaDrive-Tut-5Env-v0,167,286.68672061468436,282339,1306,1688.636551141739,44.403282165527344,-45.786434173583984,17.81435775756836,0.64,43.40464782714844,42.85010528564453,0.7404459118843079
281,MetaDrive-Tut-5Env-v0,167,289.34031499026884,283211,1308,1693.9520990848541,41.86509704589844,-41.8966064453125,49.384193420410156,0.66,41.92694854736328,42.29549026489258,0.7951523065567017
282,MetaDrive-Tut-5Env-v0,167,290.0008868238522,284158,1311,1699.8645679950714,43.03621292114258,,9.565343856811523,0.65,42.382755279541016,42.644134521484375,0.7975354790687561
283,MetaDrive-Tut-5Env-v0,167,289.42476391282037,285398,1314,1707.4436662197113,43.93931198120117,,18.685691833496094,0.64,44.410457611083984,43.72798156738281,0.7816099524497986
284,MetaDrive-Tut-5Env-v0,167,289.4884566325478,286080,1316,1711.4660248756409,40.19095230102539,,25.81610107421875,0.65,40.39267349243164,39.68291473388672,0.7692229747772217
285,MetaDrive-Tut-5Env-v0,167,291.2494611402645,287277,1320,1718.8019070625305,41.746360778808594,-42.29346466064453,10.823532104492188,0.65,41.66602325439453,41.27226257324219,0.7701347470283508
286,MetaDrive-Tut-5Env-v0,167,294.35924991762624,288110,1322,1723.8953709602356,41.92112731933594,,11.493907928466797,0.66,41.53683853149414,41.28911590576172,0.8282493352890015
287,MetaDrive-Tut-5Env-v0,167,293.93324419566966,289317,1326,1731.356008052826,40.228050231933594,-41.00507736206055,26.637454986572266,0.67,39.75440979003906,39.984344482421875,0.7565193772315979
288,MetaDrive-Tut-5Env-v0,167,294.235254408868,290052,1328,1736.0717811584473,45.161399841308594,,10.32182502746582,0.68,45.53126525878906,45.94383239746094,0.8199402689933777
289,MetaDrive-Tut-5Env-v0,167,297.91336132745676,291066,1330,1742.3526940345764,40.94387435913086,,17.503612518310547,0.69,42.09078598022461,41.85557174682617,0.7404882907867432
290,MetaDrive-Tut-5Env-v0,167,297.98206707090606,292287,1333,1749.9128420352936,39.76293182373047,-39.98236846923828,12.708476066589355,0.68,40.4000358581543,40.16937255859375,0.748499870300293
291,MetaDrive-Tut-5Env-v0,166,299.7075836514991,293138,1336,1755.3259539604187,42.33402633666992,,16.481800079345703,0.69,42.143550872802734,42.194496154785156,0.8824763298034668
292,MetaDrive-Tut-5Env-v0,166,298.6212368341718,294239,1339,1762.30655503273,45.4105110168457,-46.01321792602539,17.074851989746094,0.67,44.726741790771484,44.837623596191406,0.879895806312561
293,MetaDrive-Tut-5Env-v0,166,299.0977336322531,295051,1341,1767.6862330436707,41.491886138916016,-41.38945770263672,19.66244888305664,0.66,41.08604431152344,41.12654113769531,0.7237892746925354
294,MetaDrive-Tut-5Env-v0,166,300.1981003704474,296351,1344,1775.8685870170593,39.38175964355469,-40.02201461791992,19.837242126464844,0.67,40.77081298828125,39.79859924316406,0.8323380947113037
295,MetaDrive-Tut-5Env-v0,166,299.71591962141457,297122,1346,1780.5934510231018,40.52634048461914,,14.196456909179688,0.67,40.562496185302734,40.160648345947266,0.7635815739631653
296,MetaDrive-Tut-5Env-v0,166,299.88012451504665,298472,1350,1788.99374294281,41.01781463623047,,14.165481567382812,0.65,41.19406509399414,41.04229736328125,0.7837272882461548
297,MetaDrive-Tut-5Env-v0,166,300.60013454981004,299364,1352,1794.6221091747284,40.70311737060547,,16.03705406188965,0.65,41.76327133178711,41.736061096191406,0.8036077618598938
298,MetaDrive-Tut-5Env-v0,166,299.308078261312,300257,1355,1800.0211420059204,39.293304443359375,-39.90778350830078,15.578983306884766,0.63,39.46266174316406,38.560916900634766,0.8039074540138245
299,MetaDrive-Tut-5Env-v0,166,300.7239863090664,301129,1357,1805.4400789737701,39.055789947509766,-38.834228515625,11.271013259887695,0.64,38.891056060791016,39.705223083496094,0.7333976626396179
300,MetaDrive-Tut-5Env-v0,166,299.9956049447165,302095,1360,1811.2470698356628,41.921051025390625,-42.556312561035156,13.945318222045898,0.62,42.5382080078125,43.078826904296875,0.8528801202774048
301,MetaDrive-Tut-5Env-v0,166,300.5133932473787,303117,1362,1817.6234259605408,42.131629943847656,-42.238773345947266,10.018070220947266,0.63,41.97166061401367,42.238861083984375,0.8866878747940063
302,MetaDrive-Tut-5Env-v0,166,300.3516685415487,304183,1365,1824.0974550247192,43.839385986328125,-44.099510192871094,15.256729125976562,0.64,42.82322692871094,42.68143081665039,0.7666196823120117
303,MetaDrive-Tut-5Env-v0,166,299.98174046430375,305253,1368,1830.9524400234222,38.34148406982422,-40.55974578857422,18.1241455078125,0.62,38.78602600097656,38.30818557739258,0.7926336526870728
304,MetaDrive-Tut-5Env-v0,166,299.21694330034427,306051,1370,1835.545231103897,41.8336067199707,-42.48068618774414,10.52761459350586,0.63,41.08052444458008,41.93617248535156,0.8888071179389954
305,MetaDrive-Tut-5Env-v0,166,299.6290929388826,307239,1373,1843.4308772087097,42.42345428466797,-42.67827606201172,23.40680694580078,0.61,42.24299240112305,42.283443450927734,0.7356025576591492
306,MetaDrive-Tut-5Env-v0,166,300.3999577331708,308145,1375,1849.0871090888977,39.92490005493164,-40.40092086791992,14.098560333251953,0.61,40.448917388916016,39.892555236816406,0.8170304298400879
307,MetaDrive-Tut-5Env-v0,166,301.33317765101003,309336,1378,1856.290498971939,40.92424774169922,,14.140508651733398,0.62,41.76673126220703,40.7122802734375,0.7545437812805176
308,MetaDrive-Tut-5Env-v0,166,303.70589025321755,310270,1380,1862.323429107666,37.466190338134766,,17.827999114990234,0.64,37.02378463745117,36.68754196166992,0.7888016700744629
309,MetaDrive-Tut-5Env-v0,166,302.83033098106375,311017,1382,1866.6555190086365,40.970558166503906,-42.17568588256836,16.72428321838379,0.64,40.60734176635742,40.06714630126953,0.8156490325927734
310,MetaDrive-Tut-5Env-v0,166,304.8441084587016,312377,1385,1874.9084331989288,40.919921875,-41.15338134765625,11.275214195251465,0.66,40.81893539428711,40.39790725708008,0.8126839995384216
311,MetaDrive-Tut-5Env-v0,166,305.68017553576647,313150,1387,1879.6343059539795,41.61728286743164,,14.838428497314453,0.65,41.06391906738281,41.400238037109375,0.7491691708564758
312,MetaDrive-Tut-5Env-v0,166,303.9678835817783,314021,1390,1884.9941730499268,43.48430252075195,-44.300506591796875,16.807479858398438,0.64,43.24143981933594,43.13674545288086,0.7664552330970764
313,MetaDrive-Tut-5Env-v0,166,302.47133511357947,315078,1394,1891.6752071380615,42.040748596191406,,21.255760192871094,0.63,43.085906982421875,42.8353385925293,0.7576068639755249
314,MetaDrive-Tut-5Env-v0,166,303.5996671759077,316363,1397,1899.3348278999329,40.4096565246582,-41.250816345214844,18.108036041259766,0.65,40.38218307495117,40.69500732421875,0.8463587760925293
315,MetaDrive-Tut-5Env-v0,166,302.77975027577594,317361,1400,1905.6610589027405,38.92156219482422,-39.90144348144531,16.478790283203125,0.65,39.82931900024414,39.761932373046875,0.8519582748413086
316,MetaDrive-Tut-5Env-v0,166,304.43830314706645,318156,1402,1910.5204038619995,42.03135299682617,,19.84344482421875,0.66,41.42844772338867,41.423362731933594,0.8663768172264099
317,MetaDrive-Tut-5Env-v0,166,309.2209943216789,319561,1405,1919.9710009098053,42.95771789550781,-45.087364196777344,18.619535446166992,0.66,42.87409591674805,42.77988052368164,0.8935859203338623
318,MetaDrive-Tut-5Env-v0,166,308.37143239963467,320117,1407,1923.5899391174316,38.99565887451172,-39.51395034790039,12.056439399719238,0.64,39.29042434692383,38.75318145751953,0.837039589881897
319,MetaDrive-Tut-5Env-v0,166,306.79126349053143,321212,1411,1930.0813410282135,40.5379638671875,,14.147607803344727,0.65,40.06403732299805,39.91192626953125,0.7940802574157715
320,MetaDrive-Tut-5Env-v0,166,305.5146859637152,322182,1414,1935.7764201164246,41.24747848510742,,11.117390632629395,0.66,41.38446044921875,41.292030334472656,0.7957155108451843
321,MetaDrive-Tut-5Env-v0,166,307.3326945707541,323459,1417,1943.6958990097046,39.5849494934082,-40.124237060546875,15.39310359954834,0.66,40.022674560546875,39.462432861328125,0.7694867849349976
322,MetaDrive-Tut-5Env-v0,166,308.3414391859385,324228,1419,1948.402636051178,42.25458526611328,,13.93337631225586,0.68,42.161502838134766,41.886348724365234,0.7827779054641724
323,MetaDrive-Tut-5Env-v0,166,309.6359760887368,325126,1421,1953.8463249206543,43.035064697265625,,13.605875015258789,0.68,42.40718460083008,42.96506881713867,0.8396547436714172
324,MetaDrive-Tut-5Env-v0,166,310.7644134519257,326137,1423,1960.1627759933472,43.34501647949219,-44.07496643066406,16.684078216552734,0.69,42.4666862487793,43.07704544067383,0.8625452518463135
325,MetaDrive-Tut-5Env-v0,166,311.31949287343826,327220,1426,1966.9074449539185,43.077022552490234,,9.254962921142578,0.69,43.63690185546875,43.27678680419922,0.8021689057350159
326,MetaDrive-Tut-5Env-v0,166,311.8590813680201,328096,1428,1972.3288230895996,40.52910232543945,,14.725751876831055,0.69,40.927391052246094,41.43425750732422,0.8400399088859558
327,MetaDrive-Tut-5Env-v0,166,312.754227672776,329439,1431,1981.0294470787048,38.80121612548828,-39.36014175415039,23.859722137451172,0.69,36.412254333496094,36.14728546142578,0.7748895883560181
328,MetaDrive-Tut-5Env-v0,166,312.0513654139141,330232,1433,1985.831533908844,42.4849739074707,,12.518074989318848,0.69,41.9750862121582,42.8581657409668,0.839288055896759
329,MetaDrive-Tut-5Env-v0,166,313.7978927555263,331153,1435,1991.4176712036133,39.6695442199707,-40.461544036865234,18.95907974243164,0.7,39.92067337036133,39.43162536621094,0.8278648853302002
330,MetaDrive-Tut-5Env-v0,166,313.8897730172366,332001,1437,1996.5409750938416,41.40550231933594,-40.82941436767578,12.711475372314453,0.71,40.901710510253906,41.80744934082031,0.823635995388031
331,MetaDrive-Tut-5Env-v0,166,313.17617830541553,333115,1440,2003.2189359664917,36.20246505737305,-37.088741302490234,19.918800354003906,0.72,35.78337860107422,36.61902618408203,0.7897415161132812
332,MetaDrive-Tut-5Env-v0,166,310.25417445576016,334135,1443,2009.2513279914856,40.762367248535156,-40.46512222290039,15.63188648223877,0.73,40.75067138671875,41.36207962036133,0.8183299899101257
333,MetaDrive-Tut-5Env-v0,166,310.68465092876465,335187,1445,2015.874922990799,40.57665252685547,-40.529109954833984,22.412334442138672,0.73,41.47196960449219,41.614112854003906,0.7528248429298401
334,MetaDrive-Tut-5Env-v0,166,314.6689471256936,336092,1447,2021.916333913803,39.25532150268555,,19.67474937438965,0.74,40.34052658081055,40.12850570678711,0.7521786093711853
335,MetaDrive-Tut-5Env-v0,166,314.50688391285047,337183,1450,2028.7140011787415,40.69997787475586,-41.494544982910156,15.223461151123047,0.75,40.9786491394043,40.74184036254883,0.8327699303627014
336,MetaDrive-Tut-5Env-v0,166,315.23775652226084,338024,1452,2034.2272510528564,40.6484260559082,,16.595937728881836,0.76,39.73588943481445,39.78693389892578,0.7724031209945679
337,MetaDrive-Tut-5Env-v0,166,317.01283309223675,339313,1455,2041.9106001853943,41.341312408447266,-41.002323150634766,9.505199432373047,0.78,41.10931396484375,41.22941589355469,0.7148839831352234
338,MetaDrive-Tut-5Env-v0,166,319.04979699755893,340360,1457,2048.791079044342,40.72047424316406,,33.84794616699219,0.79,41.562477111816406,41.4539794921875,0.8331540822982788
339,MetaDrive-Tut-5Env-v0,166,320.74051790371215,341143,1459,2053.539777994156,39.93921661376953,-39.32093048095703,9.684452056884766,0.8,40.533409118652344,40.149169921875,0.8051191568374634
340,MetaDrive-Tut-5Env-v0,166,320.4508639881423,342024,1461,2058.8669669628143,41.05622100830078,,20.093463897705078,0.81,41.07017517089844,41.0712890625,0.7823547124862671
341,MetaDrive-Tut-5Env-v0,166,319.5721883993343,343282,1464,2066.4189479351044,39.593929290771484,,45.340843200683594,0.81,39.47071075439453,39.218868255615234,0.7873252034187317
342,MetaDrive-Tut-5Env-v0,166,321.2096147322048,344191,1466,2071.8664360046387,40.53786849975586,-41.016204833984375,13.956490516662598,0.82,41.425941467285156,41.35847854614258,0.7830678224563599
343,MetaDrive-Tut-5Env-v0,166,321.3978247816782,345398,1469,2079.332442998886,40.00876235961914,,15.690255165100098,0.82,39.87818145751953,39.25831985473633,0.7589030265808105
344,MetaDrive-Tut-5Env-v0,166,320.6305663735299,346137,1472,2084.191090106964,39.09464645385742,-39.3392219543457,21.860876083374023,0.81,38.786312103271484,39.410987854003906,0.7633930444717407
345,MetaDrive-Tut-5Env-v0,166,319.57793605882273,347435,1475,2092.1162600517273,39.74276351928711,-40.4196891784668,10.881418228149414,0.81,38.7819709777832,39.34413146972656,0.8099378347396851
346,MetaDrive-Tut-5Env-v0,166,319.77560484443666,348340,1477,2097.5633618831635,40.85158157348633,,15.526022911071777,0.81,41.13033676147461,41.56523895263672,0.8281926512718201
347,MetaDrive-Tut-5Env-v0,166,317.33095074163595,349259,1480,2103.322271823883,43.22979736328125,-44.20752716064453,12.484103202819824,0.79,43.27293395996094,44.0849723815918,0.8718758821487427
348,MetaDrive-Tut-5Env-v0,166,317.32462335134977,350355,1483,2110.3506858348846,41.858116149902344,-42.21148681640625,14.442535400390625,0.77,42.13933563232422,42.008026123046875,0.7618522644042969
349,MetaDrive-Tut-5Env-v0,166,316.10282520020405,351245,1486,2115.654440879822,42.46734619140625,-43.16870880126953,14.17814826965332,0.77,43.518585205078125,43.44832992553711,0.8657339215278625
350,MetaDrive-Tut-5Env-v0,166,317.19532080414126,352282,1488,2121.969913005829,42.878177642822266,,14.334870338439941,0.78,42.393646240234375,43.07918167114258,0.7876706719398499
351,MetaDrive-Tut-5Env-v0,166,318.4133718597912,353192,1490,2127.4225981235504,38.247161865234375,,12.78280258178711,0.79,38.19734573364258,39.00636672973633,0.7732503414154053
352,MetaDrive-Tut-5Env-v0,166,319.2512697584092,354132,1492,2133.2089200019836,40.8597412109375,,8.697644233703613,0.79,40.32822036743164,40.41004180908203,0.8035863637924194
353,MetaDrive-Tut-5Env-v0,166,318.80032606592283,355151,1495,2139.0995922088623,36.542091369628906,-36.96651840209961,25.7286319732666,0.8,35.468910217285156,34.74118423461914,0.8194798231124878
354,MetaDrive-Tut-5Env-v0,166,317.9490013565578,356143,1498,2145.0344700813293,44.12380599975586,-44.4442024230957,20.707290649414062,0.79,44.62155532836914,44.359588623046875,0.840111494064331
355,MetaDrive-Tut-5Env-v0,166,318.0600347311882,357061,1500,2150.5007321834564,42.774192810058594,-43.598899841308594,7.261195182800293,0.8,42.72063446044922,43.232940673828125,0.8762354850769043
356,MetaDrive-Tut-5Env-v0,165,317.2449994334583,358223,1503,2158.0408759117126,39.73233413696289,-40.375953674316406,13.864572525024414,0.79,39.8919677734375,39.60704040527344,0.7992137670516968
357,MetaDrive-Tut-5Env-v0,165,315.5159201753613,359436,1506,2165.3726801872253,41.24422073364258,,16.989635467529297,0.8,42.04296875,41.193790435791016,0.7506328821182251
358,MetaDrive-Tut-5Env-v0,165,316.3129310266159,360160,1508,2169.745155096054,38.026771545410156,,9.17487621307373,0.8,38.667747497558594,38.95801544189453,0.8002443313598633
359,MetaDrive-Tut-5Env-v0,165,318.2443653622391,361218,1511,2176.7832469940186,40.96731185913086,,8.63131332397461,0.78,40.51972579956055,40.72184371948242,0.7905771136283875
360,MetaDrive-Tut-5Env-v0,165,319.4831872663454,362322,1513,2183.3209431171417,41.95948791503906,,6.738471031188965,0.78,41.46703338623047,42.053585052490234,0.7108736634254456
361,MetaDrive-Tut-5Env-v0,165,319.52171782536067,363211,1515,2188.6777589321136,38.50077438354492,-38.219303131103516,8.627408027648926,0.78,38.750614166259766,39.11969757080078,0.7869396209716797
362,MetaDrive-Tut-5Env-v0,165,320.9990014995066,364451,1517,2196.249465942383,41.16933059692383,-42.812862396240234,10.622230529785156,0.78,41.333560943603516,40.560977935791016,0.8222554922103882
363,MetaDrive-Tut-5Env-v0,165,321.00840206462243,365047,1518,2199.6935069561005,37.80467224121094,-38.23265075683594,21.84853744506836,0.78,37.84452819824219,37.681236267089844,0.8442135453224182
364,MetaDrive-Tut-5Env-v0,165,320.5555758371245,366345,1521,2207.398328065872,37.884727478027344,-38.23832321166992,12.967808723449707,0.78,38.58258819580078,38.309486389160156,0.8039301037788391
365,MetaDrive-Tut-5Env-v0,165,319.0273436608129,367223,1523,2212.6869370937347,39.95573806762695,-39.909454345703125,13.712448120117188,0.77,39.900272369384766,40.227272033691406,0.7732845544815063
366,MetaDrive-Tut-5Env-v0,165,321.45435427387184,368286,1525,2219.1066291332245,38.649375915527344,,15.987092018127441,0.78,38.36186981201172,38.51106643676758,0.816035270690918
367,MetaDrive-Tut-5Env-v0,165,323.33483633402045,369323,1527,2225.900908946991,39.130191802978516,-39.87511444091797,17.65042495727539,0.78,39.522308349609375,39.30396270751953,0.8035978674888611
368,MetaDrive-Tut-5Env-v0,165,320.7865022400078,370278,1530,2231.6575360298157,37.04249954223633,,17.758316040039062,0.78,37.008365631103516,37.225372314453125,0.7739982604980469
369,MetaDrive-Tut-5Env-v0,165,322.2085088354911,371225,1532,2237.7905781269073,38.250732421875,-39.58036804199219,21.086801528930664,0.79,38.73899841308594,38.12419509887695,0.7805124521255493
370,MetaDrive-Tut-5Env-v0,165,321.01848622071725,372230,1535,2243.7165410518646,37.0028190612793,,44.941627502441406,0.79,37.218868255615234,36.72148132324219,0.7381526231765747
371,MetaDrive-Tut-5Env-v0,165,320.60162047994385,373101,1537,2249.055067062378,40.40812301635742,-40.58089065551758,21.13437843322754,0.79,41.19390106201172,40.96356201171875,0.7780800461769104
372,MetaDrive-Tut-5Env-v0,165,319.87476114586315,374511,1540,2257.437600851059,38.23123550415039,-38.54866027832031,14.069721221923828,0.79,37.57870864868164,36.89720153808594,0.7714102864265442
373,MetaDrive-Tut-5Env-v0,165,321.02332074632227,375369,1542,2262.8252580165863,37.04096984863281,-37.639102935791016,19.981914520263672,0.78,37.37492370605469,37.448909759521484,0.7942036390304565
374,MetaDrive-Tut-5Env-v0,165,321.0681177402979,376247,1544,2268.178339958191,39.58675765991211,-40.8533935546875,11.713617324829102,0.78,39.60636520385742,39.7848014831543,0.7902281284332275
375,MetaDrive-Tut-5Env-v0,165,318.6033399794041,377336,1546,2274.7571969032288,38.3876953125,,18.374832153320312,0.78,37.501914978027344,38.357398986816406,0.7945358753204346
376,MetaDrive-Tut-5Env-v0,165,319.0758958619223,378513,1548,2281.9360229969025,38.08150100708008,-38.30479431152344,10.768729209899902,0.79,38.59910583496094,38.48863220214844,0.7832610011100769
377,MetaDrive-Tut-5Env-v0,165,319.93981464305364,379178,1549,2286.021315097809,38.657344818115234,,8.31845760345459,0.79,38.2890510559082,38.65850067138672,0.8046267032623291
378,MetaDrive-Tut-5Env-v0,165,320.98546206040226,380046,1551,2291.341104030609,34.67570114135742,,10.873764038085938,0.8,34.95435333251953,35.416324615478516,0.8573155999183655
379,MetaDrive-Tut-5Env-v0,165,320.71094962160237,381420,1554,2299.809629917145,40.42759704589844,,9.485701560974121,0.8,40.54262161254883,40.091331481933594,0.8383169770240784
380,MetaDrive-Tut-5Env-v0,165,316.64860447257206,382377,1557,2306.04065990448,39.68754196166992,-39.1325798034668,14.616227149963379,0.78,40.05717086791992,40.501625061035156,0.8416895270347595
381,MetaDrive-Tut-5Env-v0,165,316.809275133092,383275,1559,2311.4896790981293,40.41520690917969,-41.156551361083984,8.891698837280273,0.78,40.74156951904297,41.408016204833984,0.7872782945632935
382,MetaDrive-Tut-5Env-v0,165,317.2451511459624,384103,1561,2316.4686830043793,36.87255096435547,-36.17137145996094,12.94821548461914,0.78,36.03823471069336,36.42198944091797,0.7863125801086426
383,MetaDrive-Tut-5Env-v0,165,317.84411326646915,385311,1564,2323.6875791549683,37.36965560913086,-37.106597900390625,16.04277801513672,0.78,38.1343994140625,38.169193267822266,0.7680380344390869
384,MetaDrive-Tut-5Env-v0,165,317.6749421147035,386396,1567,2330.4465329647064,35.73621368408203,,23.487266540527344,0.77,36.18446350097656,36.98677062988281,0.7319042682647705
385,MetaDrive-Tut-5Env-v0,165,315.38175412625174,387178,1570,2335.214147090912,36.836544036865234,,7.692262649536133,0.77,37.22384262084961,36.64274597167969,0.7759039402008057
386,MetaDrive-Tut-5Env-v0,165,316.1309196044558,388024,1572,2340.441022872925,39.288597106933594,,10.160829544067383,0.79,40.01689147949219,39.04247283935547,0.7813239097595215
387,MetaDrive-Tut-5Env-v0,165,317.3136042708677,389254,1575,2348.1873981952667,39.08717727661133,,11.599014282226562,0.79,39.17784118652344,39.460350036621094,0.7756760120391846
388,MetaDrive-Tut-5Env-v0,165,316.58908931751375,390302,1578,2354.181571960449,40.385284423828125,,21.623411178588867,0.8,39.48649215698242,38.98988723754883,0.7904397249221802
389,MetaDrive-Tut-5Env-v0,165,317.129238598943,391121,1580,2359.120225906372,37.5063591003418,-38.15290451049805,16.428762435913086,0.81,37.5618782043457,37.987388610839844,0.8545401096343994
390,MetaDrive-Tut-5Env-v0,165,318.3526688048139,392126,1582,2365.291261911392,38.80059051513672,,15.682304382324219,0.82,39.696006774902344,39.4379768371582,0.810429573059082
391,MetaDrive-Tut-5Env-v0,165,320.69168435369687,393106,1584,2371.415426015854,40.03672790527344,,6.911689758300781,0.83,39.56111145019531,39.652687072753906,0.7603417038917542
392,MetaDrive-Tut-5Env-v0,165,320.90313443202047,394171,1587,2378.0303127765656,37.66354751586914,-38.03364181518555,11.14154052734375,0.83,37.27776336669922,37.43416213989258,0.7383734583854675
393,MetaDrive-Tut-5Env-v0,165,320.8346482163524,395195,1589,2384.444706916809,38.020328521728516,-38.52558517456055,9.395156860351562,0.83,37.44023895263672,38.20508575439453,0.7734487652778625
394,MetaDrive-Tut-5Env-v0,165,322.0647621911836,396229,1591,2390.821776151657,38.538150787353516,-39.016357421875,13.271167755126953,0.83,39.13109588623047,39.49870300292969,0.821600615978241
395,MetaDrive-Tut-5Env-v0,165,322.95016540396284,397081,1593,2396.0413200855255,40.61932373046875,-41.006065368652344,8.856542587280273,0.83,40.058013916015625,40.19746780395508,0.8202868103981018
396,MetaDrive-Tut-5Env-v0,165,325.0768196351685,398286,1596,2403.235883951187,36.9903678894043,,7.466141223907471,0.84,37.30217361450195,36.65624237060547,0.770273745059967
397,MetaDrive-Tut-5Env-v0,165,326.36735223620343,399103,1598,2408.237714767456,38.734954833984375,-38.499839782714844,9.080336570739746,0.85,39.46163558959961,39.06775665283203,0.7676771879196167
398,MetaDrive-Tut-5Env-v0,165,323.08312669390875,400192,1601,2414.6189510822296,36.65000915527344,,12.556941986083984,0.85,35.958961486816406,35.765594482421875,0.7761456966400146
399,MetaDrive-Tut-5Env-v0,165,323.7611940366918,401106,1604,2420.626097202301,39.935760498046875,,16.92198371887207,0.84,40.87763214111328,39.683902740478516,0.8329179286956787
400,MetaDrive-Tut-5Env-v0,165,323.78380251604557,402179,1607,2427.2728309631348,36.83488845825195,-37.28438949584961,13.796321868896484,0.83,37.30589294433594,37.49107360839844,0.7734131813049316
401,MetaDrive-Tut-5Env-v0,165,324.11096278797186,403006,1609,2432.2733840942383,38.949424743652344,,17.249967575073242,0.85,37.772220611572266,36.713478088378906,0.8251901865005493
402,MetaDrive-Tut-5Env-v0,165,321.9679873834518,404459,1613,2440.8854439258575,35.358177185058594,-35.900733947753906,36.48876953125,0.85,35.9663200378418,35.47005844116211,0.7824897766113281
403,MetaDrive-Tut-5Env-v0,165,320.87288251478736,405122,1615,2444.8360180854797,35.822166442871094,,7.926333427429199,0.85,36.19887161254883,35.440921783447266,0.7256641387939453
404,MetaDrive-Tut-5Env-v0,165,318.0463557750558,406094,1618,2450.7488770484924,36.829872131347656,,7.7879228591918945,0.84,36.7114372253418,36.309444427490234,0.7965288162231445
405,MetaDrive-Tut-5Env-v0,165,317.2635310578029,407148,1621,2457.391848087311,42.94538879394531,,14.91412353515625,0.83,42.15037155151367,43.16237258911133,0.7979264259338379
406,MetaDrive-Tut-5Env-v0,165,315.38657641826785,408527,1625,2465.8407769203186,39.7122917175293,-40.000003814697266,7.955943584442139,0.83,39.773193359375,39.41013717651367,0.7896703481674194
407,MetaDrive-Tut-5Env-v0,165,310.2801879798803,409085,1627,2469.0819749832153,35.35662078857422,-36.096736907958984,16.485258102416992,0.82,35.21388626098633,34.353084564208984,0.8250964283943176
408,MetaDrive-Tut-5Env-v0,165,311.4752792553704,410295,1630,2476.3336610794067,40.45067596435547,-39.970008850097656,8.77063274383545,0.83,41.00769805908203,41.42321014404297,0.8228777647018433
409,MetaDrive-Tut-5Env-v0,165,310.1708483453263,411367,1633,2482.848489999771,40.34467697143555,-40.19910430908203,10.104866027832031,0.83,40.94561004638672,41.0399055480957,0.7772611975669861
410,MetaDrive-Tut-5Env-v0,165,311.1959456386415,412250,1635,2488.1229209899902,38.40453338623047,,10.505484580993652,0.83,38.46208190917969,38.437652587890625,0.7930566072463989
411,MetaDrive-Tut-5Env-v0,165,310.9579221494532,413065,1638,2493.052776813507,36.480186462402344,-36.24691390991211,12.98736572265625,0.83,36.68000030517578,36.01609802246094,0.6969924569129944
412,MetaDrive-Tut-5Env-v0,165,311.61909513934387,414319,1641,2500.8767499923706,39.518775939941406,-38.660831451416016,10.649358749389648,0.83,39.115257263183594,39.229400634765625,0.7425258755683899
413,MetaDrive-Tut-5Env-v0,165,310.97208307428593,415132,1643,2505.7980949878693,39.364166259765625,,17.509973526000977,0.83,39.23776626586914,39.208213806152344,0.7765836119651794
414,MetaDrive-Tut-5Env-v0,165,313.3790654945495,416150,1645,2512.029272079468,38.867530822753906,,17.031097412109375,0.83,38.38923645019531,38.06102752685547,0.8154508471488953
415,MetaDrive-Tut-5Env-v0,165,313.34201849394276,417191,1647,2518.386293888092,38.492149353027344,-37.34238052368164,16.58632469177246,0.83,37.21013641357422,38.136322021484375,0.8219355344772339
416,MetaDrive-Tut-5Env-v0,165,312.7261054764401,418011,1649,2523.3527631759644,37.231712341308594,-37.23150634765625,20.101749420166016,0.83,37.691123962402344,37.571502685546875,0.7534735798835754
417,MetaDrive-Tut-5Env-v0,165,312.19118241904476,419343,1653,2531.563024997711,38.9663200378418,-38.77875518798828,9.399364471435547,0.82,38.989925384521484,38.69121170043945,0.8036810159683228
418,MetaDrive-Tut-5Env-v0,165,312.63352572430244,420409,1655,2538.187456846237,38.1647834777832,-38.067501068115234,13.788349151611328,0.83,38.998416900634766,38.64761734008789,0.7979775071144104
419,MetaDrive-Tut-5Env-v0,165,311.9522112040307,421090,1657,2542.1703209877014,36.09529113769531,,7.126168251037598,0.84,36.84370040893555,35.631431579589844,0.7329129576683044
420,MetaDrive-Tut-5Env-v0,165,310.01898959558974,422512,1661,2550.8907029628754,39.755741119384766,,21.664608001708984,0.83,40.01435089111328,39.4268798828125,0.7331571578979492
421,MetaDrive-Tut-5Env-v0,165,310.84427493029807,423031,1662,2554.1166608333588,40.44584655761719,-40.76530838012695,25.38943099975586,0.83,41.087059020996094,40.904022216796875,0.8401293754577637
422,MetaDrive-Tut-5Env-v0,165,311.5007831354018,424418,1665,2562.555475950241,39.88557815551758,,15.319931030273438,0.84,40.18494415283203,39.66926956176758,0.7808414697647095
423,MetaDrive-Tut-5Env-v0,165,311.7620480876258,425106,1667,2566.942144870758,38.1136360168457,,15.999274253845215,0.83,37.84630584716797,37.91215896606445,0.7793549299240112
424,MetaDrive-Tut-5Env-v0,165,314.1653457141688,426455,1670,2574.9995839595795,40.134925842285156,-40.90318298339844,7.278637409210205,0.85,40.4034423828125,40.454708099365234,0.8855752944946289
425,MetaDrive-Tut-5Env-v0,165,313.32365865385407,427118,1672,2578.9609048366547,39.933128356933594,,10.098112106323242,0.85,40.240638732910156,40.57978057861328,0.81313157081604
426,MetaDrive-Tut-5Env-v0,165,314.4877884512271,428033,1674,2584.9481251239777,37.495330810546875,-38.1423454284668,8.711160659790039,0.86,37.817054748535156,37.39979934692383,0.8149372935295105
427,MetaDrive-Tut-5Env-v0,165,314.3210921111724,429179,1677,2591.960488796234,42.063880920410156,-40.700923919677734,12.274656295776367,0.86,41.88153839111328,42.52157974243164,0.8107767701148987
428,MetaDrive-Tut-5Env-v0,165,316.1727834926625,430381,1680,2599.740569114685,38.823486328125,-39.17620086669922,11.271791458129883,0.85,38.761985778808594,38.58273696899414,0.7969937324523926
429,MetaDrive-Tut-5Env-v0,165,314.72913903725623,431073,1682,2604.225569009781,36.413368225097656,-35.82087707519531,12.082128524780273,0.84,34.89033126831055,35.50444793701172,0.785694420337677
430,MetaDrive-Tut-5Env-v0,165,311.71759580685267,432159,1685,2610.816442966461,38.41639709472656,-38.21498107910156,12.516446113586426,0.83,38.32267761230469,38.55224609375,0.7394014000892639
431,MetaDrive-Tut-5Env-v0,165,313.19957690001803,433014,1687,2616.0493700504303,40.35075378417969,,20.168140411376953,0.84,41.8657341003418,41.514217376708984,0.7437484264373779
432,MetaDrive-Tut-5Env-v0,165,312.6269386965776,434015,1688,2621.9295139312744,43.338035583496094,-43.76940155029297,8.577856063842773,0.83,43.926151275634766,42.99945068359375,0.8416664004325867
433,MetaDrive-Tut-5Env-v0,165,309.9578576581066,435460,1692,2630.6168920993805,38.51896667480469,,15.46490478515625,0.83,38.931251525878906,38.74212646484375,0.7124731540679932
434,MetaDrive-Tut-5Env-v0,165,309.7124650983826,436302,1695,2635.756968975067,38.96143341064453,,12.675884246826172,0.82,38.67396926879883,38.81931686401367,0.7957331538200378
435,MetaDrive-Tut-5Env-v0,165,308.16401439585235,437488,1698,2642.84419298172,38.74321746826172,,9.32686996459961,0.82,38.020301818847656,38.76741027832031,0.821418046951294
436,MetaDrive-Tut-5Env-v0,165,307.9359301468346,438088,1700,2646.326488018036,41.35274124145508,,10.586832046508789,0.82,41.31421661376953,41.52571487426758,0.8204026818275452
437,MetaDrive-Tut-5Env-v0,165,307.2743320968568,439090,1703,2652.1132760047913,38.9333610534668,,8.570405960083008,0.83,38.919342041015625,38.51869201660156,0.7973869442939758
438,MetaDrive-Tut-5Env-v0,165,309.4336505589433,440102,1705,2658.35373210907,37.2496452331543,,14.658916473388672,0.84,36.61974334716797,37.10369873046875,0.6874495148658752
439,MetaDrive-Tut-5Env-v0,165,310.3856948957276,441160,1707,2664.9604279994965,40.52374267578125,,33.094451904296875,0.85,41.975311279296875,40.851802825927734,0.7655936479568481
440,MetaDrive-Tut-5Env-v0,165,310.39608052187106,442069,1709,2670.5247478485107,40.60673904418945,-40.927249908447266,8.665210723876953,0.85,41.27021789550781,40.0939826965332,0.797828733921051
441,MetaDrive-Tut-5Env-v0,165,312.34087425492197,443145,1712,2677.286365032196,41.66105270385742,-41.83251190185547,17.497154235839844,0.85,41.101261138916016,41.87551498413086,0.7938253879547119
442,MetaDrive-Tut-5Env-v0,165,312.97893157755664,444202,1714,2683.8143739700317,39.12309265136719,,7.802019119262695,0.85,40.03244400024414,39.41930389404297,0.7665119171142578
443,MetaDrive-Tut-5Env-v0,165,314.4678174145611,445163,1716,2690.029804944992,36.81291961669922,-36.97553634643555,16.403785705566406,0.85,36.926300048828125,37.18898391723633,0.7614865899085999
444,MetaDrive-Tut-5Env-v0,165,317.23390370911255,446466,1719,2698.070508956909,38.01893997192383,,11.231101989746094,0.86,36.85927963256836,38.244327545166016,0.8468405604362488
445,MetaDrive-Tut-5Env-v0,165,317.5847459995047,447186,1721,2702.246706008911,42.599159240722656,,7.202956199645996,0.87,42.595916748046875,43.02806854248047,0.7883442640304565
446,MetaDrive-Tut-5Env-v0,165,318.8877964914602,448367,1724,2710.0092730522156,40.875022888183594,-42.4906120300293,10.319839477539062,0.87,41.356781005859375,41.18385696411133,0.8049532175064087
447,MetaDrive-Tut-5Env-v0,165,318.0769719681967,449110,1726,2714.361345052719,41.219078063964844,,23.469593048095703,0.87,40.74116897583008,41.2945556640625,0.7520362734794617
448,MetaDrive-Tut-5Env-v0,165,320.9288539413652,450333,1729,2721.8911871910095,41.31902313232422,-41.44068145751953,7.6197309494018555,0.87,40.97880935668945,41.15331268310547,0.7751611471176147
449,MetaDrive-Tut-5Env-v0,165,320.4452820307548,451016,1731,2726.3060660362244,41.15242385864258,,48.72450256347656,0.86,41.61445999145508,41.141990661621094,0.7741243839263916
450,MetaDrive-Tut-5Env-v0,165,318.21628562430413,452241,1735,2733.822336912155,36.719818115234375,-37.46636199951172,11.365102767944336,0.84,37.56140899658203,36.76533508300781,0.7311168313026428
451,MetaDrive-Tut-5Env-v0,165,319.6547912506067,453125,1737,2739.2210149765015,36.41807174682617,-37.26648712158203,10.302766799926758,0.84,36.91941833496094,36.066978454589844,0.7644332647323608
452,MetaDrive-Tut-5Env-v0,165,318.9120580076619,454428,1741,2747.3666291236877,39.25967788696289,,8.736167907714844,0.85,38.47348403930664,38.527992248535156,0.7798916101455688
453,MetaDrive-Tut-5Env-v0,165,316.2494334056856,455146,1744,2752.009390115738,37.56626892089844,,11.740983963012695,0.83,37.505088806152344,38.208763122558594,0.7539691925048828
454,MetaDrive-Tut-5Env-v0,165,314.2239272637424,456106,1747,2758.022656917572,41.01669692993164,,11.148971557617188,0.82,41.97468185424805,42.036624908447266,0.8628264665603638
455,MetaDrive-Tut-5Env-v0,165,313.18881446084595,457074,1750,2763.786765098572,40.23729705810547,,9.82596492767334,0.82,40.810298919677734,40.503623962402344,0.814371645450592
456,MetaDrive-Tut-5Env-v0,165,312.7684033885255,458262,1753,2771.14701795578,41.25510787963867,,10.232284545898438,0.82,40.41255187988281,40.76284408569336,0.7834572792053223
457,MetaDrive-Tut-5Env-v0,165,309.987767500192,459042,1756,2776.0443592071533,44.625038146972656,,16.52570343017578,0.8,44.247108459472656,44.600196838378906,0.8055090308189392
458,MetaDrive-Tut-5Env-v0,165,311.292579466747,460163,1759,2782.7915320396423,39.591552734375,-39.55100631713867,10.85867691040039,0.8,39.5140266418457,40.26181411743164,0.8292480707168579
459,MetaDrive-Tut-5Env-v0,165,311.20584119016496,461196,1762,2789.4502608776093,41.24214172363281,,14.070940017700195,0.79,41.17726516723633,40.755157470703125,0.8296887874603271
460,MetaDrive-Tut-5Env-v0,165,312.0652906889895,462239,1764,2795.830904006958,38.54815673828125,-39.80998992919922,10.235981941223145,0.79,39.1741828918457,37.71235656738281,0.9413223266601562
461,MetaDrive-Tut-5Env-v0,165,310.22720743977555,463087,1766,2800.9457478523254,36.874359130859375,-37.02467346191406,9.894834518432617,0.79,37.27642822265625,36.95969772338867,0.812791645526886
462,MetaDrive-Tut-5Env-v0,165,310.04850395662936,464022,1769,2806.628061771393,39.9434814453125,,16.486648559570312,0.79,39.3383674621582,39.8388671875,0.7757653594017029
463,MetaDrive-Tut-5Env-v0,165,306.11453430388724,465046,1773,2813.130695104599,41.39421081542969,,17.365230560302734,0.76,42.76496124267578,42.79396057128906,0.8435264229774475
464,MetaDrive-Tut-5Env-v0,165,307.1328636067059,466082,1775,2819.5466589927673,39.48658752441406,,10.688761711120605,0.76,39.57923126220703,39.63916015625,0.8306822180747986
465,MetaDrive-Tut-5Env-v0,165,305.9675326615884,467285,1779,2826.754139184952,41.315162658691406,-40.9171257019043,6.424182891845703,0.76,41.37123107910156,41.49626922607422,0.7978717088699341
466,MetaDrive-Tut-5Env-v0,165,305.53396065156466,468318,1781,2833.1898028850555,38.451560974121094,,11.81875228881836,0.76,38.617454528808594,38.599891662597656,0.7915132641792297
467,MetaDrive-Tut-5Env-v0,165,306.51721472450424,469003,1783,2837.606570005417,40.2502326965332,-40.69112014770508,6.773773670196533,0.76,40.03431701660156,40.113548278808594,0.8130894303321838
468,MetaDrive-Tut-5Env-v0,165,304.4702101848752,470167,1785,2844.154139995575,37.54387283325195,-38.19498062133789,16.82147789001465,0.75,37.73365020751953,37.371341705322266,0.7631876468658447
469,MetaDrive-Tut-5Env-v0,165,304.0054285473575,471302,1788,2851.0034952163696,42.13896942138672,,8.830350875854492,0.76,42.228946685791016,42.69041442871094,0.8428852558135986
470,MetaDrive-Tut-5Env-v0,165,306.11774041372195,472273,1790,2857.01895904541,40.73823165893555,-42.095794677734375,20.258804321289062,0.76,40.30260467529297,39.78511428833008,0.8403624296188354
471,MetaDrive-Tut-5Env-v0,165,306.163373292608,473061,1792,2861.877236843109,42.21250534057617,-43.330482482910156,9.744115829467773,0.76,41.70137023925781,41.21533203125,0.7930362224578857
472,MetaDrive-Tut-5Env-v0,165,307.4603551398435,474065,1795,2868.292765855789,41.12957000732422,-41.633426666259766,5.861095428466797,0.76,41.58595275878906,41.685882568359375,0.7996097803115845
473,MetaDrive-Tut-5Env-v0,165,309.57431063544,475061,1797,2874.4513041973114,39.013465881347656,-39.695274353027344,17.33892250061035,0.76,37.489315032958984,37.45391845703125,0.7953319549560547
474,MetaDrive-Tut-5Env-v0,165,310.20934906229513,476248,1800,2881.5396888256073,37.88835144042969,,11.473462104797363,0.76,37.76167297363281,37.53253173828125,0.7535668611526489
475,MetaDrive-Tut-5Env-v0,165,310.43765953851516,477187,1803,2887.4473741054535,40.96998977661133,-42.39026641845703,39.255516052246094,0.75,40.99694061279297,41.156742095947266,0.7919172644615173
476,MetaDrive-Tut-5Env-v0,165,309.6541890052521,478021,1805,2892.4628121852875,39.9968376159668,-40.01762390136719,18.371248245239258,0.75,40.609153747558594,40.16904067993164,0.8037413358688354
477,MetaDrive-Tut-5Env-v0,165,309.10909611093234,479159,1808,2899.521420955658,39.983882904052734,-40.28615188598633,15.840290069580078,0.74,41.185306549072266,40.82925796508789,0.7560292482376099
478,MetaDrive-Tut-5Env-v0,165,307.28384954459574,480178,1812,2906.096076965332,38.98963165283203,,11.201135635375977,0.72,39.858795166015625,39.43701171875,0.8650590777397156
479,MetaDrive-Tut-5Env-v0,165,306.42705503093,481073,1814,2911.5689640045166,40.46501159667969,-40.11398696899414,9.523651123046875,0.72,41.29905319213867,39.9576530456543,0.804848849773407
480,MetaDrive-Tut-5Env-v0,165,300.57276116918615,482028,1818,2917.420068025589,38.802955627441406,,18.274803161621094,0.69,39.690155029296875,39.350242614746094,0.8302071690559387
481,MetaDrive-Tut-5Env-v0,165,298.4189161108161,483253,1822,2924.825644016266,39.08748245239258,-39.57438659667969,7.08091926574707,0.68,39.44007110595703,39.234336853027344,0.7816885709762573
482,MetaDrive-Tut-5Env-v0,165,299.4009002954853,484015,1824,2929.4830870628357,40.34593200683594,-41.04204177856445,9.211954116821289,0.69,40.016624450683594,40.047630310058594,0.7694293856620789
483,MetaDrive-Tut-5Env-v0,165,300.4464803778397,485168,1827,2936.4343972206116,39.3337287902832,,7.8182291984558105,0.69,39.30120849609375,38.513431549072266,0.8602500557899475
484,MetaDrive-Tut-5Env-v0,165,301.0421266407755,486471,1830,2944.4580631256104,39.59903335571289,-39.1806755065918,9.676898002624512,0.69,38.52821350097656,39.588592529296875,0.8413889408111572
485,MetaDrive-Tut-5Env-v0,165,302.1164053348652,487237,1832,2949.102620124817,40.442447662353516,-40.904911041259766,7.2099609375,0.71,40.40618133544922,40.27797317504883,0.7838921546936035
486,MetaDrive-Tut-5Env-v0,165,304.2303962176302,488395,1835,2956.398102045059,39.463157653808594,-39.856224060058594,9.107656478881836,0.71,40.03469467163086,40.03482437133789,0.837913990020752
487,MetaDrive-Tut-5Env-v0,165,303.67633710955613,489161,1837,2961.130234003067,37.291194915771484,-38.21977233886719,10.38111400604248,0.71,36.0700798034668,36.54096221923828,0.7417998313903809
488,MetaDrive-Tut-5Env-v0,165,306.40343006380107,490156,1839,2967.284061908722,40.68912124633789,,6.7161149978637695,0.72,39.667396545410156,41.202247619628906,0.7658475637435913
489,MetaDrive-Tut-5Env-v0,165,306.83077651257173,491241,1842,2973.8951699733734,40.685516357421875,-40.27418518066406,8.728408813476562,0.72,41.049007415771484,41.763187408447266,0.8385829925537109
490,MetaDrive-Tut-5Env-v0,165,303.6465578138226,492290,1846,2980.071870803833,39.11217498779297,,14.48086166381836,0.73,37.58642578125,38.55998611450195,0.8020201325416565
491,MetaDrive-Tut-5Env-v0,165,305.08186127435414,493077,1848,2984.862258195877,39.348445892333984,-38.659950256347656,10.652615547180176,0.74,38.74064254760742,39.3927116394043,0.8489350080490112
492,MetaDrive-Tut-5Env-v0,165,307.6660215914838,494198,1851,2991.6031999588013,41.018131256103516,,29.105762481689453,0.75,41.72785949707031,41.90935516357422,0.8559861779212952
493,MetaDrive-Tut-5Env-v0,165,308.06870514249323,495197,1853,2997.766571998596,40.498756408691406,-40.76655578613281,8.467405319213867,0.75,41.29747009277344,41.24326705932617,0.7701870203018188
494,MetaDrive-Tut-5Env-v0,165,308.87964824582,496059,1856,3003.033650159836,40.1458854675293,-40.54841995239258,12.334019660949707,0.76,40.070167541503906,40.63560485839844,0.7547867298126221
495,MetaDrive-Tut-5Env-v0,165,309.15300560546785,497116,1859,3009.4191768169403,42.43574523925781,,11.860160827636719,0.76,42.591983795166016,41.870113372802734,0.7769573926925659
496,MetaDrive-Tut-5Env-v0,165,309.2955910508975,498320,1862,3016.8622708320618,38.29576873779297,,8.43037223815918,0.77,38.16184616088867,37.93033218383789,0.8224545121192932
497,MetaDrive-Tut-5Env-v0,165,305.9906811571185,499202,1865,3022.3714859485626,40.38851547241211,,17.81558609008789,0.76,40.46649169921875,40.275691986083984,0.7324422001838684
