cjunkin/reinforcement-learning/metaracer/data/td3_agent_single_v5/td3/progress.csv
,log_dir,frame_per_second,episode_reward,total_steps,total_episodes,total_time,target_q,actor_loss,critic_loss,success_rate,current_q1,current_q2,reward
0,/Users/cjpark/Desktop/ucla_courses/cs260r/assignment4/data/td3_agent_single_v5/td3,1258,-569.6709976196289,2999,1,2.3828070163726807,,,,0.0,,,
1,/Users/cjpark/Desktop/ucla_courses/cs260r/assignment4/data/td3_agent_single_v5/td3,1288,-896.6925573348999,5999,2,4.6565330028533936,,,,0.0,,,
2,/Users/cjpark/Desktop/ucla_courses/cs260r/assignment4/data/td3_agent_single_v5/td3,1300,-1422.0553878148396,8999,3,6.91860032081604,,,,0.0,,,
3,/Users/cjpark/Desktop/ucla_courses/cs260r/assignment4/data/td3_agent_single_v5/td3,562,-12350.071941614151,11999,4,21.314795970916748,-9.798381805419922,9.87904167175293,69.90168762207031,0.0,-10.264060974121094,-10.356386184692383,-3.702972412109375
4,/Users/cjpark/Desktop/ucla_courses/cs260r/assignment4/data/td3_agent_single_v5/td3,353,-19410.069984054564,14999,5,42.46821403503418,-45.42425537109375,43.9056510925293,266.93243408203125,0.0,-45.46539306640625,-45.481422424316406,-7.805349826812744
5,/Users/cjpark/Desktop/ucla_courses/cs260r/assignment4/data/td3_agent_single_v5/td3,338,-16175.166273752848,15405,6,45.50562000274658,-41.25083923339844,39.07233428955078,211.0046844482422,0.0,-40.36279296875,-40.81635284423828,-7.023945331573486
6,/Users/cjpark/Desktop/ucla_courses/cs260r/assignment4/data/td3_agent_single_v5/td3,291,-13864.410430771964,17803,7,61.01300501823425,-51.28343200683594,49.39276885986328,222.88522338867188,0.0,-50.161033630371094,-50.15362548828125,-5.461910247802734
7,/Users/cjpark/Desktop/ucla_courses/cs260r/assignment4/data/td3_agent_single_v5/td3,276,-12131.363247275352,18887,8,68.30513501167297,-56.500736236572266,53.636756896972656,191.43663024902344,0.0,-54.84883499145508,-55.05094909667969,-5.073449611663818
8,/Users/cjpark/Desktop/ucla_courses/cs260r/assignment4/data/td3_agent_single_v5/td3,273,-10783.442722320557,19131,9,70.0075581073761,-70.28298950195312,68.74256896972656,143.63531494140625,0.0,-70.06602478027344,-70.71171569824219,-5.265735149383545
9,/Users/cjpark/Desktop/ucla_courses/cs260r/assignment4/data/td3_agent_single_v5/td3,258,-9706.494188213348,20672,10,79.91663002967834,-53.90194320678711,,298.4571533203125,0.0,-55.128360748291016,-54.76111602783203,-3.707442045211792
10,/Users/cjpark/Desktop/ucla_courses/cs260r/assignment4/data/td3_agent_single_v5/td3,238,-8822.436729344454,23672,11,99.31901788711548,-92.00459289550781,,268.1125793457031,0.0,-89.9769287109375,-89.75850677490234,-4.097349166870117
11,/Users/cjpark/Desktop/ucla_courses/cs260r/assignment4/data/td3_agent_single_v5/td3,223,-10687.087975978851,26672,12,119.5368721485138,-81.5909194946289,,273.9330139160156,0.0,-81.18116760253906,-80.98393249511719,-3.9036099910736084
12,/Users/cjpark/Desktop/ucla_courses/cs260r/assignment4/data/td3_agent_single_v5/td3,213,-10703.187463540296,29672,13,139.0712571144104,-122.68718719482422,,348.7786865234375,0.0,-121.87955474853516,-122.42320251464844,-5.666694164276123
13,/Users/cjpark/Desktop/ucla_courses/cs260r/assignment4/data/td3_agent_single_v5/td3,206,-9937.747656345367,32672,14,158.5754930973053,-107.8724594116211,,3752.544189453125,0.0,-105.24139404296875,-104.75079345703125,-5.678635597229004
14,/Users/cjpark/Desktop/ucla_courses/cs260r/assignment4/data/td3_agent_single_v5/td3,200,-9274.276992797852,35672,15,178.25426197052002,-118.07199096679688,,280.81689453125,0.0,-116.58294677734375,-116.35502624511719,-3.7076127529144287
15,/Users/cjpark/Desktop/ucla_courses/cs260r/assignment4/data/td3_agent_single_v5/td3,195,-8693.654412269592,38672,16,197.49057817459106,-90.60087585449219,,302.1356201171875,0.0,-92.30970001220703,-92.68077850341797,-2.5342321395874023
16,/Users/cjpark/Desktop/ucla_courses/cs260r/assignment4/data/td3_agent_single_v5/td3,191,-8182.8112489475925,41672,17,218.00112199783325,-110.3178482055664,,300.5347595214844,0.0,-109.82268524169922,-108.97605895996094,-2.9254400730133057
17,/Users/cjpark/Desktop/ucla_courses/cs260r/assignment4/data/td3_agent_single_v5/td3,187,-7728.555197238922,44672,18,237.8397171497345,-138.9927520751953,,333.9088134765625,0.0,-137.6255645751953,-137.55108642578125,-3.5111210346221924
18,/Users/cjpark/Desktop/ucla_courses/cs260r/assignment4/data/td3_agent_single_v5/td3,185,-7321.584469694841,47672,19,256.838406085968,-98.82563781738281,,188.73611450195312,0.0,-98.76207733154297,-98.00487518310547,-2.7303054332733154
19,/Users/cjpark/Desktop/ucla_courses/cs260r/assignment4/data/td3_agent_single_v5/td3,183,-6955.857469248772,50672,20,276.0944330692291,-116.83851623535156,,246.73257446289062,0.0,-115.20501708984375,-115.47570037841797,-3.512603521347046
20,/Users/cjpark/Desktop/ucla_courses/cs260r/assignment4/data/td3_agent_single_v5/td3,180,-6624.879463763464,53672,21,296.5509419441223,-92.91494750976562,,249.95545959472656,0.0,-91.29432678222656,-92.1400146484375,-2.146808624267578
21,/Users/cjpark/Desktop/ucla_courses/cs260r/assignment4/data/td3_agent_single_v5/td3,178,-6323.908926551992,56672,22,317.5112361907959,-110.97366333007812,,215.68682861328125,0.0,-112.740478515625,-113.0141830444336,-2.927794933319092
22,/Users/cjpark/Desktop/ucla_courses/cs260r/assignment4/data/td3_agent_single_v5/td3,177,-6049.194365024567,59672,23,336.9579830169678,-88.53697204589844,,127.5202865600586,0.0,-87.99757385253906,-86.84507751464844,-2.734143018722534
23,/Users/cjpark/Desktop/ucla_courses/cs260r/assignment4/data/td3_agent_single_v5/td3,175,-5797.251029034455,62672,24,356.31453108787537,-93.48494720458984,,206.34083557128906,0.0,-94.72749328613281,-93.9233169555664,-1.7556650638580322
24,/Users/cjpark/Desktop/ucla_courses/cs260r/assignment4/data/td3_agent_single_v5/td3,174,-5565.752418823242,65672,25,377.15182304382324,-98.51370239257812,,256.9086608886719,0.0,-98.01908874511719,-98.38858032226562,-2.144803047180176
25,/Users/cjpark/Desktop/ucla_courses/cs260r/assignment4/data/td3_agent_single_v5/td3,172,-5352.021419543486,68672,26,397.14879417419434,-105.46692657470703,,117.79121398925781,0.0,-104.45721435546875,-104.85614776611328,-1.3646982908248901
26,/Users/cjpark/Desktop/ucla_courses/cs260r/assignment4/data/td3_agent_single_v5/td3,171,-5154.073909123738,71672,27,417.1638379096985,-91.3028564453125,,396.32855224609375,0.0,-93.24954986572266,-93.08329010009766,-2.7348031997680664
27,/Users/cjpark/Desktop/ucla_courses/cs260r/assignment4/data/td3_agent_single_v5/td3,170,-4970.26540356023,74672,28,437.1748311519623,-94.33448791503906,,217.9077606201172,0.0,-95.93701171875,-97.6565933227539,-1.9517676830291748
28,/Users/cjpark/Desktop/ucla_courses/cs260r/assignment4/data/td3_agent_single_v5/td3,169,-5061.148546038003,77672,29,457.65821623802185,-111.14895629882812,,230.57522583007812,0.0,-110.24494171142578,-109.34644317626953,-2.1474621295928955
29,/Users/cjpark/Desktop/ucla_courses/cs260r/assignment4/data/td3_agent_single_v5/td3,168,-4892.585725227992,80672,30,477.5660889148712,-122.34559631347656,,236.71530151367188,0.0,-122.32820129394531,-119.61906433105469,-1.9534074068069458
30,/Users/cjpark/Desktop/ucla_courses/cs260r/assignment4/data/td3_agent_single_v5/td3,168,-4735.084765603466,83672,31,497.8874742984772,-124.04125213623047,,153.6881866455078,0.0,-126.6841049194336,-125.68899536132812,-0.974159836769104
31,/Users/cjpark/Desktop/ucla_courses/cs260r/assignment4/data/td3_agent_single_v5/td3,167,-4587.326635494828,86672,32,517.4911751747131,-120.81558227539062,,159.70245361328125,0.0,-120.24979400634766,-120.90678405761719,-2.148710250854492
32,/Users/cjpark/Desktop/ucla_courses/cs260r/assignment4/data/td3_agent_single_v5/td3,167,-4448.458792440819,89672,33,536.8943521976471,-99.71656036376953,,73.04446411132812,0.0,-100.96566009521484,-100.86650085449219,-1.3666691780090332
33,/Users/cjpark/Desktop/ucla_courses/cs260r/assignment4/data/td3_agent_single_v5/td3,166,-4317.787495571024,92672,34,556.2843151092529,-122.44098663330078,,157.47738647460938,0.0,-122.47589874267578,-122.97454071044922,-1.7575627565383911
34,/Users/cjpark/Desktop/ucla_courses/cs260r/assignment4/data/td3_agent_single_v5/td3,166,-4471.767916434152,95672,35,575.0027000904083,-145.43263244628906,,207.23399353027344,0.0,-144.83740234375,-143.97328186035156,-2.1468260288238525
35,/Users/cjpark/Desktop/ucla_courses/cs260r/assignment4/data/td3_agent_single_v5/td3,165,-4347.833816581302,98672,36,595.9352550506592,-113.85587310791016,,151.66586303710938,0.0,-114.55236053466797,-113.56106567382812,-1.756989598274231
