cjunkin/reinforcement-learning/metaracer/data/td3_agent_single_v8/td3/progress.csv
,log_dir,frame_per_second,episode_reward,total_steps,total_episodes,total_time,target_q,actor_loss,critic_loss,success_rate,current_q1,current_q2,reward
0,/Users/cjpark/Desktop/ucla_courses/cs260r/assignment4/data/td3_agent_single_v8/td3,1348,-4822.86580657959,2999,1,2.2241051197052,,,,0.0,,,
1,/Users/cjpark/Desktop/ucla_courses/cs260r/assignment4/data/td3_agent_single_v8/td3,1341,-2397.351138114929,5999,2,4.4729650020599365,,,,0.0,,,
2,/Users/cjpark/Desktop/ucla_courses/cs260r/assignment4/data/td3_agent_single_v8/td3,1327,-3638.5536600748696,8999,3,6.780523061752319,,,,0.0,,,
3,/Users/cjpark/Desktop/ucla_courses/cs260r/assignment4/data/td3_agent_single_v8/td3,642,-9575.115903615952,11415,4,17.773530960083008,-9.0512056350708,5.251402378082275,255.49404907226562,0.0,-8.42646312713623,-8.524880409240723,-4.094641208648682
4,/Users/cjpark/Desktop/ucla_courses/cs260r/assignment4/data/td3_agent_single_v8/td3,377,-10550.097907066345,14415,5,38.13522481918335,-7.852865695953369,6.280338764190674,155.3448944091797,0.0,-8.247986793518066,-7.905547618865967,-2.727339029312134
5,/Users/cjpark/Desktop/ucla_courses/cs260r/assignment4/data/td3_agent_single_v8/td3,297,-11225.088056723276,17415,6,58.45816516876221,-31.03364372253418,28.03910255432129,245.79586791992188,0.0,-29.56528091430664,-29.694169998168945,-5.072235584259033
6,/Users/cjpark/Desktop/ucla_courses/cs260r/assignment4/data/td3_agent_single_v8/td3,256,-11728.08196231297,20415,7,79.48751020431519,-59.42082977294922,56.71098327636719,236.04095458984375,0.0,-60.7253303527832,-60.943206787109375,-4.096419811248779
7,/Users/cjpark/Desktop/ucla_courses/cs260r/assignment4/data/td3_agent_single_v8/td3,233,-11313.384803593159,23415,8,100.2839298248291,-51.79057693481445,48.67901611328125,210.66165161132812,0.0,-51.25129318237305,-51.345977783203125,-3.5108296871185303
8,/Users/cjpark/Desktop/ucla_courses/cs260r/assignment4/data/td3_agent_single_v8/td3,218,-10057.599655310312,26415,9,120.89351415634155,-45.70064926147461,43.602962493896484,196.373779296875,0.0,-45.71607208251953,-44.87793731689453,-3.5116512775421143
9,/Users/cjpark/Desktop/ucla_courses/cs260r/assignment4/data/td3_agent_single_v8/td3,207,-12362.19642033577,29415,10,141.6422140598297,-66.9734115600586,64.33540344238281,249.97976684570312,0.0,-67.01671600341797,-67.56216430664062,-5.075939178466797
10,/Users/cjpark/Desktop/ucla_courses/cs260r/assignment4/data/td3_agent_single_v8/td3,199,-11239.26016738198,32415,11,162.70961213111877,-58.35768127441406,55.413719177246094,278.3758239746094,0.0,-57.00198745727539,-56.614498138427734,-3.513599157333374
11,/Users/cjpark/Desktop/ucla_courses/cs260r/assignment4/data/td3_agent_single_v8/td3,192,-10303.51582288742,35415,12,184.04193687438965,-94.94414520263672,91.67771911621094,324.0711669921875,0.0,-93.90509796142578,-94.35227966308594,-4.490004062652588
12,/Users/cjpark/Desktop/ucla_courses/cs260r/assignment4/data/td3_agent_single_v8/td3,186,-9511.677557688494,38415,13,205.71342706680298,-62.10462188720703,57.576316833496094,228.83187866210938,0.0,-60.49012756347656,-60.76181411743164,-3.710294246673584
13,/Users/cjpark/Desktop/ucla_courses/cs260r/assignment4/data/td3_agent_single_v8/td3,182,-8833.008358308247,41415,14,226.78368997573853,-79.314697265625,75.89730834960938,178.76266479492188,0.0,-78.26646423339844,-78.52046203613281,-3.5143635272979736
14,/Users/cjpark/Desktop/ucla_courses/cs260r/assignment4/data/td3_agent_single_v8/td3,179,-8244.779039478302,44415,15,247.34104990959167,-70.11299896240234,67.64769744873047,180.68209838867188,0.0,-70.5665054321289,-70.69612121582031,-1.7569167613983154
15,/Users/cjpark/Desktop/ucla_courses/cs260r/assignment4/data/td3_agent_single_v8/td3,177,-7730.109434872866,47415,16,267.73085021972656,-57.24187469482422,53.94903564453125,155.96807861328125,0.0,-55.95872116088867,-56.142173767089844,-2.538893938064575
16,/Users/cjpark/Desktop/ucla_courses/cs260r/assignment4/data/td3_agent_single_v8/td3,174,-7276.08195588168,50415,17,288.35374188423157,-69.10929870605469,65.44345092773438,280.0550537109375,0.0,-68.66090393066406,-67.5550765991211,-3.513868808746338
17,/Users/cjpark/Desktop/ucla_courses/cs260r/assignment4/data/td3_agent_single_v8/td3,172,-6872.47928041882,53415,18,309.0944221019745,-47.22071838378906,44.756778717041016,208.6393280029297,0.0,-46.87615203857422,-47.48583984375,-2.1476290225982666
18,/Users/cjpark/Desktop/ucla_courses/cs260r/assignment4/data/td3_agent_single_v8/td3,170,-6511.291506478661,56415,19,330.3213541507721,-45.36495590209961,43.7601318359375,239.16372680664062,0.0,-45.879638671875,-45.482879638671875,-1.5634291172027588
19,/Users/cjpark/Desktop/ucla_courses/cs260r/assignment4/data/td3_agent_single_v8/td3,169,-6186.223659789563,59415,20,351.05378794670105,-41.36096954345703,39.29525375366211,132.85926818847656,0.0,-42.33025360107422,-41.272525787353516,-1.954214096069336
20,/Users/cjpark/Desktop/ucla_courses/cs260r/assignment4/data/td3_agent_single_v8/td3,167,-5892.076359714781,62415,21,371.7570140361786,-51.573421478271484,50.05571365356445,83.58171081542969,0.0,-52.80125045776367,-52.106197357177734,-0.9767512679100037
21,/Users/cjpark/Desktop/ucla_courses/cs260r/assignment4/data/td3_agent_single_v8/td3,166,-5624.676039208065,65415,22,392.01622200012207,-38.385555267333984,36.420528411865234,152.63079833984375,0.0,-38.44369125366211,-37.02585983276367,-2.3448832035064697
22,/Users/cjpark/Desktop/ucla_courses/cs260r/assignment4/data/td3_agent_single_v8/td3,165,-5380.53917802935,68415,23,412.54116106033325,-50.207237243652344,47.8178825378418,118.64417266845703,0.0,-49.95000076293945,-51.45402908325195,-1.5628825426101685
23,/Users/cjpark/Desktop/ucla_courses/cs260r/assignment4/data/td3_agent_single_v8/td3,164,-5156.771259844303,71415,24,432.8869159221649,-53.41297149658203,51.416351318359375,75.88082885742188,0.0,-54.51258850097656,-55.032379150390625,-1.1722412109375
24,/Users/cjpark/Desktop/ucla_courses/cs260r/assignment4/data/td3_agent_single_v8/td3,164,-4950.902089767456,74415,25,453.2355079650879,-38.718048095703125,37.44252395629883,90.738525390625,0.0,-39.67723083496094,-38.333763122558594,-1.1729665994644165
25,/Users/cjpark/Desktop/ucla_courses/cs260r/assignment4/data/td3_agent_single_v8/td3,163,-4760.899525559866,77415,26,474.14079904556274,-36.21204376220703,34.822628021240234,84.55415344238281,0.0,-36.748016357421875,-37.296592712402344,-1.7591301202774048
26,/Users/cjpark/Desktop/ucla_courses/cs260r/assignment4/data/td3_agent_single_v8/td3,162,-4584.959808570367,80415,27,495.957759141922,-24.26857566833496,23.169248580932617,69.53655242919922,0.0,-24.81089210510254,-24.346750259399414,-0.3916970491409302
27,/Users/cjpark/Desktop/ucla_courses/cs260r/assignment4/data/td3_agent_single_v8/td3,161,-4421.5616427234245,83415,28,517.2803630828857,-36.88434600830078,34.144893646240234,101.6433334350586,0.0,-35.96077346801758,-37.1821403503418,-1.954258918762207
28,/Users/cjpark/Desktop/ucla_courses/cs260r/assignment4/data/td3_agent_single_v8/td3,160,-4269.3176656015985,86415,29,538.7404420375824,-23.30183982849121,21.425533294677734,77.97138977050781,0.0,-22.520828247070312,-23.093006134033203,-0.5870345234870911
29,/Users/cjpark/Desktop/ucla_courses/cs260r/assignment4/data/td3_agent_single_v8/td3,159,-4127.219871369997,89415,30,559.9558401107788,-36.17155075073242,34.328773498535156,65.61213684082031,0.0,-36.63928985595703,-35.900997161865234,-0.9784051179885864
30,/Users/cjpark/Desktop/ucla_courses/cs260r/assignment4/data/td3_agent_single_v8/td3,159,-3994.2189926716587,92415,31,581.0050909519196,-38.4818000793457,35.98501968383789,69.36334228515625,0.0,-38.31009292602539,-37.94886016845703,-1.5633918046951294
31,/Users/cjpark/Desktop/ucla_courses/cs260r/assignment4/data/td3_agent_single_v8/td3,158,-3869.5513882413507,95415,32,601.753231048584,-36.793540954589844,36.27140808105469,163.09661865234375,0.0,-37.34565734863281,-35.98500442504883,-0.7824466824531555
32,/Users/cjpark/Desktop/ucla_courses/cs260r/assignment4/data/td3_agent_single_v8/td3,158,-3752.4375678625975,98415,33,622.340546131134,-36.61729049682617,35.21213150024414,60.122581481933594,0.0,-37.32427215576172,-37.291419982910156,-0.7831630110740662
33,/Users/cjpark/Desktop/ucla_courses/cs260r/assignment4/data/td3_agent_single_v8/td3,157,-3642.221449129722,101415,34,642.9324119091034,-33.49203109741211,31.217166900634766,211.99261474609375,0.0,-33.116336822509766,-33.264793395996094,-0.9777654409408569
34,/Users/cjpark/Desktop/ucla_courses/cs260r/assignment4/data/td3_agent_single_v8/td3,157,-3538.3212929930005,104415,35,663.2488379478455,-37.4888801574707,34.50694274902344,97.89518737792969,0.0,-35.7313117980957,-36.15480422973633,-1.7591792345046997
35,/Users/cjpark/Desktop/ucla_courses/cs260r/assignment4/data/td3_agent_single_v8/td3,157,-3440.2269553542137,107415,36,683.4999828338623,-42.477699279785156,39.35560607910156,132.35072326660156,0.0,-40.78968048095703,-40.94868087768555,-1.1735332012176514
36,/Users/cjpark/Desktop/ucla_courses/cs260r/assignment4/data/td3_agent_single_v8/td3,156,-3347.4702037411766,110415,37,704.46080493927,-37.4216194152832,35.99089813232422,71.41290283203125,0.0,-37.60611343383789,-37.64401626586914,-0.7819040417671204
37,/Users/cjpark/Desktop/ucla_courses/cs260r/assignment4/data/td3_agent_single_v8/td3,156,-3259.5127384599887,113415,38,725.411602973938,-42.60987091064453,40.27443313598633,125.41797637939453,0.0,-41.402488708496094,-40.697296142578125,-1.5629768371582031
38,/Users/cjpark/Desktop/ucla_courses/cs260r/assignment4/data/td3_agent_single_v8/td3,156,-3176.070786323303,116415,39,746.1099898815155,-32.736480712890625,32.94071578979492,57.808258056640625,0.0,-34.85437774658203,-33.070472717285156,-0.7830498218536377
39,/Users/cjpark/Desktop/ucla_courses/cs260r/assignment4/data/td3_agent_single_v8/td3,155,-3096.818624919653,119415,40,768.1915900707245,-58.631805419921875,55.48302459716797,812.369140625,0.0,-56.5728759765625,-56.497718811035156,-1.7589194774627686
40,/Users/cjpark/Desktop/ucla_courses/cs260r/assignment4/data/td3_agent_single_v8/td3,155,-3021.4294562863142,122415,41,789.0775980949402,-40.78349304199219,38.6828498840332,210.50091552734375,0.0,-39.771419525146484,-39.895957946777344,-1.1731345653533936
41,/Users/cjpark/Desktop/ucla_courses/cs260r/assignment4/data/td3_agent_single_v8/td3,154,-2949.603800631705,125415,42,809.5621409416199,-35.5035400390625,34.41722869873047,46.519290924072266,0.0,-35.1666259765625,-35.992759704589844,-0.5876384973526001
42,/Users/cjpark/Desktop/ucla_courses/cs260r/assignment4/data/td3_agent_single_v8/td3,154,-2881.1144495176713,128415,43,830.3391010761261,-27.763906478881836,27.203020095825195,34.44398498535156,0.0,-28.593463897705078,-28.555803298950195,-0.19661962985992432
43,/Users/cjpark/Desktop/ucla_courses/cs260r/assignment4/data/td3_agent_single_v8/td3,154,-2815.764727652073,131415,44,851.3999490737915,-40.319007873535156,39.66279220581055,48.024375915527344,0.0,-40.938411712646484,-39.53165817260742,-0.7828978300094604
44,/Users/cjpark/Desktop/ucla_courses/cs260r/assignment4/data/td3_agent_single_v8/td3,154,-2753.287729385164,134415,45,872.0694780349731,-35.459068298339844,33.317657470703125,61.03643798828125,0.0,-34.912574768066406,-36.88021469116211,-1.1731394529342651
45,/Users/cjpark/Desktop/ucla_courses/cs260r/assignment4/data/td3_agent_single_v8/td3,153,-2693.5245724294496,137415,46,892.485270023346,-24.94741439819336,24.046552658081055,71.70751953125,0.0,-24.949115753173828,-24.560949325561523,-0.001217622309923172
46,/Users/cjpark/Desktop/ucla_courses/cs260r/assignment4/data/td3_agent_single_v8/td3,153,-2636.2971634509718,140415,47,914.1983389854431,-41.92435836791992,40.590354919433594,65.444091796875,0.0,-41.1972541809082,-40.27019500732422,-0.9782260060310364
47,/Users/cjpark/Desktop/ucla_courses/cs260r/assignment4/data/td3_agent_single_v8/td3,153,-2581.4448207765818,143415,48,935.2570991516113,-35.32725524902344,33.72282409667969,44.0657958984375,0.0,-35.382503509521484,-35.98991012573242,-0.7826045751571655
48,/Users/cjpark/Desktop/ucla_courses/cs260r/assignment4/data/td3_agent_single_v8/td3,153,-2528.836882625307,146415,49,956.2916250228882,-24.81365966796875,24.365520477294922,36.40007781982422,0.0,-24.93027687072754,-24.793296813964844,-0.3923831284046173
49,/Users/cjpark/Desktop/ucla_courses/cs260r/assignment4/data/td3_agent_single_v8/td3,152,-2477.3436485052107,149415,50,977.2732889652252,-36.01190185546875,33.812652587890625,49.87018585205078,0.0,-35.420475006103516,-35.57973861694336,-1.5635722875595093
50,/Users/cjpark/Desktop/ucla_courses/cs260r/assignment4/data/td3_agent_single_v8/td3,152,-2480.5185385451596,151725,51,993.7789211273193,-39.53443145751953,38.135345458984375,62.50128173828125,0.0,-40.816436767578125,-39.972877502441406,-1.1723337173461914
51,/Users/cjpark/Desktop/ucla_courses/cs260r/assignment4/data/td3_agent_single_v8/td3,152,-2432.3771444788345,154725,52,1014.579507112503,-56.23027038574219,53.96165466308594,95.60297393798828,0.0,-55.067203521728516,-54.98769760131836,-1.758463740348816
52,/Users/cjpark/Desktop/ucla_courses/cs260r/assignment4/data/td3_agent_single_v8/td3,152,-2461.585302312419,157725,53,1035.4181241989136,-57.908729553222656,55.692081451416016,60.24097442626953,0.0,-57.80751037597656,-57.89427947998047,-1.3680956363677979
53,/Users/cjpark/Desktop/ucla_courses/cs260r/assignment4/data/td3_agent_single_v8/td3,152,-2416.0970260787894,160725,54,1056.5979580879211,-48.59461212158203,46.31803512573242,39.25363540649414,0.0,-48.41120910644531,-47.9873161315918,-0.9757633805274963
54,/Users/cjpark/Desktop/ucla_courses/cs260r/assignment4/data/td3_agent_single_v8/td3,151,-2372.170766999505,163725,55,1077.39244389534,-50.25670623779297,50.018409729003906,36.7339973449707,0.0,-51.018428802490234,-49.69921112060547,-0.3904607594013214
55,/Users/cjpark/Desktop/ucla_courses/cs260r/assignment4/data/td3_agent_single_v8/td3,150,-2329.9051883348397,166725,56,1109.934319972992,-27.806161880493164,26.74274444580078,15.120402336120605,0.0,-27.994428634643555,-28.431955337524414,-0.0008619679138064384
56,/Users/cjpark/Desktop/ucla_courses/cs260r/assignment4/data/td3_agent_single_v8/td3,149,-2289.1249495347342,169725,57,1132.0766010284424,-29.750160217285156,29.745723724365234,18.133800506591797,0.0,-29.977523803710938,-29.177486419677734,-0.39226794242858887
57,/Users/cjpark/Desktop/ucla_courses/cs260r/assignment4/data/td3_agent_single_v8/td3,149,-2249.6827455347984,172725,58,1152.5908789634705,-29.63237762451172,29.362079620361328,22.26761245727539,0.0,-30.121143341064453,-31.406837463378906,-0.001435454934835434
58,/Users/cjpark/Desktop/ucla_courses/cs260r/assignment4/data/td3_agent_single_v8/td3,149,-2211.5662422463047,175725,59,1173.6294448375702,-35.74309158325195,33.676753997802734,71.13470458984375,0.0,-35.15523910522461,-35.146671295166016,-1.5644549131393433
59,/Users/cjpark/Desktop/ucla_courses/cs260r/assignment4/data/td3_agent_single_v8/td3,149,-2174.7565106829006,178725,60,1194.630192041397,-38.1703987121582,37.28585433959961,34.946044921875,0.0,-37.606868743896484,-37.296836853027344,-0.584437906742096
60,/Users/cjpark/Desktop/ucla_courses/cs260r/assignment4/data/td3_agent_single_v8/td3,149,-2139.211253115388,181725,61,1217.4484128952026,-37.6995964050293,36.7335090637207,44.126487731933594,0.0,-37.21937561035156,-36.54543685913086,-0.5841733813285828
61,/Users/cjpark/Desktop/ucla_courses/cs260r/assignment4/data/td3_agent_single_v8/td3,149,-2104.810321311797,184725,62,1238.0684580802917,-35.89898681640625,34.732852935791016,38.134307861328125,0.0,-35.66741180419922,-36.57555389404297,-0.5861536264419556
62,/Users/cjpark/Desktop/ucla_courses/cs260r/assignment4/data/td3_agent_single_v8/td3,149,-2071.3241814318158,187725,63,1258.1684210300446,-41.51272964477539,40.19124221801758,42.1180305480957,0.0,-41.004486083984375,-41.519927978515625,-0.7815790772438049
63,/Users/cjpark/Desktop/ucla_courses/cs260r/assignment4/data/td3_agent_single_v8/td3,149,-2038.909484025091,190725,64,1278.797622203827,-42.867671966552734,41.13671875,36.7236328125,0.0,-42.3974723815918,-43.14194107055664,-0.9776980876922607
64,/Users/cjpark/Desktop/ucla_courses/cs260r/assignment4/data/td3_agent_single_v8/td3,148,-2007.4797922684595,193725,65,1300.281410932541,-34.15375518798828,32.937713623046875,28.725034713745117,0.0,-33.845237731933594,-34.37541961669922,-0.3914291560649872
65,/Users/cjpark/Desktop/ucla_courses/cs260r/assignment4/data/td3_agent_single_v8/td3,148,-1977.0437947872913,196725,66,1321.1876318454742,-35.2895622253418,35.12731170654297,16.67233657836914,0.0,-36.04030227661133,-35.135108947753906,-0.00017563626170158386
66,/Users/cjpark/Desktop/ucla_courses/cs260r/assignment4/data/td3_agent_single_v8/td3,148,-1947.5057808285328,199725,67,1341.9176080226898,-40.26095199584961,39.27241516113281,46.73215103149414,0.0,-39.762325286865234,-39.94331741333008,-0.7816233038902283
67,/Users/cjpark/Desktop/ucla_courses/cs260r/assignment4/data/td3_agent_single_v8/td3,148,-1918.8096821273075,202725,68,1362.8393349647522,-35.14527130126953,32.887054443359375,34.895408630371094,0.0,-34.34598922729492,-35.32722473144531,-0.5870237350463867
68,/Users/cjpark/Desktop/ucla_courses/cs260r/assignment4/data/td3_agent_single_v8/td3,148,-1890.9586177874303,205725,69,1383.636873960495,-42.77350997924805,40.475040435791016,101.60751342773438,0.0,-41.59147644042969,-42.35028839111328,-1.5628036260604858
69,/Users/cjpark/Desktop/ucla_courses/cs260r/assignment4/data/td3_agent_single_v8/td3,148,-1863.9158795867647,208725,70,1404.707640171051,-32.76461410522461,31.931928634643555,28.45547103881836,0.0,-33.0311164855957,-33.30562973022461,-0.586558997631073
70,/Users/cjpark/Desktop/ucla_courses/cs260r/assignment4/data/td3_agent_single_v8/td3,148,-1839.0242892621268,211725,71,1425.498477935791,-43.51969528198242,41.68632507324219,233.42681884765625,0.0,-44.50294876098633,-45.00871658325195,-0.7817413210868835
71,/Users/cjpark/Desktop/ucla_courses/cs260r/assignment4/data/td3_agent_single_v8/td3,148,-1813.4354388680722,214725,72,1446.6644959449768,-30.70254898071289,30.051712036132812,25.362163543701172,0.0,-30.896820068359375,-30.75465202331543,-0.3916594386100769
72,/Users/cjpark/Desktop/ucla_courses/cs260r/assignment4/data/td3_agent_single_v8/td3,148,-1817.2937732690002,217725,73,1467.9366481304169,-36.94062805175781,35.95607376098633,56.51280212402344,0.0,-37.579978942871094,-36.62627029418945,-0.5868099927902222
73,/Users/cjpark/Desktop/ucla_courses/cs260r/assignment4/data/td3_agent_single_v8/td3,148,-1792.7361857923302,220725,74,1491.088061094284,-40.321388244628906,39.990230560302734,57.26063537597656,0.0,-41.33643341064453,-41.508968353271484,-0.7813043594360352
74,/Users/cjpark/Desktop/ucla_courses/cs260r/assignment4/data/td3_agent_single_v8/td3,147,-1768.8512097771963,223725,75,1511.6915321350098,-30.995014190673828,29.591514587402344,33.01276779174805,0.0,-30.438730239868164,-32.04911422729492,-0.7810549139976501
75,/Users/cjpark/Desktop/ucla_courses/cs260r/assignment4/data/td3_agent_single_v8/td3,147,-1745.5840373384326,226725,76,1532.3815960884094,-33.76423645019531,33.712398529052734,20.51983642578125,0.0,-34.80039978027344,-34.16273498535156,-0.19532616436481476
76,/Users/cjpark/Desktop/ucla_courses/cs260r/assignment4/data/td3_agent_single_v8/td3,147,-1722.9215865042302,229725,77,1552.9989919662476,-29.384403228759766,29.188875198364258,43.30408477783203,0.0,-29.588134765625,-28.803630828857422,-0.5863338112831116
77,/Users/cjpark/Desktop/ucla_courses/cs260r/assignment4/data/td3_agent_single_v8/td3,147,-1700.8417294789583,232725,78,1573.4121689796448,-39.01884078979492,37.52873229980469,48.41132354736328,0.0,-38.4934196472168,-37.88898468017578,-1.5633865594863892
78,/Users/cjpark/Desktop/ucla_courses/cs260r/assignment4/data/td3_agent_single_v8/td3,147,-1679.3067356393308,235725,79,1594.3761758804321,-33.30278778076172,31.37055778503418,130.67681884765625,0.0,-32.80329513549805,-33.940956115722656,-0.5863956212997437
79,/Users/cjpark/Desktop/ucla_courses/cs260r/assignment4/data/td3_agent_single_v8/td3,148,-1658.3638234347104,238725,80,1612.235181093216,-33.32853698730469,32.410621643066406,41.273681640625,0.0,-32.92556381225586,-33.693931579589844,-0.3918474614620209
80,/Users/cjpark/Desktop/ucla_courses/cs260r/assignment4/data/td3_agent_single_v8/td3,148,-1637.931213564343,241725,81,1630.1180679798126,-33.367977142333984,32.259010314941406,41.81646728515625,0.0,-33.45115280151367,-33.33629608154297,-0.7813430428504944
81,/Users/cjpark/Desktop/ucla_courses/cs260r/assignment4/data/td3_agent_single_v8/td3,148,-1995.4153218938084,244725,82,1647.748363018036,-42.11140441894531,40.52346420288086,46.159088134765625,0.0,-43.006591796875,-42.9937744140625,-0.19554688036441803
82,/Users/cjpark/Desktop/ucla_courses/cs260r/assignment4/data/td3_agent_single_v8/td3,148,-1971.4384971727807,247725,83,1665.5276281833649,-30.784683227539062,29.90664291381836,71.0791015625,0.0,-31.615314483642578,-30.9221134185791,-0.7821944952011108
83,/Users/cjpark/Desktop/ucla_courses/cs260r/assignment4/data/td3_agent_single_v8/td3,148,-1947.956914297172,250725,84,1683.145271062851,-26.52834129333496,25.41554832458496,20.908002853393555,0.0,-26.623775482177734,-27.104869842529297,-0.3913787007331848
84,/Users/cjpark/Desktop/ucla_courses/cs260r/assignment4/data/td3_agent_single_v8/td3,149,-1925.0631906144758,253725,85,1700.2889680862427,-40.52133560180664,39.51656723022461,23.777692794799805,0.0,-41.40003967285156,-40.659217834472656,-0.1963290125131607
85,/Users/cjpark/Desktop/ucla_courses/cs260r/assignment4/data/td3_agent_single_v8/td3,149,-1902.649830061336,256725,86,1717.4921989440918,-39.28973388671875,38.233699798583984,63.65794372558594,0.0,-39.98458480834961,-39.80047607421875,-1.367889165878296
86,/Users/cjpark/Desktop/ucla_courses/cs260r/assignment4/data/td3_agent_single_v8/td3,149,-1880.6117065007659,259725,87,1735.247797012329,-34.34314727783203,32.491371154785156,48.5921630859375,0.0,-34.69123458862305,-35.65825271606445,-0.9763199090957642
87,/Users/cjpark/Desktop/ucla_courses/cs260r/assignment4/data/td3_agent_single_v8/td3,149,-1859.1802893633192,262725,88,1753.088567018509,-38.85947036743164,36.58864974975586,48.71894836425781,0.0,-38.619842529296875,-38.45024108886719,-0.9781426191329956
88,/Users/cjpark/Desktop/ucla_courses/cs260r/assignment4/data/td3_agent_single_v8/td3,150,-1840.89962445752,265725,89,1770.6053130626678,-34.18775939941406,32.61030578613281,25.493244171142578,0.0,-33.22662353515625,-34.79986572265625,-0.19588559865951538
89,/Users/cjpark/Desktop/ucla_courses/cs260r/assignment4/data/td3_agent_single_v8/td3,150,-1827.6935525125928,268725,90,1788.3187222480774,-38.15007019042969,36.912986755371094,78.94850158691406,0.0,-38.81285858154297,-38.58540725708008,-0.3900972306728363
90,/Users/cjpark/Desktop/ucla_courses/cs260r/assignment4/data/td3_agent_single_v8/td3,150,-1807.6262029579707,271725,91,1805.3679728507996,-41.02228546142578,40.464595794677734,60.76573181152344,0.0,-41.331451416015625,-41.01815414428711,-0.5856000185012817
91,/Users/cjpark/Desktop/ucla_courses/cs260r/assignment4/data/td3_agent_single_v8/td3,150,-1882.010245952917,274725,92,1823.3093421459198,-47.42638397216797,44.794673919677734,24.358905792236328,0.0,-46.31906509399414,-47.03187942504883,-0.3909369707107544
92,/Users/cjpark/Desktop/ucla_courses/cs260r/assignment4/data/td3_agent_single_v8/td3,150,-1958.1021373118124,277725,93,1840.8419258594513,-37.082218170166016,35.67934799194336,36.09853744506836,0.0,-37.35173416137695,-37.237396240234375,-0.9756635427474976
93,/Users/cjpark/Desktop/ucla_courses/cs260r/assignment4/data/td3_agent_single_v8/td3,150,-2011.6446168803154,280725,94,1859.1640090942383,-31.69456672668457,31.64296531677246,25.61229705810547,0.0,-33.08226776123047,-31.873449325561523,-0.0009799748659133911
94,/Users/cjpark/Desktop/ucla_courses/cs260r/assignment4/data/td3_agent_single_v8/td3,151,-2365.9335671600543,283725,95,1877.2962489128113,-40.840736389160156,40.293636322021484,37.157264709472656,0.0,-41.725738525390625,-40.32505416870117,-0.39102351665496826
95,/Users/cjpark/Desktop/ucla_courses/cs260r/assignment4/data/td3_agent_single_v8/td3,151,-2338.7356878171436,286725,96,1895.0566520690918,-48.70935821533203,46.777137756347656,63.52128601074219,0.0,-48.746490478515625,-49.387882232666016,-0.7824056148529053
96,/Users/cjpark/Desktop/ucla_courses/cs260r/assignment4/data/td3_agent_single_v8/td3,151,-2327.1642081614696,288800,97,1908.2542281150818,-56.736934661865234,,146.703369140625,0.0,-56.71221160888672,-58.116207122802734,-0.3913249969482422
97,/Users/cjpark/Desktop/ucla_courses/cs260r/assignment4/data/td3_agent_single_v8/td3,151,-2303.3932069223824,291800,98,1926.8466069698334,-56.9194450378418,,69.58780670166016,0.0,-55.86497116088867,-56.822418212890625,-1.1703522205352783
98,/Users/cjpark/Desktop/ucla_courses/cs260r/assignment4/data/td3_agent_single_v8/td3,151,-2276.254786677922,294800,99,1945.6060860157013,-66.7686767578125,,117.03901672363281,0.0,-66.1067123413086,-67.18772888183594,-1.559366226196289
99,/Users/cjpark/Desktop/ucla_courses/cs260r/assignment4/data/td3_agent_single_v8/td3,151,-2251.0001719148627,297800,100,1963.3881301879883,-68.68963623046875,,69.51464080810547,0.0,-67.45346069335938,-69.18171691894531,-0.7797450423240662
100,/Users/cjpark/Desktop/ucla_courses/cs260r/assignment4/data/td3_agent_single_v8/td3,151,-2202.8193197401038,300800,101,1980.7125210762024,-60.917964935302734,,62.381065368652344,0.0,-60.94845962524414,-59.25355529785156,-0.5815843343734741
101,/Users/cjpark/Desktop/ucla_courses/cs260r/assignment4/data/td3_agent_single_v8/td3,152,-2203.1356562669744,303800,102,1997.7316780090332,-51.81923294067383,,106.74676513671875,0.0,-52.116943359375,-51.886985778808594,-0.19142824411392212
102,/Users/cjpark/Desktop/ucla_courses/cs260r/assignment4/data/td3_agent_single_v8/td3,152,-2141.962898402976,306800,103,2014.8039691448212,-54.5634880065918,,84.18814086914062,0.0,-54.59828186035156,-53.252220153808594,-0.780782163143158
103,/Users/cjpark/Desktop/ucla_courses/cs260r/assignment4/data/td3_agent_single_v8/td3,152,-1868.1226984270086,309800,104,2034.2960028648376,-60.088096618652344,,93.57814025878906,0.0,-59.64222717285156,-58.79971694946289,-1.1684129238128662
104,/Users/cjpark/Desktop/ucla_courses/cs260r/assignment4/data/td3_agent_single_v8/td3,152,-1723.6690290887823,312800,105,2051.8114869594574,-70.90728759765625,,52.81658172607422,0.0,-71.17957305908203,-70.9015121459961,-0.7804487347602844
105,/Users/cjpark/Desktop/ucla_courses/cs260r/assignment4/data/td3_agent_single_v8/td3,152,-1577.759103399085,315800,106,2074.5438480377197,-59.78750228881836,,82.0400390625,0.0,-60.11726379394531,-60.310245513916016,-1.168089747428894
106,/Users/cjpark/Desktop/ucla_courses/cs260r/assignment4/data/td3_agent_single_v8/td3,152,-1430.271809144782,318800,107,2093.6426792144775,-58.977386474609375,,102.60958862304688,0.0,-58.185302734375,-59.62051773071289,-1.1693978309631348
107,/Users/cjpark/Desktop/ucla_courses/cs260r/assignment4/data/td3_agent_single_v8/td3,152,-1346.1627580173486,321800,108,2111.894392967224,-54.467105865478516,,79.0053482055664,0.0,-54.94504165649414,-55.54085922241211,-1.1680800914764404
108,/Users/cjpark/Desktop/ucla_courses/cs260r/assignment4/data/td3_agent_single_v8/td3,150,-1346.0457084568015,324800,109,2151.191362142563,-45.901702880859375,,72.63825225830078,0.0,-47.08312225341797,-46.23739242553711,-0.7791781425476074
109,/Users/cjpark/Desktop/ucla_courses/cs260r/assignment4/data/td3_agent_single_v8/td3,151,-1014.9827911670677,327800,110,2169.579605102539,-64.08912658691406,,54.997989654541016,0.0,-64.1959228515625,-64.34916687011719,-0.38812774419784546
110,/Users/cjpark/Desktop/ucla_courses/cs260r/assignment4/data/td3_agent_single_v8/td3,151,-1014.7227262361517,330800,111,2187.6141369342804,-58.81340789794922,,61.41101837158203,0.0,-58.383270263671875,-58.81481170654297,-0.38908350467681885
111,/Users/cjpark/Desktop/ucla_courses/cs260r/assignment4/data/td3_agent_single_v8/td3,151,-1014.4913096483224,333800,112,2206.0298221111298,-60.36299514770508,,78.4602279663086,0.0,-59.13182830810547,-61.374603271484375,-0.7779765129089355
112,/Users/cjpark/Desktop/ucla_courses/cs260r/assignment4/data/td3_agent_single_v8/td3,151,-1014.3731903655998,336800,113,2223.8711681365967,-50.369232177734375,,47.705142974853516,0.0,-47.72715759277344,-49.734291076660156,-0.5820235013961792
113,/Users/cjpark/Desktop/ucla_courses/cs260r/assignment4/data/td3_agent_single_v8/td3,151,-1014.246918974685,339800,114,2241.3185942173004,-51.326412200927734,,50.58102035522461,0.0,-50.37563705444336,-51.788726806640625,-0.38984277844429016
114,/Users/cjpark/Desktop/ucla_courses/cs260r/assignment4/data/td3_agent_single_v8/td3,150,-1014.0881000621787,342800,115,2272.377592086792,-53.975135803222656,,23.063396453857422,0.0,-54.19095993041992,-54.183109283447266,-0.19606782495975494
115,/Users/cjpark/Desktop/ucla_courses/cs260r/assignment4/data/td3_agent_single_v8/td3,151,-1013.9214015491478,345800,116,2290.030236005783,-60.22764587402344,,59.2891845703125,0.0,-61.1971321105957,-60.38970184326172,-0.5815532803535461
116,/Users/cjpark/Desktop/ucla_courses/cs260r/assignment4/data/td3_agent_single_v8/td3,151,-1013.790807400512,348800,117,2308.1279339790344,-62.87630844116211,,61.38488006591797,0.0,-62.83485412597656,-63.09075927734375,-0.7802259922027588
117,/Users/cjpark/Desktop/ucla_courses/cs260r/assignment4/data/td3_agent_single_v8/td3,151,-1125.6289661272042,351800,118,2325.4698901176453,-52.39374542236328,,31.834009170532227,0.0,-52.38360595703125,-53.189781188964844,-0.38726919889450073
118,/Users/cjpark/Desktop/ucla_courses/cs260r/assignment4/data/td3_agent_single_v8/td3,151,-1125.5106144078245,354800,119,2343.534595012665,-54.8591194152832,,36.51512908935547,0.0,-55.93086242675781,-53.32390594482422,-0.9752994179725647
119,/Users/cjpark/Desktop/ucla_courses/cs260r/assignment4/data/td3_agent_single_v8/td3,151,-1125.365115707683,357800,120,2361.1664021015167,-64.07304382324219,,65.24274444580078,0.0,-63.28849792480469,-63.84772491455078,-1.1689820289611816
120,/Users/cjpark/Desktop/ucla_courses/cs260r/assignment4/data/td3_agent_single_v8/td3,151,-1125.1101487858766,360800,121,2379.424838066101,-47.09357452392578,,31.206737518310547,0.0,-46.84444046020508,-45.932003021240234,-0.7810364365577698
121,/Users/cjpark/Desktop/ucla_courses/cs260r/assignment4/data/td3_agent_single_v8/td3,151,-1124.943516071605,363800,122,2397.5880370140076,-54.21823501586914,,24.067138671875,0.0,-53.42387008666992,-53.92356872558594,-0.19137465953826904
122,/Users/cjpark/Desktop/ucla_courses/cs260r/assignment4/data/td3_agent_single_v8/td3,151,-1124.7571276791564,366800,123,2415.7873179912567,-57.760257720947266,,51.66522979736328,0.0,-57.44169998168945,-58.39214324951172,-0.7777693271636963
123,/Users/cjpark/Desktop/ucla_courses/cs260r/assignment4/data/td3_agent_single_v8/td3,151,-1124.5404253967279,369800,124,2433.930845975876,-58.16896057128906,,58.62153244018555,0.0,-58.87204360961914,-58.27240753173828,-0.38819658756256104
124,/Users/cjpark/Desktop/ucla_courses/cs260r/assignment4/data/td3_agent_single_v8/td3,152,-1124.4018324144356,372800,125,2452.390527009964,-51.33409118652344,,50.504310607910156,0.0,-51.229042053222656,-52.054710388183594,-0.1938241720199585
125,/Users/cjpark/Desktop/ucla_courses/cs260r/assignment4/data/td3_agent_single_v8/td3,152,-1124.2470530207627,375800,126,2470.52153301239,-60.83391571044922,,53.136260986328125,0.0,-60.141597747802734,-60.048362731933594,-0.18880963325500488
126,/Users/cjpark/Desktop/ucla_courses/cs260r/assignment4/data/td3_agent_single_v8/td3,152,-1124.1022707207671,378800,127,2488.43452501297,-72.12191772460938,,61.57405090332031,0.0,-73.03748321533203,-72.91062927246094,-0.5851850509643555
127,/Users/cjpark/Desktop/ucla_courses/cs260r/assignment4/data/td3_agent_single_v8/td3,152,-1123.9760522301667,381800,128,2505.4059448242188,-67.0749740600586,,73.14591979980469,0.0,-66.81427001953125,-67.14775085449219,-0.7797191143035889
128,/Users/cjpark/Desktop/ucla_courses/cs260r/assignment4/data/td3_agent_single_v8/td3,152,-1123.949987462329,384800,129,2523.5045211315155,-67.93202209472656,,44.398353576660156,0.0,-68.29364013671875,-66.9930419921875,-0.5808597803115845
129,/Users/cjpark/Desktop/ucla_courses/cs260r/assignment4/data/td3_agent_single_v8/td3,152,-1123.9204021008484,387800,130,2541.3852140903473,-67.01032257080078,,77.07569122314453,0.0,-66.13029479980469,-66.04673767089844,-0.5799676775932312
130,/Users/cjpark/Desktop/ucla_courses/cs260r/assignment4/data/td3_agent_single_v8/td3,152,-1123.8451210911742,390800,131,2559.042871236801,-67.37428283691406,,53.83784484863281,0.0,-67.73145294189453,-67.45618438720703,-0.5863592028617859
131,/Users/cjpark/Desktop/ucla_courses/cs260r/assignment4/data/td3_agent_single_v8/td3,152,-1123.778812659549,393800,132,2576.7472450733185,-61.56077194213867,,76.48190307617188,0.0,-61.46245193481445,-61.5648307800293,-0.9748094081878662
132,/Users/cjpark/Desktop/ucla_courses/cs260r/assignment4/data/td3_agent_single_v8/td3,152,-1123.7071697838776,396800,133,2594.4528510570526,-59.24455642700195,,41.74205780029297,0.0,-58.342254638671875,-58.62068557739258,-0.5850579738616943
133,/Users/cjpark/Desktop/ucla_courses/cs260r/assignment4/data/td3_agent_single_v8/td3,153,-1123.6778777916902,399800,134,2612.3706500530243,-62.84031677246094,,52.72087860107422,0.0,-62.6918830871582,-62.880069732666016,-0.7754343152046204
134,/Users/cjpark/Desktop/ucla_courses/cs260r/assignment4/data/td3_agent_single_v8/td3,153,-1123.4816231759062,402800,135,2630.843667984009,-64.83184814453125,,48.25238037109375,0.0,-64.6856918334961,-64.9253921508789,-0.9758810997009277
135,/Users/cjpark/Desktop/ucla_courses/cs260r/assignment4/data/td3_agent_single_v8/td3,153,-1123.3259689982408,405800,136,2649.0061461925507,-50.496456146240234,,52.00799560546875,0.0,-50.076438903808594,-51.002708435058594,-0.1924634873867035
136,/Users/cjpark/Desktop/ucla_courses/cs260r/assignment4/data/td3_agent_single_v8/td3,153,-1123.1314703019134,408800,137,2667.803330183029,-58.91131591796875,,72.19044494628906,0.0,-58.278228759765625,-59.966552734375,-0.5836650133132935
137,/Users/cjpark/Desktop/ucla_courses/cs260r/assignment4/data/td3_agent_single_v8/td3,153,-1122.9123959668152,411800,138,2685.7518038749695,-51.087738037109375,,39.34184646606445,0.0,-49.27983093261719,-50.177860260009766,-0.5843668580055237
138,/Users/cjpark/Desktop/ucla_courses/cs260r/assignment4/data/td3_agent_single_v8/td3,153,-1122.7597866137496,414800,139,2702.512759208679,-51.98245620727539,,18.60630226135254,0.0,-51.95903015136719,-51.82843017578125,0.0025938129983842373
139,/Users/cjpark/Desktop/ucla_courses/cs260r/assignment4/data/td3_agent_single_v8/td3,153,-1122.6061935790055,417800,140,2720.314866065979,-53.89236068725586,,48.04579162597656,0.0,-53.835296630859375,-52.931053161621094,-0.38434162735939026
140,/Users/cjpark/Desktop/ucla_courses/cs260r/assignment4/data/td3_agent_single_v8/td3,153,-1122.4781925757402,420800,141,2737.777540922165,-60.56425094604492,,48.055091857910156,0.0,-61.31764221191406,-61.29186248779297,-0.194345161318779
141,/Users/cjpark/Desktop/ucla_courses/cs260r/assignment4/data/td3_agent_single_v8/td3,153,-1122.3985014327043,423800,142,2755.6802818775177,-58.11762619018555,,26.580604553222656,0.0,-58.39710235595703,-57.537593841552734,-0.5819100141525269
142,/Users/cjpark/Desktop/ucla_courses/cs260r/assignment4/data/td3_agent_single_v8/td3,153,-1122.3227879317276,426800,143,2774.5590300559998,-57.063575744628906,,32.99943161010742,0.0,-57.16768264770508,-57.85755920410156,-0.5843886137008667
143,/Users/cjpark/Desktop/ucla_courses/cs260r/assignment4/data/td3_agent_single_v8/td3,153,-1122.2342490180008,429800,144,2793.6568269729614,-50.98382568359375,,41.21210479736328,0.0,-51.70878982543945,-50.44169998168945,-0.3908993899822235
144,/Users/cjpark/Desktop/ucla_courses/cs260r/assignment4/data/td3_agent_single_v8/td3,153,-1122.1375664217942,432800,145,2812.400344848633,-66.68357849121094,,52.521240234375,0.0,-67.66802215576172,-65.91096496582031,-1.561305284500122
145,/Users/cjpark/Desktop/ucla_courses/cs260r/assignment4/data/td3_agent_single_v8/td3,153,-1122.0114088232988,435800,146,2830.3393280506134,-53.38761520385742,,27.342819213867188,0.0,-52.79810333251953,-52.702362060546875,-0.3915907144546509
146,/Users/cjpark/Desktop/ucla_courses/cs260r/assignment4/data/td3_agent_single_v8/td3,154,-1121.94362059431,438800,147,2848.336818933487,-54.70189666748047,,24.405269622802734,0.0,-54.855289459228516,-54.49545669555664,-0.19289204478263855
147,/Users/cjpark/Desktop/ucla_courses/cs260r/assignment4/data/td3_agent_single_v8/td3,154,-1121.790563848781,441800,148,2866.913442850113,-52.81816101074219,,50.54083251953125,0.0,-52.222469329833984,-51.27167510986328,-0.3887641131877899
148,/Users/cjpark/Desktop/ucla_courses/cs260r/assignment4/data/td3_agent_single_v8/td3,154,-1121.7078415759079,444800,149,2884.629800081253,-57.10010528564453,,108.35533142089844,0.0,-56.425716400146484,-56.89759063720703,-0.7812429070472717
149,/Users/cjpark/Desktop/ucla_courses/cs260r/assignment4/data/td3_agent_single_v8/td3,154,-1122.0533684618943,447800,150,2902.3905770778656,-56.040977478027344,,34.38502502441406,0.0,-56.263370513916016,-54.628257751464844,-0.7771973013877869
150,/Users/cjpark/Desktop/ucla_courses/cs260r/assignment4/data/td3_agent_single_v8/td3,154,-1095.514851358699,450800,151,2921.227277994156,-51.9613037109375,,44.64653015136719,0.0,-52.7369384765625,-52.290069580078125,-0.7782045006752014
151,/Users/cjpark/Desktop/ucla_courses/cs260r/assignment4/data/td3_agent_single_v8/td3,154,-1095.726573675441,453800,152,2938.8135330677032,-53.56649398803711,,44.42920684814453,0.0,-53.30540084838867,-53.850074768066406,-0.18932496011257172
152,/Users/cjpark/Desktop/ucla_courses/cs260r/assignment4/data/td3_agent_single_v8/td3,154,-1055.8582566626542,456800,153,2956.059119939804,-48.47408676147461,,13.738883972167969,0.0,-48.571128845214844,-49.34519577026367,-0.1935829520225525
153,/Users/cjpark/Desktop/ucla_courses/cs260r/assignment4/data/td3_agent_single_v8/td3,154,-1055.6898779948228,459800,154,2974.0070509910583,-51.14516067504883,,40.964691162109375,0.0,-51.30964279174805,-50.48392105102539,-0.778106153011322
154,/Users/cjpark/Desktop/ucla_courses/cs260r/assignment4/data/td3_agent_single_v8/td3,154,-1055.5802224619856,462800,155,2992.30761885643,-51.21867752075195,,33.35808563232422,0.0,-51.86945724487305,-51.080474853515625,-0.387896329164505
155,/Users/cjpark/Desktop/ucla_courses/cs260r/assignment4/data/td3_agent_single_v8/td3,154,-1055.5291091425888,465800,156,3010.0901551246643,-64.35491943359375,,63.8101806640625,0.0,-63.925601959228516,-64.58941650390625,-1.1678823232650757
156,/Users/cjpark/Desktop/ucla_courses/cs260r/assignment4/data/td3_agent_single_v8/td3,154,-1055.4683765776626,468800,157,3027.57337808609,-52.939125061035156,,31.811790466308594,0.0,-52.12826156616211,-51.263755798339844,-0.3904823958873749
157,/Users/cjpark/Desktop/ucla_courses/cs260r/assignment4/data/td3_agent_single_v8/td3,154,-1055.4214826567643,471800,158,3045.06863117218,-49.265480041503906,,32.384788513183594,0.0,-50.58662796020508,-48.42009735107422,-0.1944926232099533
158,/Users/cjpark/Desktop/ucla_courses/cs260r/assignment4/data/td3_agent_single_v8/td3,155,-1055.406149509715,474800,159,3061.9907190799713,-54.31067657470703,,29.36229705810547,0.0,-54.6864128112793,-53.89423370361328,-0.19466166198253632
159,/Users/cjpark/Desktop/ucla_courses/cs260r/assignment4/data/td3_agent_single_v8/td3,155,-1055.3723673995012,477800,160,3079.0688138008118,-48.80438232421875,,41.40802764892578,0.0,-49.52877426147461,-49.34050750732422,-0.3908672630786896
160,/Users/cjpark/Desktop/ucla_courses/cs260r/assignment4/data/td3_agent_single_v8/td3,155,-1055.333607338237,480800,161,3096.6110219955444,-44.082237243652344,,19.756391525268555,0.0,-44.51478576660156,-44.253963470458984,-0.1911536008119583
161,/Users/cjpark/Desktop/ucla_courses/cs260r/assignment4/data/td3_agent_single_v8/td3,155,-1055.3015962679856,483800,162,3113.3954598903656,-50.056068420410156,,45.79644775390625,0.0,-50.561012268066406,-49.87687301635742,-0.9724448919296265
162,/Users/cjpark/Desktop/ucla_courses/cs260r/assignment4/data/td3_agent_single_v8/td3,155,-1055.329766805934,486800,163,3131.363049030304,-49.059383392333984,,42.05256652832031,0.0,-50.15794372558594,-50.62489318847656,-0.5799016356468201
163,/Users/cjpark/Desktop/ucla_courses/cs260r/assignment4/data/td3_agent_single_v8/td3,155,-1055.110679729747,489800,164,3149.3894600868225,-43.305442810058594,,29.318103790283203,0.0,-42.851383209228516,-42.68207550048828,-0.38724929094314575
164,/Users/cjpark/Desktop/ucla_courses/cs260r/assignment4/data/td3_agent_single_v8/td3,155,-1054.8638339789384,492800,165,3166.866697072983,-62.438446044921875,,42.83085632324219,0.0,-62.00360870361328,-61.53821563720703,-0.7778748273849487
165,/Users/cjpark/Desktop/ucla_courses/cs260r/assignment4/data/td3_agent_single_v8/td3,155,-1054.8167779715532,495800,166,3184.5094108581543,-48.79909896850586,,30.783161163330078,0.0,-49.200130462646484,-49.515113830566406,-0.3883373737335205
166,/Users/cjpark/Desktop/ucla_courses/cs260r/assignment4/data/td3_agent_single_v8/td3,155,-1054.7640358050337,498800,167,3202.7399649620056,-49.45092010498047,,23.786575317382812,0.0,-49.124473571777344,-49.28202438354492,-0.3895356357097626
