cjunkin/reinforcement-learning/metaracer/data/td3_agent_single/td3/progress.csv
,log_dir,frame_per_second,episode_reward,total_steps,total_episodes,total_time,target_q,actor_loss,critic_loss,success_rate,current_q1,current_q2,reward
0,/Users/cjpark/Desktop/ucla_courses/cs260r/assignment4/data/td3_agent_single/td3,1562,-3421.2135734558105,2999,1,1.9187960624694824,,,,0.0,,,
1,/Users/cjpark/Desktop/ucla_courses/cs260r/assignment4/data/td3_agent_single/td3,1573,-2095.808759689331,5999,2,3.8121368885040283,,,,0.0,,,
2,/Users/cjpark/Desktop/ucla_courses/cs260r/assignment4/data/td3_agent_single/td3,1573,-1386.2896490097046,8999,3,5.7191197872161865,,,,0.0,,,
3,/Users/cjpark/Desktop/ucla_courses/cs260r/assignment4/data/td3_agent_single/td3,884,-5923.5948095321655,11156,4,12.615747928619385,-4.18513822555542,,150.58538818359375,0.0,-4.930068016052246,-5.025721073150635,-1.7509502172470093
4,/Users/cjpark/Desktop/ucla_courses/cs260r/assignment4/data/td3_agent_single/td3,497,-12228.769731521606,14156,5,28.481586933135986,-17.499101638793945,,191.40158081054688,0.0,-16.13360595703125,-16.318092346191406,-4.874513626098633
5,/Users/cjpark/Desktop/ucla_courses/cs260r/assignment4/data/td3_agent_single/td3,388,-16457.013051827747,17156,6,44.10554504394531,-55.767093658447266,,242.29061889648438,0.0,-56.17331314086914,-56.036376953125,-6.243607997894287
6,/Users/cjpark/Desktop/ucla_courses/cs260r/assignment4/data/td3_agent_single/td3,341,-18021.342591830664,19683,7,57.69287610054016,-68.56727600097656,65.0377197265625,229.37371826171875,0.0,-70.34538269042969,-70.08922576904297,-4.876983165740967
7,/Users/cjpark/Desktop/ucla_courses/cs260r/assignment4/data/td3_agent_single/td3,335,-18068.360014796257,20071,8,59.81727910041809,-78.852783203125,78.13029479980469,234.00106811523438,0.0,-78.99296569824219,-78.67765808105469,-6.438785552978516
8,/Users/cjpark/Desktop/ucla_courses/cs260r/assignment4/data/td3_agent_single/td3,305,-18506.419798056286,23071,9,75.64167594909668,-91.09568786621094,82.17733001708984,346.3505554199219,0.0,-89.22395324707031,-89.30474090576172,-8.979985237121582
9,/Users/cjpark/Desktop/ucla_courses/cs260r/assignment4/data/td3_agent_single/td3,285,-16657.078687632085,26071,10,91.3222930431366,-95.83611297607422,88.06222534179688,265.04010009765625,0.0,-95.71604919433594,-95.91419982910156,-5.464548110961914
10,/Users/cjpark/Desktop/ucla_courses/cs260r/assignment4/data/td3_agent_single/td3,271,-15143.680983467535,29071,11,106.99165797233582,-87.2987060546875,80.19738006591797,338.48992919921875,0.0,-88.73080444335938,-89.72322082519531,-4.295189380645752
11,/Users/cjpark/Desktop/ucla_courses/cs260r/assignment4/data/td3_agent_single/td3,260,-13882.413833667835,32071,12,122.97167205810547,-85.84752655029297,76.6931381225586,234.9757537841797,0.0,-83.83529663085938,-83.79550170898438,-6.442660331726074
12,/Users/cjpark/Desktop/ucla_courses/cs260r/assignment4/data/td3_agent_single/td3,253,-12814.827082019587,35071,13,138.5311050415039,-83.71687316894531,74.868408203125,429.9874572753906,0.0,-81.59547424316406,-81.58200073242188,-6.249150276184082
13,/Users/cjpark/Desktop/ucla_courses/cs260r/assignment4/data/td3_agent_single/td3,247,-11899.618068465164,38071,14,153.96514201164246,-94.5159912109375,86.9056396484375,291.25897216796875,0.0,-92.79222106933594,-93.37840270996094,-4.294886112213135
14,/Users/cjpark/Desktop/ucla_courses/cs260r/assignment4/data/td3_agent_single/td3,242,-11106.46387345791,41071,15,169.7130880355835,-84.74406433105469,79.92899322509766,213.52520751953125,0.0,-85.7426528930664,-85.26065063476562,-2.5379652976989746
15,/Users/cjpark/Desktop/ucla_courses/cs260r/assignment4/data/td3_agent_single/td3,237,-10412.376322545111,44071,16,185.39522099494934,-76.4525375366211,73.06800842285156,168.04898071289062,0.0,-78.20269012451172,-77.44824981689453,-2.342839002609253
16,/Users/cjpark/Desktop/ucla_courses/cs260r/assignment4/data/td3_agent_single/td3,234,-9799.972406310193,47071,17,200.87054586410522,-103.69520568847656,98.44538879394531,204.7527313232422,0.0,-104.43771362304688,-104.26453399658203,-4.296295166015625
17,/Users/cjpark/Desktop/ucla_courses/cs260r/assignment4/data/td3_agent_single/td3,231,-9255.598028533988,50071,18,216.47070288658142,-92.20330047607422,86.79042053222656,139.46063232421875,0.0,-92.93933868408203,-92.28755187988281,-4.4921488761901855
18,/Users/cjpark/Desktop/ucla_courses/cs260r/assignment4/data/td3_agent_single/td3,228,-8768.534470790311,53071,19,231.8882818222046,-86.89099884033203,83.65924835205078,193.069091796875,0.0,-87.8175277709961,-87.84378814697266,-2.1470375061035156
19,/Users/cjpark/Desktop/ucla_courses/cs260r/assignment4/data/td3_agent_single/td3,226,-8330.162643843889,56071,20,247.41962385177612,-92.14257049560547,88.84049224853516,176.59173583984375,0.0,-92.85579681396484,-93.56436920166016,-2.7342469692230225
20,/Users/cjpark/Desktop/ucla_courses/cs260r/assignment4/data/td3_agent_single/td3,224,-7933.5707468135015,59071,21,263.00703597068787,-92.4781265258789,86.0692138671875,127.34930419921875,0.0,-91.99310302734375,-92.41278076171875,-3.71001935005188
21,/Users/cjpark/Desktop/ucla_courses/cs260r/assignment4/data/td3_agent_single/td3,222,-7573.028984877196,62071,22,278.7955849170685,-73.60304260253906,71.04887390136719,111.79386138916016,0.0,-75.03775024414062,-74.44035339355469,-1.561624526977539
22,/Users/cjpark/Desktop/ucla_courses/cs260r/assignment4/data/td3_agent_single/td3,221,-7243.828953768896,65071,23,294.2397129535675,-70.39285278320312,65.4305419921875,155.5798797607422,0.0,-70.33648681640625,-71.29679870605469,-2.538306713104248
23,/Users/cjpark/Desktop/ucla_courses/cs260r/assignment4/data/td3_agent_single/td3,219,-6942.054543758432,68071,24,309.52921199798584,-63.29619598388672,58.2003059387207,137.24142456054688,0.0,-63.25627899169922,-63.30708312988281,-1.9530552625656128
24,/Users/cjpark/Desktop/ucla_courses/cs260r/assignment4/data/td3_agent_single/td3,218,-6664.428019089699,71071,25,325.37800192832947,-51.62812805175781,46.047340393066406,62.664764404296875,0.0,-51.98072052001953,-53.28953170776367,-2.1479501724243164
25,/Users/cjpark/Desktop/ucla_courses/cs260r/assignment4/data/td3_agent_single/td3,216,-6408.162275704054,74071,26,342.219379901886,-50.10356140136719,45.18550109863281,44.400062561035156,0.0,-49.20351791381836,-49.18937301635742,-2.733497142791748
26,/Users/cjpark/Desktop/ucla_courses/cs260r/assignment4/data/td3_agent_single/td3,215,-6170.880506714185,77071,27,358.16306591033936,-60.17754364013672,56.81208801269531,56.16715621948242,0.0,-59.049957275390625,-58.886661529541016,-1.561342716217041
27,/Users/cjpark/Desktop/ucla_courses/cs260r/assignment4/data/td3_agent_single/td3,214,-5950.540172496012,80071,28,373.9135820865631,-67.47429656982422,64.51396942138672,82.63446044921875,0.0,-67.30868530273438,-66.59324645996094,-1.1711291074752808
28,/Users/cjpark/Desktop/ucla_courses/cs260r/assignment4/data/td3_agent_single/td3,213,-5745.412138762145,83071,29,389.81421279907227,-58.9910774230957,56.451045989990234,98.05526733398438,0.0,-59.88609313964844,-60.05766677856445,-1.5619219541549683
29,/Users/cjpark/Desktop/ucla_courses/cs260r/assignment4/data/td3_agent_single/td3,212,-5554.056058839957,86071,30,405.6624319553375,-59.947574615478516,55.425392150878906,89.62877655029297,0.0,-59.02431106567383,-59.0333366394043,-2.5384182929992676
30,/Users/cjpark/Desktop/ucla_courses/cs260r/assignment4/data/td3_agent_single/td3,211,-5374.989887318304,89071,31,421.68797397613525,-48.238739013671875,44.107513427734375,100.67819213867188,0.0,-47.40408706665039,-48.56975173950195,-1.3668674230575562
31,/Users/cjpark/Desktop/ucla_courses/cs260r/assignment4/data/td3_agent_single/td3,210,-5207.075648177415,92071,32,437.737352848053,-47.551395416259766,44.255882263183594,54.15037536621094,0.0,-47.423118591308594,-46.658660888671875,-1.3662705421447754
32,/Users/cjpark/Desktop/ucla_courses/cs260r/assignment4/data/td3_agent_single/td3,209,-5049.360118334944,95071,33,453.4873857498169,-59.08042907714844,54.361759185791016,125.18669891357422,0.0,-59.17979431152344,-60.007808685302734,-2.5387539863586426
33,/Users/cjpark/Desktop/ucla_courses/cs260r/assignment4/data/td3_agent_single/td3,208,-4900.938852355761,98071,34,469.25363302230835,-56.269107818603516,53.142967224121094,108.89984130859375,0.0,-57.29201126098633,-57.034698486328125,-2.3441455364227295
34,/Users/cjpark/Desktop/ucla_courses/cs260r/assignment4/data/td3_agent_single/td3,208,-4760.96269734587,101071,35,485.2682240009308,-46.133731842041016,42.417999267578125,49.383872985839844,0.0,-46.258541107177734,-46.47170639038086,-2.1487925052642822
35,/Users/cjpark/Desktop/ucla_courses/cs260r/assignment4/data/td3_agent_single/td3,207,-4628.768247117599,104071,36,501.25953793525696,-40.847591400146484,40.416053771972656,69.5147705078125,0.0,-41.40943908691406,-41.41597366333008,-0.39014503359794617
36,/Users/cjpark/Desktop/ucla_courses/cs260r/assignment4/data/td3_agent_single/td3,207,-4503.7724136822935,107071,37,517.110729932785,-44.98978805541992,43.93156051635742,41.690940856933594,0.0,-45.37453842163086,-45.274803161621094,-0.7814900875091553
37,/Users/cjpark/Desktop/ucla_courses/cs260r/assignment4/data/td3_agent_single/td3,206,-4385.303495523177,110071,38,532.8446867465973,-38.7011604309082,35.53632354736328,105.5338134765625,0.0,-38.4627571105957,-39.26234436035156,-1.3671481609344482
38,/Users/cjpark/Desktop/ucla_courses/cs260r/assignment4/data/td3_agent_single/td3,205,-4272.906541521733,113071,39,548.9027860164642,-53.50046920776367,49.31840896606445,60.832054138183594,0.0,-55.35382843017578,-55.23182678222656,-2.343574047088623
39,/Users/cjpark/Desktop/ucla_courses/cs260r/assignment4/data/td3_agent_single/td3,205,-4166.145350304246,116071,40,564.7483367919922,-51.945037841796875,50.79100036621094,34.5718994140625,0.0,-53.011695861816406,-52.222328186035156,-1.171883225440979
40,/Users/cjpark/Desktop/ucla_courses/cs260r/assignment4/data/td3_agent_single/td3,205,-4064.578836129933,119071,41,580.7395870685577,-43.343833923339844,39.984683990478516,70.02197265625,0.0,-42.342132568359375,-42.627262115478516,-1.3670275211334229
41,/Users/cjpark/Desktop/ucla_courses/cs260r/assignment4/data/td3_agent_single/td3,204,-3967.8643432940758,122071,42,596.6667859554291,-49.733909606933594,47.904361724853516,151.78277587890625,0.0,-51.14830780029297,-49.999332427978516,-1.9527887105941772
42,/Users/cjpark/Desktop/ucla_courses/cs260r/assignment4/data/td3_agent_single/td3,204,-3875.633304609809,125071,43,612.5905129909515,-41.0484504699707,38.39572525024414,69.90249633789062,0.0,-40.46706008911133,-41.17451477050781,-0.781200647354126
43,/Users/cjpark/Desktop/ucla_courses/cs260r/assignment4/data/td3_agent_single/td3,203,-3787.6107279739595,128071,44,628.4423980712891,-49.01105499267578,46.241695404052734,45.943275451660156,0.0,-49.293617248535156,-49.22065353393555,-1.367257833480835
44,/Users/cjpark/Desktop/ucla_courses/cs260r/assignment4/data/td3_agent_single/td3,203,-3703.5100088040035,131071,45,644.0898208618164,-48.515594482421875,46.36325454711914,50.503746032714844,0.0,-48.861846923828125,-47.926849365234375,-1.3668233156204224
45,/Users/cjpark/Desktop/ucla_courses/cs260r/assignment4/data/td3_agent_single/td3,203,-3623.0692536027536,134071,46,660.1074459552765,-48.39922332763672,45.663185119628906,90.31584167480469,0.0,-49.293582916259766,-49.51157760620117,-1.5626095533370972
46,/Users/cjpark/Desktop/ucla_courses/cs260r/assignment4/data/td3_agent_single/td3,202,-3546.044729955653,137071,47,675.8820941448212,-41.88652038574219,39.571197509765625,49.81809997558594,0.0,-41.60474395751953,-41.484947204589844,-0.3917073607444763
47,/Users/cjpark/Desktop/ucla_courses/cs260r/assignment4/data/td3_agent_single/td3,202,-3472.1953761105738,140071,48,691.8297181129456,-46.59298324584961,44.71748352050781,36.544273376464844,0.0,-47.35752487182617,-47.997169494628906,-1.367358922958374
48,/Users/cjpark/Desktop/ucla_courses/cs260r/assignment4/data/td3_agent_single/td3,202,-3401.3752347133595,143071,49,707.5510799884796,-47.79425811767578,46.909297943115234,102.49826049804688,0.0,-48.800071716308594,-47.4307746887207,-1.1725256443023682
49,/Users/cjpark/Desktop/ucla_courses/cs260r/assignment4/data/td3_agent_single/td3,201,-3333.406907837391,146071,50,723.9628269672394,-39.8489875793457,36.56513214111328,51.255104064941406,0.0,-38.32798385620117,-38.71612548828125,-1.1724461317062378
50,/Users/cjpark/Desktop/ucla_courses/cs260r/assignment4/data/td3_agent_single/td3,201,-3268.1023124175913,149071,51,739.4364748001099,-57.7456169128418,55.16952133178711,90.62109375,0.0,-56.8690299987793,-56.998985290527344,-1.757299780845642
51,/Users/cjpark/Desktop/ucla_courses/cs260r/assignment4/data/td3_agent_single/td3,201,-3205.310764947763,152071,52,755.4878861904144,-42.17316818237305,41.89141082763672,33.740203857421875,0.0,-42.033721923828125,-40.934234619140625,-1.367228627204895
52,/Users/cjpark/Desktop/ucla_courses/cs260r/assignment4/data/td3_agent_single/td3,201,-3144.8730735351455,155071,53,771.1396911144257,-46.00699996948242,45.30751037597656,28.357173919677734,0.0,-46.580135345458984,-46.39085388183594,-0.5857507586479187
53,/Users/cjpark/Desktop/ucla_courses/cs260r/assignment4/data/td3_agent_single/td3,200,-3086.6763465956406,158071,54,786.9845209121704,-60.53595733642578,57.09994888305664,52.68804168701172,0.0,-59.979042053222656,-60.25885772705078,-1.7582706212997437
54,/Users/cjpark/Desktop/ucla_courses/cs260r/assignment4/data/td3_agent_single/td3,200,-3030.5903523120014,161071,55,802.7141759395599,-49.13928985595703,49.074493408203125,62.250648498535156,0.0,-50.11677169799805,-48.76451110839844,-0.5859931707382202
55,/Users/cjpark/Desktop/ucla_courses/cs260r/assignment4/data/td3_agent_single/td3,200,-2976.505366370082,164071,56,818.0420911312103,-59.96604919433594,57.29765701293945,54.20037078857422,0.0,-59.63681411743164,-58.52214050292969,-1.7582688331604004
56,/Users/cjpark/Desktop/ucla_courses/cs260r/assignment4/data/td3_agent_single/td3,200,-2924.317545800878,167071,57,833.6247968673706,-42.74559783935547,41.1231575012207,36.02880096435547,0.0,-42.55241394042969,-42.95454788208008,-0.9772642850875854
57,/Users/cjpark/Desktop/ucla_courses/cs260r/assignment4/data/td3_agent_single/td3,200,-2873.9356941786305,170071,58,849.1508400440216,-47.54456329345703,46.32213592529297,95.94862365722656,0.0,-48.52014923095703,-49.205718994140625,-0.781606912612915
58,/Users/cjpark/Desktop/ucla_courses/cs260r/assignment4/data/td3_agent_single/td3,200,-2825.2624923516128,173071,59,864.6910510063171,-42.400543212890625,40.068668365478516,39.96437454223633,0.0,-41.74968338012695,-43.03738021850586,-0.7818617820739746
59,/Users/cjpark/Desktop/ucla_courses/cs260r/assignment4/data/td3_agent_single/td3,200,-2778.215163320303,176071,60,880.1983370780945,-45.500953674316406,45.06588363647461,16.210407257080078,0.0,-45.742977142333984,-45.141845703125,-0.9772253036499023
60,/Users/cjpark/Desktop/ucla_courses/cs260r/assignment4/data/td3_agent_single/td3,199,-2732.7152511663126,179071,61,895.9140329360962,-35.12025451660156,33.17587661743164,32.76390075683594,0.0,-33.969078063964844,-34.527198791503906,-0.977475643157959
61,/Users/cjpark/Desktop/ucla_courses/cs260r/assignment4/data/td3_agent_single/td3,199,-2688.6826991054318,182071,62,911.2524399757385,-43.60847091674805,41.46674728393555,165.45462036132812,0.0,-44.408756256103516,-44.354251861572266,-1.1727010011672974
62,/Users/cjpark/Desktop/ucla_courses/cs260r/assignment4/data/td3_agent_single/td3,199,-2646.0589985563643,185071,63,927.0330009460449,-41.42333984375,38.03621292114258,52.377197265625,0.0,-39.96896743774414,-40.025123596191406,-1.367563247680664
63,/Users/cjpark/Desktop/ucla_courses/cs260r/assignment4/data/td3_agent_single/td3,199,-2604.7408432308584,188071,64,942.6401410102844,-37.8659553527832,36.56836700439453,42.081214904785156,0.0,-37.999298095703125,-37.14057540893555,-0.7822803854942322
64,/Users/cjpark/Desktop/ucla_courses/cs260r/assignment4/data/td3_agent_single/td3,199,-2564.723926333281,191071,65,958.3149518966675,-33.70115661621094,32.24878692626953,25.845918655395508,0.0,-33.533546447753906,-33.86528778076172,-0.7813975811004639
65,/Users/cjpark/Desktop/ucla_courses/cs260r/assignment4/data/td3_agent_single/td3,199,-2525.912123559099,194071,66,973.7796931266785,-44.594810485839844,42.214927673339844,52.284385681152344,0.0,-43.945167541503906,-44.734134674072266,-0.5863175392150879
66,/Users/cjpark/Desktop/ucla_courses/cs260r/assignment4/data/td3_agent_single/td3,199,-2488.2464036318793,197071,67,989.3289470672607,-38.356773376464844,36.81597137451172,21.831707000732422,0.0,-38.66224670410156,-39.10776138305664,-0.9768435955047607
67,/Users/cjpark/Desktop/ucla_courses/cs260r/assignment4/data/td3_agent_single/td3,199,-2451.6868136297253,200071,68,1005.012720823288,-42.848018646240234,41.318634033203125,84.77427673339844,0.0,-42.65024185180664,-42.738059997558594,-1.1716803312301636
68,/Users/cjpark/Desktop/ucla_courses/cs260r/assignment4/data/td3_agent_single/td3,198,-2416.1753258307776,203071,69,1020.5669889450073,-37.883914947509766,35.55715560913086,81.03294372558594,0.0,-37.62758255004883,-38.13386535644531,-0.5858451724052429
69,/Users/cjpark/Desktop/ucla_courses/cs260r/assignment4/data/td3_agent_single/td3,198,-2381.6852176070215,206071,70,1036.0138318538666,-45.113189697265625,42.34288787841797,50.73548126220703,0.0,-44.83367919921875,-45.614654541015625,-1.563085675239563
70,/Users/cjpark/Desktop/ucla_courses/cs260r/assignment4/data/td3_agent_single/td3,198,-2348.1642386023427,209071,71,1051.6440799236298,-36.77103805541992,35.185333251953125,83.05879974365234,0.0,-37.52392578125,-38.055824279785156,-0.7803807258605957
71,/Users/cjpark/Desktop/ucla_courses/cs260r/assignment4/data/td3_agent_single/td3,198,-2315.568940687511,212071,72,1067.4623408317566,-30.762760162353516,29.535547256469727,39.213478088378906,0.0,-31.016986846923828,-31.501880645751953,-0.7812737822532654
72,/Users/cjpark/Desktop/ucla_courses/cs260r/assignment4/data/td3_agent_single/td3,198,-2283.866403065316,215071,73,1082.8394980430603,-41.44804763793945,40.57520294189453,101.64933013916016,0.0,-40.60883712768555,-40.37755584716797,-0.19511273503303528
73,/Users/cjpark/Desktop/ucla_courses/cs260r/assignment4/data/td3_agent_single/td3,198,-2253.0327080987595,218071,74,1098.6348769664764,-37.65785217285156,36.3094482421875,36.55335235595703,0.0,-38.04942321777344,-38.13408279418945,-0.9770193099975586
74,/Users/cjpark/Desktop/ucla_courses/cs260r/assignment4/data/td3_agent_single/td3,198,-2223.0198709440233,221071,75,1113.8388509750366,-35.146095275878906,34.251373291015625,25.41611099243164,0.0,-35.756046295166016,-35.48896026611328,-0.7810823917388916
75,/Users/cjpark/Desktop/ucla_courses/cs260r/assignment4/data/td3_agent_single/td3,198,-2193.7882866686896,224071,76,1129.5114297866821,-34.01699447631836,31.844961166381836,54.667049407958984,0.0,-34.26485824584961,-34.101680755615234,-0.9767230749130249
76,/Users/cjpark/Desktop/ucla_courses/cs260r/assignment4/data/td3_agent_single/td3,198,-2165.3275301379044,227071,77,1144.7168679237366,-26.10865020751953,24.53986358642578,21.548110961914062,0.0,-25.443279266357422,-26.05734634399414,-0.5861436128616333
77,/Users/cjpark/Desktop/ucla_courses/cs260r/assignment4/data/td3_agent_single/td3,198,-2137.5836432973542,230071,78,1160.38046002388,-32.91511535644531,31.341581344604492,47.14622116088867,0.0,-32.79875183105469,-32.86489486694336,-0.5850151181221008
78,/Users/cjpark/Desktop/ucla_courses/cs260r/assignment4/data/td3_agent_single/td3,198,-2110.5493305981913,233071,79,1175.7427818775177,-44.211090087890625,41.193416595458984,16.884220123291016,0.0,-43.55565643310547,-44.215023040771484,-0.9768629670143127
79,/Users/cjpark/Desktop/ucla_courses/cs260r/assignment4/data/td3_agent_single/td3,198,-2084.184868259728,236071,80,1191.5751650333405,-27.573787689208984,26.735517501831055,16.936168670654297,0.0,-28.850908279418945,-29.05453109741211,-0.39056819677352905
80,/Users/cjpark/Desktop/ucla_courses/cs260r/assignment4/data/td3_agent_single/td3,198,-2058.4851862074415,239071,81,1206.8764119148254,-42.43401336669922,40.85370635986328,112.46675872802734,0.0,-42.52934646606445,-42.31729507446289,-1.1714129447937012
81,/Users/cjpark/Desktop/ucla_courses/cs260r/assignment4/data/td3_agent_single/td3,197,-2033.4028152096562,242071,82,1222.5844039916992,-41.96800231933594,41.90283203125,41.160499572753906,0.0,-42.28541564941406,-41.65105438232422,-0.39095520973205566
82,/Users/cjpark/Desktop/ucla_courses/cs260r/assignment4/data/td3_agent_single/td3,197,-2008.9290001148202,245071,83,1238.1550619602203,-36.26893997192383,34.88627243041992,38.88270568847656,0.0,-36.452327728271484,-36.72788619995117,-1.1720064878463745
83,/Users/cjpark/Desktop/ucla_courses/cs260r/assignment4/data/td3_agent_single/td3,197,-1985.0275750685305,248071,84,1253.759437084198,-30.593278884887695,29.570865631103516,15.358817100524902,0.0,-30.582612991333008,-30.492530822753906,-0.1953859031200409
84,/Users/cjpark/Desktop/ucla_courses/cs260r/assignment4/data/td3_agent_single/td3,197,-1961.695108252413,251071,85,1269.0380120277405,-41.279144287109375,40.78460693359375,118.34909057617188,0.0,-41.86091232299805,-41.51518630981445,-0.39003047347068787
85,/Users/cjpark/Desktop/ucla_courses/cs260r/assignment4/data/td3_agent_single/td3,197,-1938.900572584119,254071,86,1284.6613039970398,-29.5560302734375,29.454105377197266,19.87179183959961,0.0,-30.29694175720215,-28.67242431640625,-0.39162886142730713
86,/Users/cjpark/Desktop/ucla_courses/cs260r/assignment4/data/td3_agent_single/td3,197,-1983.304573164589,257071,87,1299.7360589504242,-34.10067367553711,32.63582992553711,12.172597885131836,0.0,-34.19512939453125,-33.80069351196289,-0.5862100124359131
87,/Users/cjpark/Desktop/ucla_courses/cs260r/assignment4/data/td3_agent_single/td3,197,-2563.0558223466983,260071,88,1319.09485912323,-41.808509826660156,39.16228103637695,124.93279266357422,0.0,-41.722740173339844,-42.01106262207031,-1.5635671615600586
88,/Users/cjpark/Desktop/ucla_courses/cs260r/assignment4/data/td3_agent_single/td3,197,-2534.271863911929,262675,89,1332.375081062317,-55.102012634277344,44.86360549926758,88.20094299316406,0.0,-53.6954345703125,-55.08599090576172,-1.1726936101913452
89,/Users/cjpark/Desktop/ucla_courses/cs260r/assignment4/data/td3_agent_single/td3,197,-2506.1071027292146,263882,90,1338.8368380069733,-52.931339263916016,,101.74630737304688,0.0,-54.49540328979492,-54.5799674987793,-0.19576457142829895
90,/Users/cjpark/Desktop/ucla_courses/cs260r/assignment4/data/td3_agent_single/td3,197,-2478.5607216345084,264817,91,1343.6458270549774,-60.26569747924805,50.937808990478516,121.19386291503906,0.0,-60.117305755615234,-59.44273376464844,-0.5865398645401001
91,/Users/cjpark/Desktop/ucla_courses/cs260r/assignment4/data/td3_agent_single/td3,197,-2451.614285371874,265328,92,1346.3226170539856,-51.188114166259766,,119.57549285888672,0.0,-50.28611755371094,-50.039798736572266,-0.39056313037872314
92,/Users/cjpark/Desktop/ucla_courses/cs260r/assignment4/data/td3_agent_single/td3,197,-2425.2460582140952,266786,93,1353.8984100818634,-49.116539001464844,,165.60696411132812,0.0,-47.780303955078125,-47.99866485595703,-0.5861241817474365
93,/Users/cjpark/Desktop/ucla_courses/cs260r/assignment4/data/td3_agent_single/td3,197,-2399.4379369717963,267681,94,1358.6730771064758,-51.98930358886719,51.02215576171875,154.99468994140625,0.0,-51.17802429199219,-51.900291442871094,-0.1953551471233368
94,/Users/cjpark/Desktop/ucla_courses/cs260r/assignment4/data/td3_agent_single/td3,117,-2374.1745578025516,268688,95,2292.1900639533997,-68.20462036132812,,163.10903930664062,0.0,-66.65635681152344,-66.71226501464844,-1.3673133850097656
95,/Users/cjpark/Desktop/ucla_courses/cs260r/assignment4/data/td3_agent_single/td3,117,-2325.21309814871,269725,97,2297.8381009101868,-65.96269226074219,68.83719635009766,131.99166870117188,0.0,-67.2270736694336,-66.54302978515625,-0.78150874376297
96,/Users/cjpark/Desktop/ucla_courses/cs260r/assignment4/data/td3_agent_single/td3,117,-2301.457547943203,272725,98,2313.3999638557434,-78.25010681152344,77.94476318359375,135.2970428466797,0.0,-77.67597961425781,-77.06000518798828,-0.7810791730880737
97,/Users/cjpark/Desktop/ucla_courses/cs260r/assignment4/data/td3_agent_single/td3,117,-2278.204739008287,273054,99,2315.191957950592,-78.2470703125,,62.499752044677734,0.0,-78.67423248291016,-76.62179565429688,-0.19578075408935547
98,/Users/cjpark/Desktop/ucla_courses/cs260r/assignment4/data/td3_agent_single/td3,118,-2213.812960706949,274010,103,2320.7671098709106,-76.5672607421875,,47.46532440185547,0.0,-76.65861511230469,-77.1340560913086,-0.9771555066108704
99,/Users/cjpark/Desktop/ucla_courses/cs260r/assignment4/data/td3_agent_single/td3,118,-809.906251951456,275476,108,2329.0826461315155,-81.40567779541016,,191.04364013671875,0.0,-80.67627716064453,-81.3661880493164,-0.3908216953277588
100,/Users/cjpark/Desktop/ucla_courses/cs260r/assignment4/data/td3_agent_single/td3,118,-589.4616445827484,276198,112,2333.500473022461,-85.5805435180664,,38.01765823364258,0.0,-87.43263244628906,-86.35789489746094,-0.39078909158706665
101,/Users/cjpark/Desktop/ucla_courses/cs260r/assignment4/data/td3_agent_single/td3,118,-589.3499441242218,277177,116,2339.054729938507,-89.7492904663086,89.29667663574219,84.23707580566406,0.0,-90.11064147949219,-89.63578796386719,-0.9768790602684021
102,/Users/cjpark/Desktop/ucla_courses/cs260r/assignment4/data/td3_agent_single/td3,118,-589.2720378112793,278118,120,2344.689857006073,-95.88719177246094,,67.40505981445312,0.0,-96.385498046875,-95.81673431396484,-0.9764038920402527
103,/Users/cjpark/Desktop/ucla_courses/cs260r/assignment4/data/td3_agent_single/td3,118,-589.190370502472,279007,124,2349.8980548381805,-100.93048095703125,99.41967010498047,49.71641540527344,0.0,-99.71745300292969,-101.09934997558594,-0.5868021845817566
104,/Users/cjpark/Desktop/ucla_courses/cs260r/assignment4/data/td3_agent_single/td3,118,-589.1106968975067,280019,128,2355.7636098861694,-105.9051513671875,106.24652099609375,193.89974975585938,0.0,-105.15945434570312,-105.55293273925781,-0.19382449984550476
105,/Users/cjpark/Desktop/ucla_courses/cs260r/assignment4/data/td3_agent_single/td3,119,-588.9122516345977,281262,134,2363.2123777866364,-113.09589385986328,,154.13612365722656,0.0,-115.93145751953125,-114.89045715332031,-0.7856360673904419
106,/Users/cjpark/Desktop/ucla_courses/cs260r/assignment4/data/td3_agent_single/td3,119,-588.8189833068848,282077,137,2367.871013879776,-114.57999420166016,113.97457122802734,79.91090393066406,0.0,-114.29489135742188,-114.89244842529297,-0.38864630460739136
107,/Users/cjpark/Desktop/ucla_courses/cs260r/assignment4/data/td3_agent_single/td3,119,-588.6676452350616,283025,143,2373.7721219062805,-121.06398010253906,119.65959167480469,40.3236198425293,0.0,-119.92398834228516,-119.7327880859375,-0.7812104821205139
108,/Users/cjpark/Desktop/ucla_courses/cs260r/assignment4/data/td3_agent_single/td3,119,-588.4545592021942,284329,150,2381.6475069522858,-126.78642272949219,125.65383911132812,55.109458923339844,0.0,-126.47310638427734,-126.57691955566406,-0.0004913518205285072
109,/Users/cjpark/Desktop/ucla_courses/cs260r/assignment4/data/td3_agent_single/td3,119,-588.2841449356079,285219,156,2387.2017590999603,-131.5283966064453,129.4073944091797,82.63705444335938,0.0,-131.41046142578125,-131.39923095703125,-0.9759769439697266
110,/Users/cjpark/Desktop/ucla_courses/cs260r/assignment4/data/td3_agent_single/td3,119,-588.1814319324493,286068,160,2392.0943088531494,-129.21868896484375,,80.95134735107422,0.0,-130.44076538085938,-127.94811248779297,-0.5855756402015686
111,/Users/cjpark/Desktop/ucla_courses/cs260r/assignment4/data/td3_agent_single/td3,119,-587.9803769016266,287012,166,2397.91699886322,-133.18020629882812,,102.96148681640625,0.0,-132.76377868652344,-132.23770141601562,-0.39078688621520996
112,/Users/cjpark/Desktop/ucla_courses/cs260r/assignment4/data/td3_agent_single/td3,120,-587.9151203823089,290145,168,2413.983134031296,-126.06791687011719,123.04631805419922,40.57985305786133,0.0,-125.88475036621094,-126.41142272949219,-0.780406653881073
113,/Users/cjpark/Desktop/ucla_courses/cs260r/assignment4/data/td3_agent_single/td3,120,-587.8878210926056,293145,169,2429.4222679138184,-124.4699935913086,123.20356750488281,34.62963104248047,0.0,-123.23108673095703,-122.91065979003906,-0.19502635300159454
114,/Users/cjpark/Desktop/ucla_courses/cs260r/assignment4/data/td3_agent_single/td3,121,-587.8843582248687,296145,170,2444.439696788788,-115.6825180053711,114.83659362792969,72.64453125,0.0,-115.9110107421875,-114.6639175415039,-0.5845666527748108
115,/Users/cjpark/Desktop/ucla_courses/cs260r/assignment4/data/td3_agent_single/td3,121,-587.8909907722473,299145,171,2459.7641739845276,-116.02214050292969,113.0750961303711,172.0885009765625,0.0,-114.5350341796875,-115.248046875,-0.785530149936676
116,/Users/cjpark/Desktop/ucla_courses/cs260r/assignment4/data/td3_agent_single/td3,122,-668.4048605346679,302145,172,2475.001263856888,-105.8500747680664,104.54994201660156,34.75719451904297,0.0,-107.01732635498047,-106.82930755615234,-0.19472992420196533
117,/Users/cjpark/Desktop/ucla_courses/cs260r/assignment4/data/td3_agent_single/td3,122,-668.4506173324585,305145,173,2490.2694659233093,-108.31273651123047,105.75227355957031,32.52313232421875,0.0,-106.95177459716797,-108.81230163574219,-0.5861999988555908
118,/Users/cjpark/Desktop/ucla_courses/cs260r/assignment4/data/td3_agent_single/td3,122,-668.4925961399078,308145,174,2505.5601210594177,-123.02409362792969,120.26885223388672,41.89140319824219,0.0,-123.67823028564453,-124.30232238769531,-0.39049118757247925
119,/Users/cjpark/Desktop/ucla_courses/cs260r/assignment4/data/td3_agent_single/td3,123,-668.5175773525239,311145,175,2520.7457568645477,-115.07870483398438,113.21014404296875,98.12242126464844,0.0,-114.83760070800781,-114.50310516357422,-0.9765884876251221
120,/Users/cjpark/Desktop/ucla_courses/cs260r/assignment4/data/td3_agent_single/td3,123,-668.515320444107,314145,176,2536.170309782028,-101.2463607788086,100.798583984375,41.26786804199219,0.0,-101.82344055175781,-101.69214630126953,-0.5865322947502136
121,/Users/cjpark/Desktop/ucla_courses/cs260r/assignment4/data/td3_agent_single/td3,124,-668.5286870765686,317145,177,2551.305088043213,-92.56143951416016,91.3027114868164,58.244964599609375,0.0,-93.1769027709961,-94.36061096191406,-0.5862505435943604
122,/Users/cjpark/Desktop/ucla_courses/cs260r/assignment4/data/td3_agent_single/td3,124,-668.5502468013764,320145,178,2566.9549629688263,-87.71492004394531,87.58976745605469,194.5155792236328,0.0,-89.53163146972656,-88.84903717041016,-0.5945097208023071
123,/Users/cjpark/Desktop/ucla_courses/cs260r/assignment4/data/td3_agent_single/td3,125,-668.5598600864411,323145,179,2582.0968618392944,-102.74236297607422,100.53726959228516,38.527809143066406,0.0,-103.17439270019531,-102.68032836914062,-1.172224998474121
124,/Users/cjpark/Desktop/ucla_courses/cs260r/assignment4/data/td3_agent_single/td3,125,-668.5858976554871,326145,180,2597.326363801956,-94.78148651123047,92.2623519897461,45.34760284423828,0.0,-94.3260269165039,-95.65983581542969,-0.9762715101242065
125,/Users/cjpark/Desktop/ucla_courses/cs260r/assignment4/data/td3_agent_single/td3,125,-668.6020417022705,329145,181,2612.704329967499,-80.17220306396484,78.8236312866211,13.699176788330078,0.0,-79.40779113769531,-80.61481475830078,-0.3912777900695801
126,/Users/cjpark/Desktop/ucla_courses/cs260r/assignment4/data/td3_agent_single/td3,126,-668.6113335227966,332145,182,2627.990334033966,-83.8638687133789,82.1266860961914,37.512489318847656,0.0,-83.99667358398438,-83.5384750366211,-0.782310962677002
127,/Users/cjpark/Desktop/ucla_courses/cs260r/assignment4/data/td3_agent_single/td3,126,-668.6062545490265,335145,183,2643.337182044983,-75.425048828125,73.39144134521484,16.528066635131836,0.0,-74.96841430664062,-75.7621841430664,-0.19571569561958313
128,/Users/cjpark/Desktop/ucla_courses/cs260r/assignment4/data/td3_agent_single/td3,127,-668.6337335300445,338145,184,2658.6354150772095,-80.55355834960938,79.65057373046875,26.442602157592773,0.0,-80.77678680419922,-81.25981140136719,-0.5865035653114319
129,/Users/cjpark/Desktop/ucla_courses/cs260r/assignment4/data/td3_agent_single/td3,127,-668.6537943363189,341145,185,2673.899313926697,-74.48295593261719,73.4808120727539,72.47303009033203,0.0,-75.32215881347656,-74.98055267333984,-0.19995775818824768
130,/Users/cjpark/Desktop/ucla_courses/cs260r/assignment4/data/td3_agent_single/td3,127,-668.6727803993225,344145,186,2688.922116756439,-75.5711669921875,74.4636001586914,39.313438415527344,0.0,-75.7374267578125,-74.82247161865234,-0.5863771438598633
131,/Users/cjpark/Desktop/ucla_courses/cs260r/assignment4/data/td3_agent_single/td3,128,-610.6996362113953,347145,187,2704.1649889945984,-73.36265563964844,70.9548568725586,38.45658874511719,0.0,-73.21110534667969,-73.0115966796875,-1.3659617900848389
132,/Users/cjpark/Desktop/ucla_courses/cs260r/assignment4/data/td3_agent_single/td3,128,-80.70752039909362,350145,188,2719.7274560928345,-84.01435852050781,80.79988098144531,96.98870086669922,0.0,-84.1251220703125,-84.43951416015625,-1.7586311101913452
133,/Users/cjpark/Desktop/ucla_courses/cs260r/assignment4/data/td3_agent_single/td3,129,-80.71564793586731,353145,189,2734.8582220077515,-71.26887512207031,70.09901428222656,38.86915969848633,0.0,-70.8747329711914,-71.1329574584961,-0.7806928157806396
134,/Users/cjpark/Desktop/ucla_courses/cs260r/assignment4/data/td3_agent_single/td3,129,-80.73342726707459,356145,190,2750.1913437843323,-66.3093490600586,65.7447738647461,24.38214111328125,0.0,-66.69871520996094,-65.70307922363281,-0.9765966534614563
135,/Users/cjpark/Desktop/ucla_courses/cs260r/assignment4/data/td3_agent_single/td3,129,-80.7510055065155,359145,191,2765.5009360313416,-62.95114517211914,62.227264404296875,26.360034942626953,0.0,-63.72853088378906,-63.05531311035156,-0.5864282846450806
136,/Users/cjpark/Desktop/ucla_courses/cs260r/assignment4/data/td3_agent_single/td3,130,-80.80732703208923,362145,192,2780.6309509277344,-63.95574188232422,62.310672760009766,32.37599182128906,0.0,-63.99207305908203,-64.66834259033203,-0.3891349732875824
137,/Users/cjpark/Desktop/ucla_courses/cs260r/assignment4/data/td3_agent_single/td3,130,-80.8282863998413,365145,193,2796.0993390083313,-65.01512145996094,63.092811584472656,40.423213958740234,0.0,-64.08750915527344,-64.4791488647461,-0.7800430059432983
138,/Users/cjpark/Desktop/ucla_courses/cs260r/assignment4/data/td3_agent_single/td3,130,-80.88747517585755,368145,194,2811.5715630054474,-61.82733154296875,61.511131286621094,32.207862854003906,0.0,-63.536834716796875,-63.296573638916016,-0.19581249356269836
139,/Users/cjpark/Desktop/ucla_courses/cs260r/assignment4/data/td3_agent_single/td3,131,-80.95606716156006,371145,195,2827.0818679332733,-58.34989929199219,58.013343811035156,35.302635192871094,0.0,-58.90986633300781,-58.697364807128906,-1.1726826429367065
140,/Users/cjpark/Desktop/ucla_courses/cs260r/assignment4/data/td3_agent_single/td3,131,-279.49598903656005,374145,196,2842.40514588356,-61.4176025390625,60.61015319824219,17.87224578857422,0.0,-61.73649978637695,-61.96625900268555,-0.39138084650039673
141,/Users/cjpark/Desktop/ucla_courses/cs260r/assignment4/data/td3_agent_single/td3,131,-279.5144745731354,377145,197,2857.7208340168,-67.06753540039062,65.54185485839844,37.875370025634766,0.0,-67.09261322021484,-66.16241455078125,-1.171943187713623
142,/Users/cjpark/Desktop/ucla_courses/cs260r/assignment4/data/td3_agent_single/td3,132,-279.5538538265228,380145,198,2873.1808960437775,-72.15426635742188,69.6402587890625,30.96731948852539,0.0,-71.31295776367188,-72.04509735107422,-0.9763827919960022
143,/Users/cjpark/Desktop/ucla_courses/cs260r/assignment4/data/td3_agent_single/td3,132,-279.5706809139252,383145,199,2888.3108921051025,-71.31365203857422,69.99130249023438,30.14156723022461,0.0,-73.00222778320312,-72.821533203125,-0.5860223770141602
144,/Users/cjpark/Desktop/ucla_courses/cs260r/assignment4/data/td3_agent_single/td3,132,-279.5879687309265,386145,200,2903.9646830558777,-67.30450439453125,66.62318420410156,61.456787109375,0.0,-66.68155670166016,-67.01788330078125,-0.9768708944320679
145,/Users/cjpark/Desktop/ucla_courses/cs260r/assignment4/data/td3_agent_single/td3,133,-292.64038940429685,389145,201,2919.2212159633636,-76.67890167236328,75.11048126220703,77.1966781616211,0.0,-77.76312255859375,-76.79605865478516,-1.3672423362731934
146,/Users/cjpark/Desktop/ucla_courses/cs260r/assignment4/data/td3_agent_single/td3,133,-292.69400106430055,392145,202,2934.7804329395294,-65.03013610839844,64.00110626220703,44.02162170410156,0.0,-64.75952911376953,-64.72791290283203,-0.586014449596405
147,/Users/cjpark/Desktop/ucla_courses/cs260r/assignment4/data/td3_agent_single/td3,133,-292.7410106563568,395145,203,2949.9931240081787,-69.29359436035156,69.28584289550781,38.78964614868164,0.0,-70.2792739868164,-69.2716293334961,-0.7817672491073608
148,/Users/cjpark/Desktop/ucla_courses/cs260r/assignment4/data/td3_agent_single/td3,134,-292.7985062599182,398145,204,2965.295539855957,-68.42216491699219,67.8843994140625,26.246074676513672,0.0,-69.43804168701172,-70.13536071777344,-0.7819465398788452
149,/Users/cjpark/Desktop/ucla_courses/cs260r/assignment4/data/td3_agent_single/td3,134,-292.8593556499481,401145,205,2980.3344299793243,-64.05657196044922,62.160011291503906,24.857873916625977,0.0,-63.57756423950195,-64.52137756347656,-0.39113321900367737
150,/Users/cjpark/Desktop/ucla_courses/cs260r/assignment4/data/td3_agent_single/td3,134,-292.93117171764374,404145,206,2995.2112698554993,-58.78510284423828,58.05393981933594,49.04597473144531,0.0,-58.865264892578125,-58.05821228027344,-0.1955140233039856
151,/Users/cjpark/Desktop/ucla_courses/cs260r/assignment4/data/td3_agent_single/td3,135,-292.9903423166275,407145,207,3010.7193920612335,-68.84489440917969,67.36109924316406,60.37437438964844,0.0,-69.14845275878906,-69.4061279296875,-0.3904244005680084
152,/Users/cjpark/Desktop/ucla_courses/cs260r/assignment4/data/td3_agent_single/td3,135,-293.03682882785796,410145,208,3026.3783390522003,-74.8067398071289,72.28144073486328,42.522483825683594,0.0,-73.39054870605469,-74.27484893798828,-0.586255669593811
153,/Users/cjpark/Desktop/ucla_courses/cs260r/assignment4/data/td3_agent_single/td3,135,-293.08208549022675,413145,209,3041.6935710906982,-76.35435485839844,74.38482666015625,46.7390251159668,0.0,-76.00762939453125,-75.3116455078125,-1.368337869644165
154,/Users/cjpark/Desktop/ucla_courses/cs260r/assignment4/data/td3_agent_single/td3,136,-293.13322641849516,416145,210,3057.0849499702454,-72.00748443603516,70.7873306274414,29.170923233032227,0.0,-71.76080322265625,-72.08721160888672,-0.5855197906494141
155,/Users/cjpark/Desktop/ucla_courses/cs260r/assignment4/data/td3_agent_single/td3,136,-293.223043513298,419145,211,3072.5876989364624,-72.14147186279297,70.44882202148438,50.92672348022461,0.0,-70.74836730957031,-71.21343994140625,-0.3917211890220642
156,/Users/cjpark/Desktop/ucla_courses/cs260r/assignment4/data/td3_agent_single/td3,136,-293.3206653165817,422145,212,3087.9326269626617,-65.96033477783203,64.896484375,50.03064727783203,0.0,-66.96331787109375,-65.53838348388672,-0.7816877961158752
157,/Users/cjpark/Desktop/ucla_courses/cs260r/assignment4/data/td3_agent_single/td3,137,-293.41176985263826,425145,213,3103.0666399002075,-77.03797149658203,76.38107299804688,26.29839515686035,0.0,-77.81986999511719,-77.91295623779297,-0.38976579904556274
158,/Users/cjpark/Desktop/ucla_courses/cs260r/assignment4/data/td3_agent_single/td3,137,-293.5067373752594,428145,214,3119.774292945862,-75.93962860107422,74.62876892089844,123.5383071899414,0.0,-76.11288452148438,-76.85567474365234,-0.5872254967689514
159,/Users/cjpark/Desktop/ucla_courses/cs260r/assignment4/data/td3_agent_single/td3,137,-293.58727273464206,431145,215,3135.5366699695587,-69.5326156616211,68.27275085449219,92.38372802734375,0.0,-68.79812622070312,-69.0549087524414,-0.3901541233062744
160,/Users/cjpark/Desktop/ucla_courses/cs260r/assignment4/data/td3_agent_single/td3,137,-293.6559730911255,434145,216,3151.143555879593,-65.91545867919922,64.99752044677734,31.615005493164062,0.0,-66.3097152709961,-65.55714416503906,-0.3914104998111725
161,/Users/cjpark/Desktop/ucla_courses/cs260r/assignment4/data/td3_agent_single/td3,138,-293.74663947582246,437145,217,3166.5292868614197,-70.54145050048828,68.83061218261719,38.50468826293945,0.0,-70.29415130615234,-70.03532409667969,-0.1951504796743393
162,/Users/cjpark/Desktop/ucla_courses/cs260r/assignment4/data/td3_agent_single/td3,138,-293.81144669055936,440145,218,3182.376997947693,-72.27383422851562,69.9610824584961,118.356201171875,0.0,-73.65138244628906,-73.3896255493164,-0.5858503580093384
163,/Users/cjpark/Desktop/ucla_courses/cs260r/assignment4/data/td3_agent_single/td3,138,-293.8917588376999,443145,219,3197.7068338394165,-62.760719299316406,59.43894958496094,95.5575180053711,0.0,-63.15611267089844,-63.58303451538086,-0.5863180756568909
164,/Users/cjpark/Desktop/ucla_courses/cs260r/assignment4/data/td3_agent_single/td3,138,-293.95910413265227,446145,220,3213.686257839203,-65.70115661621094,63.05847930908203,112.59037780761719,0.0,-65.59529113769531,-65.38780212402344,-0.39126211404800415
165,/Users/cjpark/Desktop/ucla_courses/cs260r/assignment4/data/td3_agent_single/td3,139,-294.0359592485428,449145,221,3229.3067190647125,-67.83978271484375,64.43929290771484,48.20521926879883,0.0,-67.6054916381836,-68.26464080810547,-0.5865157842636108
166,/Users/cjpark/Desktop/ucla_courses/cs260r/assignment4/data/td3_agent_single/td3,139,-294.08529740810394,452145,222,3244.810579061508,-66.43563842773438,63.94630432128906,54.81622314453125,0.0,-65.90718078613281,-66.08968353271484,-0.7817169427871704
167,/Users/cjpark/Desktop/ucla_courses/cs260r/assignment4/data/td3_agent_single/td3,139,-294.14212863445283,455145,223,3260.2833819389343,-65.90656280517578,63.31125259399414,193.40335083007812,0.0,-65.04378509521484,-64.9160385131836,-0.3903847634792328
168,/Users/cjpark/Desktop/ucla_courses/cs260r/assignment4/data/td3_agent_single/td3,139,-294.22103421211244,458145,224,3275.810350894928,-59.878639221191406,56.81636428833008,199.96774291992188,0.0,-58.62511444091797,-58.917442321777344,-0.7815456390380859
169,/Users/cjpark/Desktop/ucla_courses/cs260r/assignment4/data/td3_agent_single/td3,140,-294.22630794525145,461145,225,3291.5987939834595,-62.11763381958008,59.983802795410156,98.77630615234375,0.0,-62.26530456542969,-62.19303894042969,-0.7817755341529846
170,/Users/cjpark/Desktop/ucla_courses/cs260r/assignment4/data/td3_agent_single/td3,140,-294.2487327384949,464145,226,3307.3392078876495,-65.6151123046875,63.59379577636719,41.51445007324219,0.0,-66.47522735595703,-66.28842163085938,-1.1729390621185303
171,/Users/cjpark/Desktop/ucla_courses/cs260r/assignment4/data/td3_agent_single/td3,140,-294.2698219776154,467145,227,3323.162969827652,-49.28691864013672,48.365318298339844,48.11190414428711,0.0,-49.886619567871094,-51.69219207763672,-0.19614838063716888
172,/Users/cjpark/Desktop/ucla_courses/cs260r/assignment4/data/td3_agent_single/td3,140,-294.30082960128783,470145,228,3338.8407759666443,-60.8121337890625,60.26715850830078,137.96963500976562,0.0,-61.13409423828125,-59.42047882080078,-0.7816954255104065
173,/Users/cjpark/Desktop/ucla_courses/cs260r/assignment4/data/td3_agent_single/td3,141,-294.31708550453186,473145,229,3354.3798558712006,-56.03044891357422,54.47709655761719,30.663463592529297,0.0,-55.851898193359375,-55.85634994506836,-0.39146512746810913
174,/Users/cjpark/Desktop/ucla_courses/cs260r/assignment4/data/td3_agent_single/td3,141,-294.3351364326477,476145,230,3370.043534040451,-77.04744720458984,74.63675689697266,245.3484344482422,0.0,-77.65388488769531,-77.21421813964844,-0.9776654243469238
175,/Users/cjpark/Desktop/ucla_courses/cs260r/assignment4/data/td3_agent_single/td3,141,-294.35874722480776,479145,231,3385.5886290073395,-55.9576416015625,53.1246452331543,32.68107986450195,0.0,-56.16913986206055,-55.23919677734375,-0.9774149656295776
176,/Users/cjpark/Desktop/ucla_courses/cs260r/assignment4/data/td3_agent_single/td3,141,-294.3699960708618,482145,232,3401.2509908676147,-46.98854064941406,45.53277587890625,186.25765991210938,0.0,-47.882240295410156,-46.96401596069336,-0.0005844011902809143
177,/Users/cjpark/Desktop/ucla_courses/cs260r/assignment4/data/td3_agent_single/td3,141,-294.38857193946836,485145,233,3417.0126440525055,-53.92827606201172,52.77363204956055,113.22639465332031,0.0,-54.478111267089844,-52.948028564453125,-0.9767230749130249
178,/Users/cjpark/Desktop/ucla_courses/cs260r/assignment4/data/td3_agent_single/td3,142,-294.39846336364747,488145,234,3432.242588996887,-74.74505615234375,71.02000427246094,52.48970413208008,0.0,-72.47479248046875,-74.23011779785156,-0.5861907005310059
179,/Users/cjpark/Desktop/ucla_courses/cs260r/assignment4/data/td3_agent_single/td3,142,-294.4232562923431,491145,235,3447.9751801490784,-65.3355712890625,62.66314697265625,66.8369140625,0.0,-66.00274658203125,-66.56004333496094,-0.7814132571220398
180,/Users/cjpark/Desktop/ucla_courses/cs260r/assignment4/data/td3_agent_single/td3,142,-294.4398488903046,494145,236,3463.349774122238,-52.048954010009766,51.11389923095703,32.20454406738281,0.0,-51.44892883300781,-51.2564811706543,7.662177085876465e-05
181,/Users/cjpark/Desktop/ucla_courses/cs260r/assignment4/data/td3_agent_single/td3,142,-294.45428677558897,497145,237,3479.140983104706,-56.52167892456055,55.39673614501953,60.254676818847656,0.0,-56.62845993041992,-55.472999572753906,-0.5864434242248535
182,/Users/cjpark/Desktop/ucla_courses/cs260r/assignment4/data/td3_agent_single/td3,143,-294.4788215446472,500145,238,3494.5004098415375,-58.58955764770508,57.591270446777344,95.56413269042969,0.0,-58.81239700317383,-57.84941482543945,-0.5860655307769775
183,/Users/cjpark/Desktop/ucla_courses/cs260r/assignment4/data/td3_agent_single/td3,143,-294.49849353790285,503145,239,3510.3335218429565,-58.917354583740234,58.33195877075195,47.73641586303711,0.0,-58.48249816894531,-57.87649154663086,-0.0009744763374328613
184,/Users/cjpark/Desktop/ucla_courses/cs260r/assignment4/data/td3_agent_single/td3,143,-294.5177587890625,506145,240,3526.2982630729675,-59.40032196044922,56.842872619628906,63.787391662597656,0.0,-59.14789962768555,-60.08619689941406,-0.0007507838308811188
185,/Users/cjpark/Desktop/ucla_courses/cs260r/assignment4/data/td3_agent_single/td3,143,-294.5432668495178,509145,241,3541.703752040863,-80.12382507324219,76.81865692138672,186.5925750732422,0.0,-78.72952270507812,-80.04132843017578,-0.19647470116615295
186,/Users/cjpark/Desktop/ucla_courses/cs260r/assignment4/data/td3_agent_single/td3,143,-294.6011243247986,512145,242,3557.0973110198975,-69.04304504394531,65.96284484863281,276.06646728515625,0.0,-68.2747573852539,-68.84719848632812,-0.39103031158447266
187,/Users/cjpark/Desktop/ucla_courses/cs260r/assignment4/data/td3_agent_single/td3,144,-294.6453748893738,515145,243,3572.414034843445,-77.26892852783203,74.88800811767578,224.94845581054688,0.0,-77.5422592163086,-78.91963958740234,-0.5859395265579224
188,/Users/cjpark/Desktop/ucla_courses/cs260r/assignment4/data/td3_agent_single/td3,144,-294.65510763168334,518145,244,3587.547476053238,-60.48517608642578,58.81896209716797,238.9529571533203,0.0,-59.991004943847656,-60.80577850341797,-0.1961805671453476
189,/Users/cjpark/Desktop/ucla_courses/cs260r/assignment4/data/td3_agent_single/td3,144,-294.6692628002167,521145,245,3602.792428970337,-71.56977081298828,70.04109954833984,337.3706970214844,0.0,-72.20695495605469,-72.30929565429688,-0.1964445561170578
190,/Users/cjpark/Desktop/ucla_courses/cs260r/assignment4/data/td3_agent_single/td3,144,-294.68835220336916,524145,246,3618.310404777527,-67.97400665283203,66.78363037109375,87.61564636230469,0.0,-68.86054992675781,-68.93331909179688,-0.3911052644252777
191,/Users/cjpark/Desktop/ucla_courses/cs260r/assignment4/data/td3_agent_single/td3,145,-294.71028732299806,527145,247,3633.693498849869,-75.22441101074219,74.02603912353516,224.44873046875,0.0,-75.96404266357422,-75.64533233642578,-0.39546340703964233
192,/Users/cjpark/Desktop/ucla_courses/cs260r/assignment4/data/td3_agent_single/td3,145,-294.7333291244507,530145,248,3649.1607270240784,-75.33281707763672,72.59823608398438,95.31112670898438,0.0,-75.96588897705078,-75.44187927246094,-0.5864382982254028
193,/Users/cjpark/Desktop/ucla_courses/cs260r/assignment4/data/td3_agent_single/td3,145,-294.75622093200684,533145,249,3664.5267798900604,-86.42396545410156,84.15275573730469,40.71723556518555,0.0,-86.88250732421875,-86.46578979492188,-0.9762335419654846
194,/Users/cjpark/Desktop/ucla_courses/cs260r/assignment4/data/td3_agent_single/td3,145,-294.7767225551605,536145,250,3680.075210094452,-61.48719787597656,60.41202163696289,33.68932342529297,0.0,-61.99871063232422,-61.769798278808594,-0.3916465640068054
195,/Users/cjpark/Desktop/ucla_courses/cs260r/assignment4/data/td3_agent_single/td3,145,-294.83787410736085,539145,251,3695.4817140102386,-86.18054962158203,85.72704315185547,392.4875183105469,0.0,-86.76510620117188,-86.13078308105469,-0.3912326395511627
196,/Users/cjpark/Desktop/ucla_courses/cs260r/assignment4/data/td3_agent_single/td3,146,-294.86231046676636,542145,252,3710.8828489780426,-65.5008773803711,64.5894546508789,17.025693893432617,0.0,-64.78292083740234,-63.928775787353516,-0.0010399706661701202
197,/Users/cjpark/Desktop/ucla_courses/cs260r/assignment4/data/td3_agent_single/td3,146,-294.8848518562317,545145,253,3726.534560918808,-67.96730041503906,65.92364501953125,47.672149658203125,0.0,-67.30818176269531,-67.06922149658203,-0.39141809940338135
198,/Users/cjpark/Desktop/ucla_courses/cs260r/assignment4/data/td3_agent_single/td3,146,-294.9083078479767,548145,254,3742.1877930164337,-76.20933532714844,76.09915161132812,54.408203125,0.0,-77.49652099609375,-76.05918884277344,-0.5859867930412292
199,/Users/cjpark/Desktop/ucla_courses/cs260r/assignment4/data/td3_agent_single/td3,146,-294.93068427085876,551145,255,3757.43151307106,-70.00914001464844,69.29979705810547,55.638084411621094,0.0,-70.72775268554688,-70.31092834472656,-0.3911076784133911
200,/Users/cjpark/Desktop/ucla_courses/cs260r/assignment4/data/td3_agent_single/td3,146,-294.9426502609253,554145,256,3772.965125799179,-75.75382995605469,75.61528015136719,26.135181427001953,0.0,-77.43305206298828,-76.80586242675781,-0.7823559641838074
201,/Users/cjpark/Desktop/ucla_courses/cs260r/assignment4/data/td3_agent_single/td3,147,-294.9608033466339,557145,257,3788.268082857132,-60.20425033569336,57.16816711425781,40.966888427734375,0.0,-59.84883117675781,-60.602813720703125,-0.1946222186088562
202,/Users/cjpark/Desktop/ucla_courses/cs260r/assignment4/data/td3_agent_single/td3,147,-294.9813698387146,560145,258,3803.8834199905396,-68.4146957397461,64.95352172851562,48.247467041015625,0.0,-67.38629150390625,-68.91913604736328,-0.3911367356777191
203,/Users/cjpark/Desktop/ucla_courses/cs260r/assignment4/data/td3_agent_single/td3,147,-295.00414504051207,562566,259,3816.3315258026123,-62.02272415161133,,30.690689086914062,0.0,-61.367679595947266,-61.880584716796875,-0.19565421342849731
204,/Users/cjpark/Desktop/ucla_courses/cs260r/assignment4/data/td3_agent_single/td3,147,-295.05786049842834,565668,262,3833.117050886154,-67.3299789428711,,40.90369415283203,0.0,-66.70458221435547,-68.2940673828125,-0.7816664576530457
205,/Users/cjpark/Desktop/ucla_courses/cs260r/assignment4/data/td3_agent_single/td3,147,-295.1075182533264,568072,265,3846.00004696846,-64.76771545410156,,78.21312713623047,0.0,-67.54483032226562,-67.52821350097656,-0.39135071635246277
206,/Users/cjpark/Desktop/ucla_courses/cs260r/assignment4/data/td3_agent_single/td3,147,-295.12913046836854,569599,266,3853.8877260684967,-67.80390167236328,66.9989242553711,93.49394989013672,0.0,-67.11827850341797,-66.80847930908203,-0.3908878564834595
207,/Users/cjpark/Desktop/ucla_courses/cs260r/assignment4/data/td3_agent_single/td3,147,-295.1520637893677,571412,267,3863.292419910431,-46.562522888183594,,14.030738830566406,0.0,-46.734806060791016,-46.122528076171875,-0.0009100763127207756
208,/Users/cjpark/Desktop/ucla_courses/cs260r/assignment4/data/td3_agent_single/td3,148,-295.1860957431793,573521,268,3874.571177959442,-57.90758514404297,56.586341857910156,48.39378356933594,0.0,-58.70123291015625,-59.072105407714844,-0.19596870243549347
209,/Users/cjpark/Desktop/ucla_courses/cs260r/assignment4/data/td3_agent_single/td3,148,-295.214702091217,576521,269,3889.907510995865,-65.17019653320312,62.80057144165039,827.1060180664062,0.0,-65.84388732910156,-66.79130554199219,-0.1998399943113327
210,/Users/cjpark/Desktop/ucla_courses/cs260r/assignment4/data/td3_agent_single/td3,148,-295.217155046463,579521,270,3905.6666049957275,-56.37976837158203,55.152732849121094,37.01923370361328,0.0,-57.25532531738281,-57.33926773071289,-0.3904646933078766
211,/Users/cjpark/Desktop/ucla_courses/cs260r/assignment4/data/td3_agent_single/td3,148,-295.2117043876648,582521,271,3921.165123939514,-60.89009094238281,59.403968811035156,50.15654754638672,0.0,-61.552982330322266,-61.41149139404297,0.0004573483020067215
212,/Users/cjpark/Desktop/ucla_courses/cs260r/assignment4/data/td3_agent_single/td3,148,-214.70357301712036,585521,272,3936.947855949402,-63.80429458618164,60.10426330566406,29.302583694458008,0.0,-62.91948318481445,-64.20366668701172,-0.39131876826286316
213,/Users/cjpark/Desktop/ucla_courses/cs260r/assignment4/data/td3_agent_single/td3,148,-214.66195204734802,588521,273,3952.4048252105713,-56.56986999511719,54.835838317871094,240.00390625,0.0,-55.696102142333984,-56.08971405029297,-0.1951376497745514
214,/Users/cjpark/Desktop/ucla_courses/cs260r/assignment4/data/td3_agent_single/td3,149,-214.61061803817748,591521,274,3968.006634950638,-58.13908386230469,57.589881896972656,82.48139190673828,0.0,-57.37336349487305,-57.99089050292969,-0.19521521031856537
215,/Users/cjpark/Desktop/ucla_courses/cs260r/assignment4/data/td3_agent_single/td3,149,-214.58459005355834,594521,275,3983.6114590168,-50.733428955078125,49.269222259521484,23.899036407470703,0.0,-51.80412292480469,-52.10169982910156,-0.390482097864151
216,/Users/cjpark/Desktop/ucla_courses/cs260r/assignment4/data/td3_agent_single/td3,149,-214.5429386138916,597521,276,3999.5172140598297,-64.2132568359375,62.39228820800781,25.49826431274414,0.0,-63.93592834472656,-63.563873291015625,-0.5872560739517212
217,/Users/cjpark/Desktop/ucla_courses/cs260r/assignment4/data/td3_agent_single/td3,149,-214.517442483902,600521,277,4015.1245698928833,-61.261810302734375,59.50004196166992,25.873554229736328,0.0,-60.71589660644531,-60.68610382080078,-0.19640405476093292
218,/Users/cjpark/Desktop/ucla_courses/cs260r/assignment4/data/td3_agent_single/td3,149,-214.48760915756225,603521,278,4030.8490018844604,-56.73650360107422,55.76860046386719,23.789087295532227,0.0,-57.3697395324707,-57.594268798828125,-0.3916383385658264
219,/Users/cjpark/Desktop/ucla_courses/cs260r/assignment4/data/td3_agent_single/td3,149,-214.4339131259918,606521,279,4046.4045860767365,-49.98381042480469,49.30248260498047,46.89007568359375,0.0,-50.83652114868164,-48.94162368774414,-0.19561830163002014
220,/Users/cjpark/Desktop/ucla_courses/cs260r/assignment4/data/td3_agent_single/td3,150,-214.41772482872008,609521,280,4062.161409139633,-47.234161376953125,44.37895202636719,43.25926971435547,0.0,-46.45627975463867,-47.209571838378906,-0.19555401802062988
221,/Users/cjpark/Desktop/ucla_courses/cs260r/assignment4/data/td3_agent_single/td3,150,-214.39382374763488,612521,281,4077.7755048274994,-53.76152801513672,53.52640151977539,34.131690979003906,0.0,-53.83518981933594,-53.62159729003906,-0.3912704586982727
222,/Users/cjpark/Desktop/ucla_courses/cs260r/assignment4/data/td3_agent_single/td3,150,-214.39289256095887,615521,282,4093.6506440639496,-62.63142395019531,60.842018127441406,53.59483337402344,0.0,-61.13850402832031,-62.03133010864258,-0.19610810279846191
223,/Users/cjpark/Desktop/ucla_courses/cs260r/assignment4/data/td3_agent_single/td3,150,-214.395136384964,618521,283,4109.230803966522,-51.62659454345703,49.89677429199219,37.80792236328125,0.0,-50.963836669921875,-51.38880157470703,-0.3908255696296692
224,/Users/cjpark/Desktop/ucla_courses/cs260r/assignment4/data/td3_agent_single/td3,150,-214.3704887676239,621521,284,4124.865062952042,-54.65547561645508,53.53432083129883,138.97525024414062,0.0,-55.846519470214844,-55.14646911621094,-0.9812588691711426
225,/Users/cjpark/Desktop/ucla_courses/cs260r/assignment4/data/td3_agent_single/td3,150,-214.35940992355347,624521,285,4140.316076040268,-46.755916595458984,45.647796630859375,15.132570266723633,0.0,-47.660606384277344,-47.339752197265625,-0.3916340470314026
226,/Users/cjpark/Desktop/ucla_courses/cs260r/assignment4/data/td3_agent_single/td3,150,-214.34741852760314,627521,286,4156.058392047882,-39.95816421508789,38.744117736816406,34.62080383300781,0.0,-39.26364517211914,-39.54008102416992,-0.0009075794368982315
227,/Users/cjpark/Desktop/ucla_courses/cs260r/assignment4/data/td3_agent_single/td3,151,-214.31394110679628,630521,287,4171.818521022797,-55.725303649902344,52.94435501098633,34.36435317993164,0.0,-55.35464096069336,-54.59558868408203,-0.5868525505065918
228,/Users/cjpark/Desktop/ucla_courses/cs260r/assignment4/data/td3_agent_single/td3,151,-214.29908062934877,633521,288,4187.530913114548,-58.0894660949707,55.95894241333008,93.30766296386719,0.0,-56.490089416503906,-58.6669807434082,-0.39536285400390625
229,/Users/cjpark/Desktop/ucla_courses/cs260r/assignment4/data/td3_agent_single/td3,151,-214.26386672973632,634944,289,4195.1762528419495,-48.0551643371582,,16.335372924804688,0.0,-47.513465881347656,-47.319705963134766,-0.5867959260940552
230,/Users/cjpark/Desktop/ucla_courses/cs260r/assignment4/data/td3_agent_single/td3,151,-214.21440495491026,637944,290,4210.629729986191,-62.78226089477539,,44.361873626708984,0.0,-62.774024963378906,-62.507545471191406,-1.173125982284546
231,/Users/cjpark/Desktop/ucla_courses/cs260r/assignment4/data/td3_agent_single/td3,151,-214.2183212661743,640944,291,4226.452313184738,-75.36715698242188,,36.05157470703125,0.0,-74.44168853759766,-75.76860809326172,-0.7813469767570496
232,/Users/cjpark/Desktop/ucla_courses/cs260r/assignment4/data/td3_agent_single/td3,151,-214.1950985145569,643944,292,4241.83229804039,-61.60905838012695,,60.283111572265625,0.0,-62.548580169677734,-61.97406768798828,-0.39131462574005127
233,/Users/cjpark/Desktop/ucla_courses/cs260r/assignment4/data/td3_agent_single/td3,151,-214.20749541282655,646944,293,4257.827307939529,-54.553184509277344,,145.37486267089844,0.0,-54.92977523803711,-53.907875061035156,-0.39151760935783386
234,/Users/cjpark/Desktop/ucla_courses/cs260r/assignment4/data/td3_agent_single/td3,152,-214.2204407978058,649944,294,4273.219524860382,-54.725379943847656,,28.70452117919922,0.0,-54.668060302734375,-55.393646240234375,-0.39104315638542175
235,/Users/cjpark/Desktop/ucla_courses/cs260r/assignment4/data/td3_agent_single/td3,152,-214.2259767770767,652944,295,4289.04811501503,-49.35218811035156,,167.46954345703125,0.0,-50.407806396484375,-49.52614212036133,-0.19559574127197266
236,/Users/cjpark/Desktop/ucla_courses/cs260r/assignment4/data/td3_agent_single/td3,152,-15.693328967094422,655944,296,4304.357232809067,-43.41718292236328,,13.640864372253418,0.0,-43.68230056762695,-42.8087158203125,-0.5869259834289551
237,/Users/cjpark/Desktop/ucla_courses/cs260r/assignment4/data/td3_agent_single/td3,152,-15.71007520198822,658944,297,4319.9739689826965,-50.60686111450195,,23.010679244995117,0.0,-51.1127815246582,-50.73981475830078,-0.0008699372410774231
238,/Users/cjpark/Desktop/ucla_courses/cs260r/assignment4/data/td3_agent_single/td3,152,-15.585189919471741,661234,298,4331.94011592865,-47.124244689941406,,64.81917572021484,0.0,-44.47145080566406,-46.728755950927734,-0.19633236527442932
239,/Users/cjpark/Desktop/ucla_courses/cs260r/assignment4/data/td3_agent_single/td3,152,-15.590851655006409,664234,299,4347.679354906082,-53.946189880371094,,39.17817687988281,0.0,-52.411224365234375,-53.461456298828125,-0.3903767764568329
240,/Users/cjpark/Desktop/ucla_courses/cs260r/assignment4/data/td3_agent_single/td3,152,-15.585547337532043,667234,300,4363.073586940765,-46.768795013427734,,42.86542510986328,0.0,-45.881412506103516,-45.932037353515625,-0.3902081549167633
241,/Users/cjpark/Desktop/ucla_courses/cs260r/assignment4/data/td3_agent_single/td3,153,-2.5424673128128052,670234,301,4378.653010845184,-40.59025573730469,,27.50713348388672,0.0,-40.92387008666992,-40.774845123291016,-0.19562630355358124
242,/Users/cjpark/Desktop/ucla_courses/cs260r/assignment4/data/td3_agent_single/td3,153,-2.515727410316467,671764,302,4386.588891983032,-44.930450439453125,,29.333770751953125,0.0,-46.03962326049805,-46.14601135253906,-0.7819865345954895
243,/Users/cjpark/Desktop/ucla_courses/cs260r/assignment4/data/td3_agent_single/td3,153,-2.4710948514938353,674764,303,4401.782887935638,-52.28269958496094,,26.69487762451172,0.0,-51.9383659362793,-52.04646301269531,-0.5860903263092041
244,/Users/cjpark/Desktop/ucla_courses/cs260r/assignment4/data/td3_agent_single/td3,153,-2.4232596826553343,677764,304,4417.412037849426,-65.39825439453125,,102.90420532226562,0.0,-67.74569702148438,-65.29988098144531,-0.7820470929145813
245,/Users/cjpark/Desktop/ucla_courses/cs260r/assignment4/data/td3_agent_single/td3,153,-2.3465069246292116,680764,305,4432.9431800842285,-42.64482498168945,,26.029888153076172,0.0,-42.466331481933594,-42.047096252441406,-0.0005565676838159561
246,/Users/cjpark/Desktop/ucla_courses/cs260r/assignment4/data/td3_agent_single/td3,153,-2.2889697647094724,683764,306,4448.523970127106,-53.12975311279297,,44.13398742675781,0.0,-53.59320068359375,-54.13359832763672,-0.5859708786010742
247,/Users/cjpark/Desktop/ucla_courses/cs260r/assignment4/data/td3_agent_single/td3,153,-2.2376888275146483,686764,307,4463.91090297699,-37.52237319946289,,17.631635665893555,0.0,-37.70661544799805,-37.461090087890625,-0.39158713817596436
248,/Users/cjpark/Desktop/ucla_courses/cs260r/assignment4/data/td3_agent_single/td3,153,-2.1846702098846436,689764,308,4479.362277984619,-49.11207962036133,,115.84273529052734,0.0,-46.41242599487305,-46.672569274902344,-0.7820320129394531
249,/Users/cjpark/Desktop/ucla_courses/cs260r/assignment4/data/td3_agent_single/td3,154,-2.1342170429229737,692764,309,4494.939614057541,-47.635520935058594,,101.12940979003906,0.0,-46.657501220703125,-46.85407257080078,-0.004480335861444473
250,/Users/cjpark/Desktop/ucla_courses/cs260r/assignment4/data/td3_agent_single/td3,154,-2.093077793121338,695764,310,4510.373597860336,-44.717811584472656,,25.507457733154297,0.0,-45.246055603027344,-45.32354736328125,-0.0005358587950468063
251,/Users/cjpark/Desktop/ucla_courses/cs260r/assignment4/data/td3_agent_single/td3,154,-1.8617181587219238,698764,311,4525.457045078278,-42.786651611328125,,80.74248504638672,0.0,-40.82402038574219,-42.75529479980469,-0.0004717763513326645
252,/Users/cjpark/Desktop/ucla_courses/cs260r/assignment4/data/td3_agent_single/td3,154,-1.7857252502441405,701764,312,4540.786962985992,-45.667293548583984,,128.5403594970703,0.0,-45.79758071899414,-46.21714782714844,-0.195328950881958
253,/Users/cjpark/Desktop/ucla_courses/cs260r/assignment4/data/td3_agent_single/td3,154,-1.722024555206299,704764,313,4555.950158834457,-55.879730224609375,,210.1807861328125,0.0,-55.0333366394043,-55.8532600402832,-0.19530518352985382
254,/Users/cjpark/Desktop/ucla_courses/cs260r/assignment4/data/td3_agent_single/td3,154,-1.6010312509536744,707764,314,4571.556263923645,-53.07074737548828,,166.07081604003906,0.0,-53.51298141479492,-52.80320739746094,-0.1952919214963913
255,/Users/cjpark/Desktop/ucla_courses/cs260r/assignment4/data/td3_agent_single/td3,154,-1.528209457397461,710764,315,4587.009971857071,-43.034156799316406,,93.83772277832031,0.0,-43.351356506347656,-42.06019973754883,-0.3907916843891144
256,/Users/cjpark/Desktop/ucla_courses/cs260r/assignment4/data/td3_agent_single/td3,155,-1.4647548151016236,713764,316,4602.308708190918,-46.925479888916016,,61.817813873291016,0.0,-47.682064056396484,-47.14852523803711,-0.19604533910751343
257,/Users/cjpark/Desktop/ucla_courses/cs260r/assignment4/data/td3_agent_single/td3,155,-1.301022024154663,716764,317,4617.827636003494,-54.26139831542969,,490.9254150390625,0.0,-53.46022033691406,-54.87651062011719,-0.3911134898662567
258,/Users/cjpark/Desktop/ucla_courses/cs260r/assignment4/data/td3_agent_single/td3,155,-1.2434644508361816,719764,318,4633.358873844147,-59.53987503051758,,399.8910827636719,0.0,-58.69978332519531,-58.68344497680664,-0.19461387395858765
259,/Users/cjpark/Desktop/ucla_courses/cs260r/assignment4/data/td3_agent_single/td3,155,-1.1708073902130127,722764,319,4648.615870952606,-66.79515838623047,,73.1572265625,0.0,-66.62294006347656,-65.86298370361328,-0.3907018005847931
260,/Users/cjpark/Desktop/ucla_courses/cs260r/assignment4/data/td3_agent_single/td3,155,-1.1132276058197021,725764,320,4664.546240091324,-55.38925552368164,,44.715599060058594,0.0,-55.63480758666992,-56.08583068847656,-0.1961602419614792
261,/Users/cjpark/Desktop/ucla_courses/cs260r/assignment4/data/td3_agent_single/td3,155,-1.0518512439727783,728764,321,4680.179254055023,-51.319427490234375,,29.520355224609375,0.0,-49.803096771240234,-51.52918243408203,-0.39135849475860596
262,/Users/cjpark/Desktop/ucla_courses/cs260r/assignment4/data/td3_agent_single/td3,155,-1.0150393390655517,731764,322,4698.928375959396,-44.49149703979492,,24.136653900146484,0.0,-43.07978057861328,-44.32390213012695,-0.3911302089691162
263,/Users/cjpark/Desktop/ucla_courses/cs260r/assignment4/data/td3_agent_single/td3,155,-0.9767974185943603,734041,323,4710.791404008865,-69.26563262939453,67.10625457763672,60.8558349609375,0.0,-71.15641784667969,-71.42306518554688,-0.5865104794502258
264,/Users/cjpark/Desktop/ucla_courses/cs260r/assignment4/data/td3_agent_single/td3,155,-0.8689666986465454,737041,324,4725.9739818573,-66.47543334960938,64.17691040039062,106.5412368774414,0.0,-66.45874786376953,-66.15983581542969,-1.1721044778823853
265,/Users/cjpark/Desktop/ucla_courses/cs260r/assignment4/data/td3_agent_single/td3,155,-0.9283298063278198,740041,325,4763.0567281246185,-59.54533767700195,57.35726547241211,145.92286682128906,0.0,-59.008544921875,-60.76702880859375,-0.00022967904806137085
266,/Users/cjpark/Desktop/ucla_courses/cs260r/assignment4/data/td3_agent_single/td3,155,-0.9315466451644897,742215,326,4774.608622074127,-66.00559997558594,62.76097106933594,58.37895202636719,0.0,-63.701690673828125,-64.73139953613281,-0.5860888361930847
267,/Users/cjpark/Desktop/ucla_courses/cs260r/assignment4/data/td3_agent_single/td3,155,-0.9383114671707153,745173,327,4789.677361965179,-59.89087677001953,58.5031852722168,44.29499435424805,0.0,-60.89728546142578,-60.42120361328125,-0.19609735906124115
268,/Users/cjpark/Desktop/ucla_courses/cs260r/assignment4/data/td3_agent_single/td3,150,-0.9406178712844848,748173,328,4966.855413913727,-75.75155639648438,73.34839630126953,227.24124145507812,0.0,-76.5948486328125,-76.71762084960938,-0.7806593179702759
269,/Users/cjpark/Desktop/ucla_courses/cs260r/assignment4/data/td3_agent_single/td3,150,-0.9564773511886596,751173,329,4982.136878967285,-65.04582214355469,63.214820861816406,845.4713745117188,0.0,-64.48576354980469,-63.925350189208984,-0.3905099630355835
270,/Users/cjpark/Desktop/ucla_courses/cs260r/assignment4/data/td3_agent_single/td3,150,-0.9812157487869263,754173,330,4997.7795078754425,-46.513240814208984,44.77587890625,24.870561599731445,0.0,-47.10432052612305,-47.43690490722656,-0.0004644002765417099
271,/Users/cjpark/Desktop/ucla_courses/cs260r/assignment4/data/td3_agent_single/td3,150,-1.0045937299728394,757173,331,5032.748641014099,-74.4238052368164,70.38297271728516,77.0548095703125,0.0,-73.12451171875,-74.44540405273438,-0.39057657122612
272,/Users/cjpark/Desktop/ucla_courses/cs260r/assignment4/data/td3_agent_single/td3,150,-1.0369831037521362,760173,332,5048.237056970596,-57.82032012939453,55.71525573730469,44.6087646484375,0.0,-58.712059020996094,-58.94800567626953,-7.12461769580841e-05
273,/Users/cjpark/Desktop/ucla_courses/cs260r/assignment4/data/td3_agent_single/td3,150,-1.0385864496231079,761212,333,5053.655924081802,-57.48381805419922,,41.945762634277344,0.0,-59.389461517333984,-59.693824768066406,-0.00027508288621902466
274,/Users/cjpark/Desktop/ucla_courses/cs260r/assignment4/data/td3_agent_single/td3,150,-1.0815303087234498,764212,334,5068.845753908157,-56.46087646484375,,43.57843017578125,0.0,-55.44980239868164,-55.45720672607422,-0.19562853872776031
275,/Users/cjpark/Desktop/ucla_courses/cs260r/assignment4/data/td3_agent_single/td3,150,-1.0952422094345093,767212,335,5094.384636878967,-71.14208221435547,,52.151336669921875,0.0,-71.50845336914062,-70.75662231445312,-0.5862728953361511
276,/Users/cjpark/Desktop/ucla_courses/cs260r/assignment4/data/td3_agent_single/td3,150,-1.1295594549179078,770212,336,5110.05507516861,-59.88419723510742,,49.35466003417969,0.0,-59.34294891357422,-58.30299377441406,-0.3911549150943756
277,/Users/cjpark/Desktop/ucla_courses/cs260r/assignment4/data/td3_agent_single/td3,150,-1.1607045698165894,773212,337,5125.322558879852,-72.36225891113281,,288.896484375,0.0,-72.7449951171875,-73.5510025024414,-0.19556012749671936
278,/Users/cjpark/Desktop/ucla_courses/cs260r/assignment4/data/td3_agent_single/td3,150,-1.1673869276046753,776212,338,5141.291395187378,-67.77119445800781,,79.0584487915039,0.0,-65.42607116699219,-65.99964141845703,-0.7817006707191467
279,/Users/cjpark/Desktop/ucla_courses/cs260r/assignment4/data/td3_agent_single/td3,151,-1.1346669149398805,779884,340,5160.327914953232,-68.08731079101562,,77.75831604003906,0.0,-66.09963989257812,-66.55943298339844,-0.19501899182796478
280,/Users/cjpark/Desktop/ucla_courses/cs260r/assignment4/data/td3_agent_single/td3,151,-1.1190186071395873,780314,341,5162.840574979782,-80.84114074707031,,78.37281036376953,0.0,-79.27033233642578,-81.07146453857422,-0.19532416760921478
281,/Users/cjpark/Desktop/ucla_courses/cs260r/assignment4/data/td3_agent_single/td3,151,-1.0626317930221558,783314,342,5178.332690954208,-73.34672546386719,,72.8702163696289,0.0,-73.39263153076172,-74.17942810058594,-0.5867799520492554
282,/Users/cjpark/Desktop/ucla_courses/cs260r/assignment4/data/td3_agent_single/td3,149,-1.0576455450057984,786314,343,5257.329101085663,-68.08723449707031,,26.326637268066406,0.0,-67.94453430175781,-68.1261978149414,-0.3913474977016449
283,/Users/cjpark/Desktop/ucla_courses/cs260r/assignment4/data/td3_agent_single/td3,149,-1.0896705198287964,789314,344,5272.628059864044,-53.34113693237305,,47.86759567260742,0.0,-54.318965911865234,-53.694759368896484,-6.369873881340027e-05
284,/Users/cjpark/Desktop/ucla_courses/cs260r/assignment4/data/td3_agent_single/td3,149,-1.0529267740249635,792314,345,5288.0201988220215,-72.37577056884766,,26.689388275146484,0.0,-72.09880828857422,-72.38401794433594,-0.1959918737411499
285,/Users/cjpark/Desktop/ucla_courses/cs260r/assignment4/data/td3_agent_single/td3,145,-1.0717116785049439,795314,346,5466.733111143112,-69.76896667480469,,57.99012756347656,0.0,-69.70661926269531,-70.85031127929688,-0.5859476923942566
286,/Users/cjpark/Desktop/ucla_courses/cs260r/assignment4/data/td3_agent_single/td3,145,-1.0725654172897339,798314,347,5482.1631491184235,-56.52250671386719,,47.41847229003906,0.0,-57.245765686035156,-56.61296463012695,0.0004158802330493927
287,/Users/cjpark/Desktop/ucla_courses/cs260r/assignment4/data/td3_agent_single/td3,145,-1.078742127418518,801314,348,5497.678642988205,-63.45928955078125,,50.9671630859375,0.0,-62.11265182495117,-63.0697135925293,-0.3910754919052124
288,/Users/cjpark/Desktop/ucla_courses/cs260r/assignment4/data/td3_agent_single/td3,144,-1.0927574396133424,804314,349,5559.381598949432,-71.84918212890625,,191.0787353515625,0.0,-72.19190979003906,-72.23826599121094,-0.781913161277771
289,/Users/cjpark/Desktop/ucla_courses/cs260r/assignment4/data/td3_agent_single/td3,144,-1.100902132987976,807314,350,5574.527662038803,-71.80435180664062,,50.36516571044922,0.0,-70.42340850830078,-70.07830810546875,-0.5858629941940308
290,/Users/cjpark/Desktop/ucla_courses/cs260r/assignment4/data/td3_agent_single/td3,144,-1.0656206846237182,810314,351,5590.175525903702,-66.69524383544922,,40.46751403808594,0.0,-67.30256652832031,-66.57443237304688,-0.0005476344376802444
291,/Users/cjpark/Desktop/ucla_courses/cs260r/assignment4/data/td3_agent_single/td3,128,-3.5155578660964966,813314,352,6323.366857051849,-66.01847076416016,,62.133975982666016,0.0,-66.58563995361328,-66.71855926513672,-0.1947849839925766
292,/Users/cjpark/Desktop/ucla_courses/cs260r/assignment4/data/td3_agent_single/td3,128,-3.4945575380325318,816314,353,6339.948900938034,-59.75061798095703,,25.911739349365234,0.0,-58.96965789794922,-58.822227478027344,-0.19517825543880463
293,/Users/cjpark/Desktop/ucla_courses/cs260r/assignment4/data/td3_agent_single/td3,128,-3.474903883934021,819314,354,6356.3700449466705,-72.48640441894531,,43.359222412109375,0.0,-73.6427001953125,-73.42623138427734,-0.5868779420852661
294,/Users/cjpark/Desktop/ucla_courses/cs260r/assignment4/data/td3_agent_single/td3,129,-3.4670909070968627,822314,355,6372.452153205872,-68.61033630371094,,24.103395462036133,0.0,-68.879638671875,-67.95220184326172,-0.19616812467575073
295,/Users/cjpark/Desktop/ucla_courses/cs260r/assignment4/data/td3_agent_single/td3,129,-3.2403119134902956,824996,356,6386.747377872467,-62.927490234375,,31.889240264892578,0.0,-63.40053176879883,-63.477230072021484,-0.7808718085289001
296,/Users/cjpark/Desktop/ucla_courses/cs260r/assignment4/data/td3_agent_single/td3,129,-3.07597930431366,826324,357,6393.749720096588,-65.87844848632812,,94.85526275634766,0.0,-66.3846664428711,-65.70629119873047,0.0005809175781905651
297,/Users/cjpark/Desktop/ucla_courses/cs260r/assignment4/data/td3_agent_single/td3,129,-2.902872748374939,827839,358,6401.8767948150635,-60.42521286010742,59.27799987792969,29.62674331665039,0.0,-60.10558319091797,-59.483741760253906,-0.39082974195480347
298,/Users/cjpark/Desktop/ucla_courses/cs260r/assignment4/data/td3_agent_single/td3,129,-2.7514074850082397,829176,359,6408.882365942001,-59.77239227294922,,16.321239471435547,0.0,-59.45172119140625,-59.382591247558594,-0.19615168869495392
299,/Users/cjpark/Desktop/ucla_courses/cs260r/assignment4/data/td3_agent_single/td3,129,-2.5601388311386106,831152,360,6419.355027914047,-64.5411148071289,,25.203372955322266,0.0,-64.41128540039062,-64.7021484375,-0.0006248354911804199
300,/Users/cjpark/Desktop/ucla_courses/cs260r/assignment4/data/td3_agent_single/td3,129,-2.520677342414856,832647,361,6427.251137971878,-59.28634262084961,59.0859375,32.690834045410156,0.0,-59.535003662109375,-58.83051300048828,-0.19475965201854706
301,/Users/cjpark/Desktop/ucla_courses/cs260r/assignment4/data/td3_agent_single/td3,129,-2.454373393058777,835647,362,6443.091912031174,-79.32684326171875,78.32893371582031,59.35588073730469,0.0,-80.26948547363281,-78.73486328125,-0.39005783200263977
302,/Users/cjpark/Desktop/ucla_courses/cs260r/assignment4/data/td3_agent_single/td3,129,-2.397572884559631,838647,363,6458.93834400177,-59.24903869628906,54.262733459472656,71.93093872070312,0.0,-57.141387939453125,-59.86848831176758,-0.19563399255275726
303,/Users/cjpark/Desktop/ucla_courses/cs260r/assignment4/data/td3_agent_single/td3,129,-2.433641781806946,841647,364,6474.427299022675,-76.32911682128906,73.43299865722656,173.31954956054688,0.0,-74.26354217529297,-75.84107208251953,-0.5860226154327393
304,/Users/cjpark/Desktop/ucla_courses/cs260r/assignment4/data/td3_agent_single/td3,130,-2.475090069770813,844647,365,6491.228959083557,-62.96921920776367,61.1314582824707,15.529839515686035,0.0,-62.82991027832031,-63.054290771484375,-0.390529602766037
305,/Users/cjpark/Desktop/ucla_courses/cs260r/assignment4/data/td3_agent_single/td3,130,-2.4782161474227906,847647,366,6507.33632683754,-67.71951293945312,66.19280242919922,61.380210876464844,0.0,-65.26229858398438,-66.42922973632812,-0.39137032628059387
306,/Users/cjpark/Desktop/ucla_courses/cs260r/assignment4/data/td3_agent_single/td3,130,-2.473303723335266,850647,367,6523.306704998016,-55.429439544677734,55.14244079589844,17.423419952392578,0.0,-55.39825439453125,-55.38773727416992,-0.3906726837158203
307,/Users/cjpark/Desktop/ucla_courses/cs260r/assignment4/data/td3_agent_single/td3,130,-2.5187040042877196,853647,368,6538.922383785248,-58.94725036621094,57.51896286010742,49.72410202026367,0.0,-59.48126220703125,-58.905982971191406,-0.7815186381340027
308,/Users/cjpark/Desktop/ucla_courses/cs260r/assignment4/data/td3_agent_single/td3,130,-2.5476451969146727,856647,369,6554.978306055069,-76.56897735595703,76.02134704589844,19.95821762084961,0.0,-77.42710876464844,-75.97372436523438,-0.9771714210510254
309,/Users/cjpark/Desktop/ucla_courses/cs260r/assignment4/data/td3_agent_single/td3,130,-2.5518518447875977,859647,370,6570.668900966644,-51.45063018798828,49.34147644042969,202.03256225585938,0.0,-49.5086784362793,-49.92847442626953,-0.19526231288909912
310,/Users/cjpark/Desktop/ucla_courses/cs260r/assignment4/data/td3_agent_single/td3,130,-2.543817386627197,862647,371,6586.760127067566,-70.36747741699219,68.17008209228516,26.252914428710938,0.0,-70.3852767944336,-70.20085144042969,-0.5855902433395386
311,/Users/cjpark/Desktop/ucla_courses/cs260r/assignment4/data/td3_agent_single/td3,131,-2.5403515625,865647,372,6602.266265869141,-52.98820114135742,51.430152893066406,19.691864013671875,0.0,-52.41160583496094,-53.24197769165039,-0.19529812037944794
312,/Users/cjpark/Desktop/ucla_courses/cs260r/assignment4/data/td3_agent_single/td3,131,-2.539725618362427,868647,373,6618.354815006256,-48.666015625,47.071197509765625,30.32146453857422,0.0,-48.91950607299805,-48.18903350830078,-0.5865263342857361
313,/Users/cjpark/Desktop/ucla_courses/cs260r/assignment4/data/td3_agent_single/td3,131,-2.5317068004608156,871647,374,6633.941628932953,-62.01911926269531,60.42348861694336,15.684772491455078,0.0,-62.36488342285156,-62.331573486328125,-0.39120376110076904
314,/Users/cjpark/Desktop/ucla_courses/cs260r/assignment4/data/td3_agent_single/td3,131,-2.5086193466186524,874647,375,6649.6696310043335,-63.630672454833984,61.75365447998047,19.809673309326172,0.0,-63.26771926879883,-63.138450622558594,-0.781395673751831
315,/Users/cjpark/Desktop/ucla_courses/cs260r/assignment4/data/td3_agent_single/td3,131,-2.555688810348511,877647,376,6665.186330795288,-68.80631256103516,67.7365951538086,24.23296356201172,0.0,-69.33760070800781,-68.98151397705078,-0.391031950712204
316,/Users/cjpark/Desktop/ucla_courses/cs260r/assignment4/data/td3_agent_single/td3,131,-2.5447776889801026,880647,377,6681.184646844864,-68.6633071899414,66.07699584960938,71.47410583496094,0.0,-67.80117797851562,-68.06403350830078,-0.5865198969841003
317,/Users/cjpark/Desktop/ucla_courses/cs260r/assignment4/data/td3_agent_single/td3,131,-2.5478998470306395,883647,378,6696.637861967087,-66.7773666381836,65.33829498291016,34.10487365722656,0.0,-65.66942596435547,-66.41020965576172,-0.196213960647583
318,/Users/cjpark/Desktop/ucla_courses/cs260r/assignment4/data/td3_agent_single/td3,132,-2.5864851570129392,886647,379,6712.55837392807,-74.62664794921875,71.56232452392578,44.96179962158203,0.0,-72.42842864990234,-72.88008117675781,-0.5861190557479858
319,/Users/cjpark/Desktop/ucla_courses/cs260r/assignment4/data/td3_agent_single/td3,132,-2.6055078983306883,889647,380,6727.891235113144,-65.72610473632812,62.481101989746094,52.61578369140625,0.0,-64.24569702148438,-65.84037017822266,-0.39162617921829224
320,/Users/cjpark/Desktop/ucla_courses/cs260r/assignment4/data/td3_agent_single/td3,132,-2.629772186279297,892647,381,6743.60170006752,-58.46541213989258,57.9342155456543,167.9869842529297,0.0,-58.311744689941406,-58.35850143432617,-0.3909142315387726
321,/Users/cjpark/Desktop/ucla_courses/cs260r/assignment4/data/td3_agent_single/td3,132,-2.6325016117095945,895647,382,6759.269724845886,-61.222259521484375,59.13269805908203,28.052852630615234,0.0,-61.34980773925781,-62.205142974853516,-0.1951221525669098
322,/Users/cjpark/Desktop/ucla_courses/cs260r/assignment4/data/td3_agent_single/td3,132,-2.647980785369873,898647,383,6775.068968057632,-61.268497467041016,59.12697982788086,192.38934326171875,0.0,-61.057395935058594,-61.17674255371094,-0.0009614825248718262
323,/Users/cjpark/Desktop/ucla_courses/cs260r/assignment4/data/td3_agent_single/td3,132,-2.654571475982666,901647,384,6790.679189920425,-50.86543273925781,50.4427604675293,171.83297729492188,0.0,-49.954803466796875,-50.1033821105957,-0.19500969350337982
324,/Users/cjpark/Desktop/ucla_courses/cs260r/assignment4/data/td3_agent_single/td3,132,-2.657410888671875,904647,385,6806.30575799942,-73.13497924804688,71.4218521118164,48.528785705566406,0.0,-72.52141571044922,-73.63764953613281,-0.00012245401740074158
325,/Users/cjpark/Desktop/ucla_courses/cs260r/assignment4/data/td3_agent_single/td3,133,-2.6632032012939453,907647,386,6821.807621955872,-52.005462646484375,51.07777786254883,20.611469268798828,0.0,-51.516510009765625,-51.5723991394043,-0.1960107982158661
326,/Users/cjpark/Desktop/ucla_courses/cs260r/assignment4/data/td3_agent_single/td3,133,-2.679783430099487,910647,387,6837.672137022018,-47.731136322021484,46.76637649536133,12.551998138427734,0.0,-47.695556640625,-48.70060729980469,-0.0007641608826816082
327,/Users/cjpark/Desktop/ucla_courses/cs260r/assignment4/data/td3_agent_single/td3,133,-2.698799171447754,913647,388,6853.503638982773,-61.147769927978516,60.07881164550781,71.04277038574219,0.0,-60.256065368652344,-59.76980972290039,0.0001592971384525299
328,/Users/cjpark/Desktop/ucla_courses/cs260r/assignment4/data/td3_agent_single/td3,133,-2.751577835083008,916647,389,6869.234986066818,-53.988311767578125,53.89811706542969,21.91630744934082,0.0,-55.45783996582031,-54.95024490356445,-0.1953740268945694
329,/Users/cjpark/Desktop/ucla_courses/cs260r/assignment4/data/td3_agent_single/td3,133,-2.8216328048706054,919647,390,6884.848312139511,-58.812103271484375,55.18424987792969,16.56995964050293,0.0,-57.076072692871094,-58.08747482299805,-0.1955215185880661
330,/Users/cjpark/Desktop/ucla_courses/cs260r/assignment4/data/td3_agent_single/td3,133,-2.828061408996582,922647,391,6900.146940946579,-60.84320831298828,60.22646713256836,25.132230758666992,0.0,-61.791908264160156,-60.15928649902344,-0.3913863003253937
331,/Users/cjpark/Desktop/ucla_courses/cs260r/assignment4/data/td3_agent_single/td3,133,-2.8284319496154784,925647,392,6917.855656862259,-47.750633239746094,46.64841842651367,151.131103515625,0.0,-46.984107971191406,-47.766380310058594,-0.1951783001422882
332,/Users/cjpark/Desktop/ucla_courses/cs260r/assignment4/data/td3_agent_single/td3,133,-2.832716121673584,928647,393,6934.269831895828,-58.2118034362793,54.70513153076172,34.09748077392578,0.0,-57.03286361694336,-58.60239028930664,-0.3908734917640686
333,/Users/cjpark/Desktop/ucla_courses/cs260r/assignment4/data/td3_agent_single/td3,134,-2.794906702041626,931647,394,6949.838513851166,-71.49932861328125,70.26608276367188,56.95523452758789,0.0,-70.18533325195312,-71.50102996826172,-0.5861566662788391
334,/Users/cjpark/Desktop/ucla_courses/cs260r/assignment4/data/td3_agent_single/td3,134,-2.7539310693740844,934647,395,6965.513015985489,-69.35688781738281,65.98656463623047,46.72473907470703,0.0,-68.20008850097656,-71.01917266845703,-0.1963774561882019
335,/Users/cjpark/Desktop/ucla_courses/cs260r/assignment4/data/td3_agent_single/td3,134,-2.751204113960266,937647,396,6981.045497894287,-61.13404846191406,59.497772216796875,136.63644409179688,0.0,-60.329959869384766,-60.784820556640625,-0.000808417797088623
336,/Users/cjpark/Desktop/ucla_courses/cs260r/assignment4/data/td3_agent_single/td3,134,-2.720723509788513,940647,397,6997.18451499939,-50.914878845214844,50.635799407958984,35.656494140625,0.0,-51.369171142578125,-48.9024658203125,-0.5866182446479797
337,/Users/cjpark/Desktop/ucla_courses/cs260r/assignment4/data/td3_agent_single/td3,134,-2.8369447660446165,943647,398,7012.612016916275,-41.328304290771484,41.92793273925781,17.971345901489258,0.0,-43.00714874267578,-41.045494079589844,-0.00033336319029331207
338,/Users/cjpark/Desktop/ucla_courses/cs260r/assignment4/data/td3_agent_single/td3,134,-2.8274028444290162,946647,399,7028.814158916473,-42.70515441894531,41.26958084106445,19.609752655029297,0.0,-42.369415283203125,-42.64845657348633,-0.19601941108703613
339,/Users/cjpark/Desktop/ucla_courses/cs260r/assignment4/data/td3_agent_single/td3,134,-2.84809464931488,949647,400,7044.249529123306,-51.466819763183594,49.93097686767578,40.162689208984375,0.0,-51.67380905151367,-52.61831283569336,-0.3909562826156616
340,/Users/cjpark/Desktop/ucla_courses/cs260r/assignment4/data/td3_agent_single/td3,134,-2.868910698890686,952647,401,7060.390026092529,-60.233154296875,58.17882537841797,18.623668670654297,0.0,-60.13011932373047,-60.77296447753906,-0.39041343331336975
341,/Users/cjpark/Desktop/ucla_courses/cs260r/assignment4/data/td3_agent_single/td3,135,-2.8784497785568237,955647,402,7076.026937961578,-45.14839553833008,44.82201385498047,42.26081848144531,0.0,-45.110050201416016,-44.44026184082031,-0.19529521465301514
342,/Users/cjpark/Desktop/ucla_courses/cs260r/assignment4/data/td3_agent_single/td3,135,-2.907589383125305,958647,403,7092.045901060104,-34.708194732666016,35.02978515625,14.833748817443848,0.0,-36.54100799560547,-33.83930587768555,-0.19587519764900208
343,/Users/cjpark/Desktop/ucla_courses/cs260r/assignment4/data/td3_agent_single/td3,135,-2.9157335233688353,961647,404,7107.484423875809,-44.346397399902344,42.07330322265625,36.18368148803711,0.0,-43.48484802246094,-45.194828033447266,-0.58559650182724
344,/Users/cjpark/Desktop/ucla_courses/cs260r/assignment4/data/td3_agent_single/td3,135,-2.9525508642196656,964647,405,7123.493608951569,-60.01959228515625,58.04218673706055,28.94434928894043,0.0,-60.74958801269531,-59.57805252075195,-0.9766187071800232
345,/Users/cjpark/Desktop/ucla_courses/cs260r/assignment4/data/td3_agent_single/td3,135,-2.952168011665344,967647,406,7138.914754152298,-53.46800994873047,53.23629379272461,20.868776321411133,0.0,-54.62527847290039,-53.47465133666992,-0.19578033685684204
346,/Users/cjpark/Desktop/ucla_courses/cs260r/assignment4/data/td3_agent_single/td3,135,-2.975497546195984,970647,407,7154.988703012466,-46.17387008666992,45.111881256103516,31.767566680908203,0.0,-46.51312255859375,-47.42242431640625,-0.39126962423324585
347,/Users/cjpark/Desktop/ucla_courses/cs260r/assignment4/data/td3_agent_single/td3,135,-3.0166694021224973,973647,408,7170.577154159546,-38.15858840942383,36.94495391845703,11.758358001708984,0.0,-37.82435607910156,-39.43193435668945,-0.000309966504573822
348,/Users/cjpark/Desktop/ucla_courses/cs260r/assignment4/data/td3_agent_single/td3,135,-3.0631296968460084,976647,409,7186.616539001465,-49.583595275878906,49.010032653808594,11.158224105834961,0.0,-49.751441955566406,-49.27625274658203,-0.00011067278683185577
349,/Users/cjpark/Desktop/ucla_courses/cs260r/assignment4/data/td3_agent_single/td3,135,-86.59202011585235,979115,410,7199.464257955551,-56.00537109375,54.217002868652344,38.44423294067383,0.0,-55.36937713623047,-55.70314025878906,-0.5867422819137573
350,/Users/cjpark/Desktop/ucla_courses/cs260r/assignment4/data/td3_agent_single/td3,136,-86.77532030582428,982115,411,7215.7525980472565,-45.11387634277344,43.538597106933594,50.796730041503906,0.0,-44.594173431396484,-45.520809173583984,-0.5860000848770142
351,/Users/cjpark/Desktop/ucla_courses/cs260r/assignment4/data/td3_agent_single/td3,136,-136.81662940979004,985844,413,7235.910767793655,-39.573570251464844,,12.023067474365234,0.0,-40.41230773925781,-39.465309143066406,1.3286247849464417e-05
352,/Users/cjpark/Desktop/ucla_courses/cs260r/assignment4/data/td3_agent_single/td3,136,-136.89743104934692,988844,414,7251.8679349422455,-40.11165237426758,,47.85614776611328,0.0,-40.615135192871094,-40.2728271484375,-0.3909955620765686
353,/Users/cjpark/Desktop/ucla_courses/cs260r/assignment4/data/td3_agent_single/td3,136,-136.9288593673706,991769,415,7267.154397010803,-40.851844787597656,40.14411163330078,28.357545852661133,0.0,-40.4919548034668,-41.93491744995117,-0.0006572157144546509
354,/Users/cjpark/Desktop/ucla_courses/cs260r/assignment4/data/td3_agent_single/td3,136,-136.9482478427887,993145,416,7274.496617078781,-45.24181365966797,44.64125061035156,50.267539978027344,0.0,-45.84373474121094,-44.408626556396484,-0.00021270662546157837
355,/Users/cjpark/Desktop/ucla_courses/cs260r/assignment4/data/td3_agent_single/td3,136,-137.10370605945587,996914,418,7294.30028796196,-45.28622817993164,,15.219315528869629,0.0,-45.66612243652344,-45.44839859008789,-0.19603542983531952
356,/Users/cjpark/Desktop/ucla_courses/cs260r/assignment4/data/td3_agent_single/td3,136,-137.16193620204925,999914,419,7310.118820905685,-41.835052490234375,,84.97523498535156,0.0,-42.15081787109375,-41.708961486816406,-0.19567812979221344
