cjunkin/reinforcement-learning/metaracer/data/td3_agent_single_v12/td3/progress.csv
,log_dir,frame_per_second,episode_reward,total_steps,total_episodes,total_time,target_q,actor_loss,critic_loss,success_rate,current_q1,current_q2,reward
0,/Users/cjpark/Desktop/ucla_courses/cs260r/assignment4/data/td3_agent_single_v12/td3,1234,-2404.6660604736367,2999,1,2.429454803466797,,,,0.0,,,
1,/Users/cjpark/Desktop/ucla_courses/cs260r/assignment4/data/td3_agent_single_v12/td3,1234,-2446.4798944321046,5999,2,4.860801935195923,,,,0.0,,,
2,/Users/cjpark/Desktop/ucla_courses/cs260r/assignment4/data/td3_agent_single_v12/td3,1224,-1580.713099488363,8999,3,7.3505260944366455,,,,0.0,,,
3,/Users/cjpark/Desktop/ucla_courses/cs260r/assignment4/data/td3_agent_single_v12/td3,706,-9489.494169071366,11046,4,15.642498970031738,-8.158392906188965,,251.19102478027344,0.0,-7.184206008911133,-7.082814693450928,-4.636733055114746
4,/Users/cjpark/Desktop/ucla_courses/cs260r/assignment4/data/td3_agent_single_v12/td3,374,-12451.514637853144,14046,5,37.501331090927124,-29.440214157104492,,203.49603271484375,0.0,-29.035165786743164,-28.920820236206055,-5.027358531951904
5,/Users/cjpark/Desktop/ucla_courses/cs260r/assignment4/data/td3_agent_single_v12/td3,289,-15727.258862185443,17046,6,58.95899510383606,-60.01012420654297,,267.087158203125,0.0,-58.934410095214844,-58.973609924316406,-5.232622146606445
6,/Users/cjpark/Desktop/ucla_courses/cs260r/assignment4/data/td3_agent_single_v12/td3,248,-16558.943520529625,20046,7,80.78828191757202,-101.66484069824219,,320.66656494140625,0.0,-100.24051666259766,-100.08439636230469,-5.818414211273193
7,/Users/cjpark/Desktop/ucla_courses/cs260r/assignment4/data/td3_agent_single_v12/td3,222,-14751.399959299666,23046,8,103.52261900901794,-115.86473083496094,,259.50994873046875,0.0,-114.92119598388672,-114.70307922363281,-6.796009063720703
8,/Users/cjpark/Desktop/ucla_courses/cs260r/assignment4/data/td3_agent_single_v12/td3,207,-13100.952518369793,26046,9,125.78379607200623,-102.89112854003906,,206.66122436523438,0.0,-103.99176025390625,-103.68794250488281,-3.6710128784179688
9,/Users/cjpark/Desktop/ucla_courses/cs260r/assignment4/data/td3_agent_single_v12/td3,196,-11780.634437046408,29046,10,147.5887041091919,-112.94869995117188,,409.53082275390625,0.0,-112.21125793457031,-112.69242858886719,-4.650266647338867
10,/Users/cjpark/Desktop/ucla_courses/cs260r/assignment4/data/td3_agent_single_v12/td3,188,-10700.300020551367,32046,11,169.68624806404114,-84.78781127929688,,236.23651123046875,0.0,-84.7022476196289,-84.48633575439453,-2.8912670612335205
11,/Users/cjpark/Desktop/ucla_courses/cs260r/assignment4/data/td3_agent_single_v12/td3,182,-11217.642006363152,35046,12,191.6117160320282,-60.13378143310547,,553.19384765625,0.0,-57.50659942626953,-57.11193084716797,-4.4552812576293945
12,/Users/cjpark/Desktop/ucla_courses/cs260r/assignment4/data/td3_agent_single_v12/td3,178,-10346.790135696792,38046,13,212.99052095413208,-50.79685974121094,,260.27679443359375,0.0,-49.55935287475586,-49.06938552856445,-3.872044801712036
13,/Users/cjpark/Desktop/ucla_courses/cs260r/assignment4/data/td3_agent_single_v12/td3,176,-9604.202882304658,39632,14,225.02413082122803,-110.00914001464844,,204.89456176757812,0.0,-111.68387603759766,-111.56834411621094,-4.457905292510986
14,/Users/cjpark/Desktop/ucla_courses/cs260r/assignment4/data/td3_agent_single_v12/td3,172,-8962.382836726441,40713,15,235.8711109161377,-37.984519958496094,33.221824645996094,253.67344665527344,0.0,-36.822086334228516,-36.723167419433594,-3.2846620082855225
15,/Users/cjpark/Desktop/ucla_courses/cs260r/assignment4/data/td3_agent_single_v12/td3,171,-8401.264497835706,41287,16,240.89432311058044,-96.42103576660156,90.82293701171875,257.8189697265625,0.0,-97.24890899658203,-97.52346801757812,-4.84649133682251
16,/Users/cjpark/Desktop/ucla_courses/cs260r/assignment4/data/td3_agent_single_v12/td3,169,-7906.049671389549,42370,17,249.9978151321411,-45.18657684326172,,314.490478515625,0.0,-42.976806640625,-42.67417907714844,-3.0897140502929688
17,/Users/cjpark/Desktop/ucla_courses/cs260r/assignment4/data/td3_agent_single_v12/td3,165,-7070.279065497656,45506,19,274.78880286216736,-89.24423217773438,,378.1074523925781,0.0,-90.57156372070312,-90.88448333740234,-3.0861032009124756
18,/Users/cjpark/Desktop/ucla_courses/cs260r/assignment4/data/td3_agent_single_v12/td3,163,-6715.011629486618,46565,20,284.22632789611816,-52.464500427246094,46.76045227050781,329.28594970703125,0.0,-52.02629852294922,-51.84471130371094,-2.502041816711426
19,/Users/cjpark/Desktop/ucla_courses/cs260r/assignment4/data/td3_agent_single_v12/td3,163,-6394.329646280229,47032,21,288.5331201553345,-50.501304626464844,,148.92811584472656,0.0,-51.93805694580078,-52.02640151977539,-2.1103591918945312
20,/Users/cjpark/Desktop/ucla_courses/cs260r/assignment4/data/td3_agent_single_v12/td3,160,-6100.102969890591,50032,22,311.66552996635437,-53.02127456665039,,229.38824462890625,0.0,-49.52969741821289,-49.50357437133789,-2.8952603340148926
21,/Users/cjpark/Desktop/ucla_courses/cs260r/assignment4/data/td3_agent_single_v12/td3,158,-5831.28277270949,53032,23,334.37283992767334,-85.44169616699219,,494.55755615234375,0.0,-83.50898742675781,-83.58538055419922,-3.288600444793701
22,/Users/cjpark/Desktop/ucla_courses/cs260r/assignment4/data/td3_agent_single_v12/td3,153,-5585.650878103559,56032,24,364.4741880893707,-113.94461822509766,,278.570068359375,0.0,-115.33035278320312,-114.87339782714844,-4.4613189697265625
23,/Users/cjpark/Desktop/ucla_courses/cs260r/assignment4/data/td3_agent_single_v12/td3,149,-5358.360862600722,59032,25,394.38558292388916,-75.88087463378906,,356.2422180175781,0.0,-75.37859344482422,-75.28811645507812,-2.308210611343384
24,/Users/cjpark/Desktop/ucla_courses/cs260r/assignment4/data/td3_agent_single_v12/td3,146,-5149.156628070298,62032,26,424.76737213134766,-68.13093566894531,,327.5985107421875,0.0,-69.25851440429688,-69.07145690917969,-2.5067245960235596
25,/Users/cjpark/Desktop/ucla_courses/cs260r/assignment4/data/td3_agent_single_v12/td3,142,-5309.308813149781,65032,27,454.8738760948181,-49.24993896484375,,103.08476257324219,0.0,-47.44430160522461,-47.5712890625,-2.7046356201171875
26,/Users/cjpark/Desktop/ucla_courses/cs260r/assignment4/data/td3_agent_single_v12/td3,141,-5118.740280603177,66384,28,468.4881408214569,-50.592918395996094,,177.142822265625,0.0,-50.734989166259766,-50.93821334838867,-2.5038986206054688
27,/Users/cjpark/Desktop/ucla_courses/cs260r/assignment4/data/td3_agent_single_v12/td3,138,-4940.357037069535,69384,29,501.0376148223877,-101.30010986328125,,548.6796875,0.0,-100.27024841308594,-100.55958557128906,-3.289348602294922
28,/Users/cjpark/Desktop/ucla_courses/cs260r/assignment4/data/td3_agent_single_v12/td3,135,-4773.828954701866,72384,30,532.9625639915466,-54.23244857788086,,122.940185546875,0.0,-53.244991302490234,-53.02521896362305,-2.505650281906128
29,/Users/cjpark/Desktop/ucla_courses/cs260r/assignment4/data/td3_agent_single_v12/td3,133,-4617.783176657568,75384,31,564.8586361408234,-55.51048278808594,,159.70852661132812,0.0,-54.204742431640625,-54.26362228393555,-1.3378076553344727
30,/Users/cjpark/Desktop/ucla_courses/cs260r/assignment4/data/td3_agent_single_v12/td3,131,-4756.578792675367,78384,32,597.0648767948151,-38.77825164794922,,612.6666259765625,0.0,-38.68913269042969,-38.610450744628906,-2.5005788803100586
31,/Users/cjpark/Desktop/ucla_courses/cs260r/assignment4/data/td3_agent_single_v12/td3,130,-4609.778343850994,79686,33,611.5997099876404,-57.95285415649414,,191.11932373046875,0.0,-58.109832763671875,-57.34518051147461,-2.8792688846588135
32,/Users/cjpark/Desktop/ucla_courses/cs260r/assignment4/data/td3_agent_single_v12/td3,129,-4471.608393899536,81598,34,632.2662179470062,-61.436798095703125,,687.642822265625,0.0,-60.311702728271484,-59.62840270996094,-2.8924074172973633
33,/Users/cjpark/Desktop/ucla_courses/cs260r/assignment4/data/td3_agent_single_v12/td3,127,-4342.4750088763885,84598,35,664.5641438961029,-66.13861083984375,,180.21868896484375,0.0,-64.75801086425781,-64.93791961669922,-1.5223133563995361
34,/Users/cjpark/Desktop/ucla_courses/cs260r/assignment4/data/td3_agent_single_v12/td3,125,-4219.88234696635,87598,36,696.925815820694,-45.354427337646484,,248.77066040039062,0.0,-45.47053909301758,-45.453369140625,-2.888897180557251
35,/Users/cjpark/Desktop/ucla_courses/cs260r/assignment4/data/td3_agent_single_v12/td3,124,-4103.986102294228,90598,37,729.1321978569031,-56.95277404785156,,426.4276123046875,0.0,-57.339237213134766,-57.64445495605469,-1.9190764427185059
36,/Users/cjpark/Desktop/ucla_courses/cs260r/assignment4/data/td3_agent_single_v12/td3,122,-3994.606058115648,93598,38,761.5871770381927,-32.71559524536133,,151.897705078125,0.0,-33.44072723388672,-33.07149887084961,-2.304412364959717
37,/Users/cjpark/Desktop/ucla_courses/cs260r/assignment4/data/td3_agent_single_v12/td3,121,-3890.764738812459,96598,39,794.9411678314209,-36.92669677734375,,210.87901306152344,0.0,-37.00887680053711,-37.064178466796875,-1.7183361053466797
38,/Users/cjpark/Desktop/ucla_courses/cs260r/assignment4/data/td3_agent_single_v12/td3,120,-3792.0529997129947,99598,40,826.7979898452759,-37.678466796875,,80.76780700683594,0.0,-37.42582702636719,-37.481868743896484,-1.726816177368164
39,/Users/cjpark/Desktop/ucla_courses/cs260r/assignment4/data/td3_agent_single_v12/td3,119,-3698.0600462285015,102598,41,859.1603538990021,-32.28069305419922,,111.85482788085938,0.0,-31.94611167907715,-31.88397216796875,-1.716795563697815
40,/Users/cjpark/Desktop/ucla_courses/cs260r/assignment4/data/td3_agent_single_v12/td3,118,-3608.5407872093424,105598,42,891.519021987915,-10.192794799804688,,80.32814025878906,0.0,-9.763540267944336,-10.002737998962402,-1.3265093564987183
41,/Users/cjpark/Desktop/ucla_courses/cs260r/assignment4/data/td3_agent_single_v12/td3,117,-3523.177221912166,108598,43,924.1015131473541,-39.51413345336914,,292.12152099609375,0.0,-37.59503936767578,-37.6888427734375,-2.5039212703704834
42,/Users/cjpark/Desktop/ucla_courses/cs260r/assignment4/data/td3_agent_single_v12/td3,116,-3441.6241775226717,111598,44,954.4839241504669,-38.85145950317383,,131.33314514160156,0.0,-38.37508773803711,-38.33871078491211,-2.115103006362915
43,/Users/cjpark/Desktop/ucla_courses/cs260r/assignment4/data/td3_agent_single_v12/td3,116,-3363.632034973682,114598,45,983.7334139347076,-30.011188507080078,,446.0582275390625,0.0,-29.511096954345703,-29.538978576660156,-1.7202625274658203
44,/Users/cjpark/Desktop/ucla_courses/cs260r/assignment4/data/td3_agent_single_v12/td3,116,-3284.948103467169,117598,46,1012.7365999221802,-19.92380714416504,,197.77056884765625,0.0,-18.965106964111328,-18.823862075805664,-1.1432247161865234
45,/Users/cjpark/Desktop/ucla_courses/cs260r/assignment4/data/td3_agent_single_v12/td3,115,-3212.3030845904873,120598,47,1041.0771548748016,-9.051250457763672,,64.42793273925781,0.0,-8.763619422912598,-8.77398681640625,-1.1327844858169556
46,/Users/cjpark/Desktop/ucla_courses/cs260r/assignment4/data/td3_agent_single_v12/td3,115,-3141.945544051616,123598,48,1069.4762089252472,-9.458518028259277,,296.38775634765625,0.0,-9.144530296325684,-9.019078254699707,-1.1334419250488281
47,/Users/cjpark/Desktop/ucla_courses/cs260r/assignment4/data/td3_agent_single_v12/td3,115,-3075.8799709489285,126598,49,1097.6813519001007,-9.131509780883789,,132.29635620117188,0.0,-8.693888664245605,-8.970876693725586,-1.7203935384750366
48,/Users/cjpark/Desktop/ucla_courses/cs260r/assignment4/data/td3_agent_single_v12/td3,115,-3013.0186371896707,127741,50,1108.875473022461,-3.9877848625183105,0.05640900135040283,87.77474975585938,0.0,-3.496182441711426,-3.5404627323150635,-0.7393282651901245
49,/Users/cjpark/Desktop/ucla_courses/cs260r/assignment4/data/td3_agent_single_v12/td3,115,-2953.4159134546103,128741,51,1118.7220540046692,-28.56833267211914,26.42211151123047,129.09213256835938,0.0,-29.418411254882812,-28.95467758178711,-1.9217760562896729
50,/Users/cjpark/Desktop/ucla_courses/cs260r/assignment4/data/td3_agent_single_v12/td3,114,-2894.8374946188273,130473,52,1135.4965751171112,-10.766895294189453,9.066816329956055,48.199073791503906,0.0,-10.956393241882324,-10.759597778320312,-0.5413646697998047
51,/Users/cjpark/Desktop/ucla_courses/cs260r/assignment4/data/td3_agent_single_v12/td3,114,-2838.914284888794,131119,53,1141.8112380504608,-14.725359916687012,11.871252059936523,47.24156951904297,0.0,-14.80504035949707,-14.95915412902832,-1.3328651189804077
52,/Users/cjpark/Desktop/ucla_courses/cs260r/assignment4/data/td3_agent_single_v12/td3,114,-2683.9115478622625,132363,56,1154.6480309963226,-15.919098854064941,13.280685424804688,66.69802856445312,0.0,-17.181529998779297,-17.020959854125977,-0.5515760779380798
53,/Users/cjpark/Desktop/ucla_courses/cs260r/assignment4/data/td3_agent_single_v12/td3,114,-2589.168709408935,134090,58,1171.965801000595,-3.9240283966064453,,69.37350463867188,0.0,-1.9565120935440063,-2.456864356994629,-0.746894896030426
54,/Users/cjpark/Desktop/ucla_courses/cs260r/assignment4/data/td3_agent_single_v12/td3,114,-2544.190855886533,135248,59,1182.9827930927277,-5.8513875007629395,,54.29466247558594,0.0,-6.4381327629089355,-6.235172271728516,-0.9348284602165222
55,/Users/cjpark/Desktop/ucla_courses/cs260r/assignment4/data/td3_agent_single_v12/td3,114,-2500.724525865868,136151,60,1191.8051218986511,-23.979434967041016,21.332805633544922,121.23124694824219,0.0,-23.95218849182129,-24.070480346679688,-1.5185787677764893
56,/Users/cjpark/Desktop/ucla_courses/cs260r/assignment4/data/td3_agent_single_v12/td3,114,-2458.6750081886285,137012,61,1200.0613300800323,2.06247615814209,,60.47296905517578,0.0,1.70664644241333,1.8545289039611816,-0.7456480264663696
57,/Users/cjpark/Desktop/ucla_courses/cs260r/assignment4/data/td3_agent_single_v12/td3,113,-2378.2657135161694,139761,63,1227.2738199234009,-9.885221481323242,7.548194408416748,205.6126708984375,0.0,-9.484283447265625,-9.056231498718262,-0.7402679920196533
58,/Users/cjpark/Desktop/ucla_courses/cs260r/assignment4/data/td3_agent_single_v12/td3,113,-2339.6697190942714,142761,64,1256.4829940795898,-26.044063568115234,23.42403793334961,40.22523498535156,0.0,-26.30569076538086,-26.701501846313477,-0.9371094703674316
59,/Users/cjpark/Desktop/ucla_courses/cs260r/assignment4/data/td3_agent_single_v12/td3,113,-2302.6669332981246,143792,65,1266.280247926712,-28.599584579467773,,60.04283142089844,0.0,-29.07471466064453,-29.161407470703125,-1.7220736742019653
60,/Users/cjpark/Desktop/ucla_courses/cs260r/assignment4/data/td3_agent_single_v12/td3,113,-2266.5375881169875,146365,66,1291.6012921333313,-24.246501922607422,21.002784729003906,35.002784729003906,0.0,-24.060169219970703,-23.918664932250977,-1.5330893993377686
61,/Users/cjpark/Desktop/ucla_courses/cs260r/assignment4/data/td3_agent_single_v12/td3,113,-2231.40571790706,149365,67,1321.7895720005035,-28.306020736694336,25.260826110839844,94.85198974609375,0.0,-28.26936912536621,-28.35694122314453,-0.9394055008888245
62,/Users/cjpark/Desktop/ucla_courses/cs260r/assignment4/data/td3_agent_single_v12/td3,112,-2197.4419781133356,152240,68,1350.6387770175934,-16.90955924987793,,48.387245178222656,0.0,-17.65522003173828,-17.61676025390625,-1.1355797052383423
63,/Users/cjpark/Desktop/ucla_courses/cs260r/assignment4/data/td3_agent_single_v12/td3,112,-2164.2082772912886,155240,69,1380.111333847046,-9.032158851623535,,46.65223693847656,0.0,-9.324740409851074,-9.92873764038086,-1.13447105884552
64,/Users/cjpark/Desktop/ucla_courses/cs260r/assignment4/data/td3_agent_single_v12/td3,112,-2131.833547193637,158240,70,1410.2920689582825,-7.3149189949035645,,58.642822265625,0.0,-7.733797073364258,-7.7627644538879395,-1.1325708627700806
65,/Users/cjpark/Desktop/ucla_courses/cs260r/assignment4/data/td3_agent_single_v12/td3,111,-2100.4191420232078,161240,71,1439.7821278572083,-33.73297119140625,,77.49552917480469,0.0,-33.28784942626953,-33.59632873535156,-0.9410637617111206
66,/Users/cjpark/Desktop/ucla_courses/cs260r/assignment4/data/td3_agent_single_v12/td3,111,-2070.236666699285,163091,72,1459.2359471321106,-14.850835800170898,12.614307403564453,108.43853759765625,0.0,-14.899795532226562,-15.248830795288086,-0.7349127531051636
67,/Users/cjpark/Desktop/ucla_courses/cs260r/assignment4/data/td3_agent_single_v12/td3,111,-2040.708254891069,166091,73,1489.5126950740814,-11.968978881835938,9.302722930908203,35.22455596923828,0.0,-11.56578254699707,-11.915800094604492,-0.7495341897010803
68,/Users/cjpark/Desktop/ucla_courses/cs260r/assignment4/data/td3_agent_single_v12/td3,111,-2011.8887625939128,169091,74,1519.8997910022736,-11.112747192382812,8.071826934814453,145.46432495117188,0.0,-9.027181625366211,-9.03494644165039,-0.9315111637115479
69,/Users/cjpark/Desktop/ucla_courses/cs260r/assignment4/data/td3_agent_single_v12/td3,111,-1984.0593953028826,171125,75,1540.9199571609497,-15.296428680419922,14.347417831420898,50.29749298095703,0.0,-16.40447235107422,-16.17687225341797,-0.7419347763061523
70,/Users/cjpark/Desktop/ucla_courses/cs260r/assignment4/data/td3_agent_single_v12/td3,110,-1956.741733955414,174125,76,1571.2630739212036,-18.680110931396484,15.900821685791016,41.98556900024414,0.0,-17.653091430664062,-17.29755401611328,-0.9306594133377075
71,/Users/cjpark/Desktop/ucla_courses/cs260r/assignment4/data/td3_agent_single_v12/td3,110,-1930.2917025853455,177125,77,1600.8667769432068,-10.654642105102539,8.15383529663086,48.160369873046875,0.0,-9.459600448608398,-9.588650703430176,-0.7462544441223145
72,/Users/cjpark/Desktop/ucla_courses/cs260r/assignment4/data/td3_agent_single_v12/td3,110,-1904.634358798833,180125,78,1632.3915281295776,-8.934669494628906,6.563321113586426,58.28352355957031,0.0,-8.429292678833008,-7.98508358001709,-1.7258596420288086
73,/Users/cjpark/Desktop/ucla_courses/cs260r/assignment4/data/td3_agent_single_v12/td3,110,-1879.5446783253158,183125,79,1662.16925406456,-27.73927879333496,28.24342918395996,11494.716796875,0.0,-32.1819953918457,-31.572368621826172,-1.5131508111953735
74,/Users/cjpark/Desktop/ucla_courses/cs260r/assignment4/data/td3_agent_single_v12/td3,110,-1855.0847120462881,186125,80,1692.0221982002258,-21.823463439941406,20.595705032348633,28.65877914428711,0.0,-21.586959838867188,-21.661590576171875,-0.35188961029052734
75,/Users/cjpark/Desktop/ucla_courses/cs260r/assignment4/data/td3_agent_single_v12/td3,109,-1831.2723930419493,189125,81,1721.4685189723969,-16.794086456298828,13.819254875183105,79.65192413330078,0.0,-15.964914321899414,-15.975090980529785,-0.7325426340103149
76,/Users/cjpark/Desktop/ucla_courses/cs260r/assignment4/data/td3_agent_single_v12/td3,109,-1808.1151104261307,192125,82,1751.154149055481,-16.361648559570312,15.121545791625977,115.74394226074219,0.0,-16.90135383605957,-16.48896598815918,-0.5542097091674805
77,/Users/cjpark/Desktop/ucla_courses/cs260r/assignment4/data/td3_agent_single_v12/td3,109,-1785.6195771347059,194632,83,1775.8329710960388,-13.973737716674805,,131.273681640625,0.0,-13.688057899475098,-13.87295150756836,-0.5559548139572144
78,/Users/cjpark/Desktop/ucla_courses/cs260r/assignment4/data/td3_agent_single_v12/td3,109,-1763.8049623951235,196555,84,1794.6909770965576,-12.466054916381836,9.86694049835205,35.3212776184082,0.0,-12.295893669128418,-11.923749923706055,-0.5443344712257385
79,/Users/cjpark/Desktop/ucla_courses/cs260r/assignment4/data/td3_agent_single_v12/td3,109,-1742.4024363679548,198675,85,1816.3801510334015,-31.1249942779541,28.26798439025879,69.25300598144531,0.0,-31.913665771484375,-32.37321853637695,-1.5294990539550781
80,/Users/cjpark/Desktop/ucla_courses/cs260r/assignment4/data/td3_agent_single_v12/td3,109,-1721.3609137531673,201675,86,1845.8216421604156,-6.985601425170898,4.698477745056152,67.53330993652344,0.0,-5.9519453048706055,-5.785772323608398,-0.3575213849544525
81,/Users/cjpark/Desktop/ucla_courses/cs260r/assignment4/data/td3_agent_single_v12/td3,109,-1700.7978926489234,204675,87,1876.3557379245758,5.3185319900512695,-7.0179972648620605,21.303726196289062,0.0,5.555618762969971,5.763125896453857,-0.3551529347896576
82,/Users/cjpark/Desktop/ucla_courses/cs260r/assignment4/data/td3_agent_single_v12/td3,109,-1681.0858779162438,206347,88,1891.7720630168915,-0.8710423707962036,-1.430742621421814,19.009063720703125,0.0,0.28791356086730957,-0.29010009765625,-0.3439124822616577
83,/Users/cjpark/Desktop/ucla_courses/cs260r/assignment4/data/td3_agent_single_v12/td3,109,-1661.7983336585683,208155,89,1906.0484969615936,-18.034814834594727,16.035606384277344,82.83404541015625,0.0,-18.090608596801758,-18.10744285583496,-1.1366078853607178
84,/Users/cjpark/Desktop/ucla_courses/cs260r/assignment4/data/td3_agent_single_v12/td3,109,-1795.3772469194425,211155,90,1929.9587450027466,-24.002281188964844,22.24618911743164,380.8710632324219,0.0,-24.51136589050293,-24.416732788085938,-0.7361090183258057
85,/Users/cjpark/Desktop/ucla_courses/cs260r/assignment4/data/td3_agent_single_v12/td3,109,-1774.5618919845797,214155,91,1954.2248749732971,-16.402496337890625,14.177403450012207,19.57651138305664,0.0,-16.666831970214844,-16.90497398376465,-0.5550442934036255
86,/Users/cjpark/Desktop/ucla_courses/cs260r/assignment4/data/td3_agent_single_v12/td3,109,-1753.932618549756,217155,92,1978.0223779678345,-25.066789627075195,23.87112808227539,50.78046417236328,0.0,-25.785030364990234,-24.58624267578125,-1.1289646625518799
87,/Users/cjpark/Desktop/ucla_courses/cs260r/assignment4/data/td3_agent_single_v12/td3,109,-1751.0319020978864,220155,93,2001.881824016571,-24.136632919311523,22.66040802001953,61.563602447509766,0.0,-24.23632049560547,-24.248199462890625,-0.9412418007850647
88,/Users/cjpark/Desktop/ucla_courses/cs260r/assignment4/data/td3_agent_single_v12/td3,110,-1732.2326105021336,222932,94,2024.2034640312195,-24.337087631225586,,389.6677551269531,0.0,-23.823867797851562,-24.148874282836914,-0.7502474188804626
89,/Users/cjpark/Desktop/ucla_courses/cs260r/assignment4/data/td3_agent_single_v12/td3,110,-1713.1375809595268,225932,95,2048.5229778289795,6.778700351715088,,27.605464935302734,0.0,6.1787309646606445,6.575416564941406,0.031926240772008896
90,/Users/cjpark/Desktop/ucla_courses/cs260r/assignment4/data/td3_agent_single_v12/td3,110,-1694.6058463969905,228932,96,2072.815724849701,-13.260889053344727,,32.60962677001953,0.0,-13.341808319091797,-13.115560531616211,-0.5566347241401672
91,/Users/cjpark/Desktop/ucla_courses/cs260r/assignment4/data/td3_agent_single_v12/td3,110,-1676.3290962517185,231932,97,2096.897300004959,-7.476053714752197,,64.90232849121094,0.0,-6.472981929779053,-6.062920570373535,-0.7462682127952576
92,/Users/cjpark/Desktop/ucla_courses/cs260r/assignment4/data/td3_agent_single_v12/td3,110,-1658.4346799414864,234932,98,2120.5934228897095,-4.942798614501953,,176.81344604492188,0.0,-3.430051326751709,-3.5657601356506348,-0.5592551827430725
93,/Users/cjpark/Desktop/ucla_courses/cs260r/assignment4/data/td3_agent_single_v12/td3,110,-1640.766795823439,237932,99,2144.1726729869843,-2.512877941131592,,55.09681701660156,0.0,-3.1191294193267822,-3.3613462448120117,-0.7452396750450134
94,/Users/cjpark/Desktop/ucla_courses/cs260r/assignment4/data/td3_agent_single_v12/td3,111,-1623.6869688600966,240932,100,2167.961147069931,-14.909163475036621,,45.11969757080078,0.0,-13.432207107543945,-14.136608123779297,-0.5429313778877258
95,/Users/cjpark/Desktop/ucla_courses/cs260r/assignment4/data/td3_agent_single_v12/td3,111,-1598.9452814214717,243932,101,2191.848571062088,-7.8832106590271,,96.58531188964844,0.0,-7.893006324768066,-7.912604331970215,-0.5454100966453552
96,/Users/cjpark/Desktop/ucla_courses/cs260r/assignment4/data/td3_agent_single_v12/td3,111,-1573.3055949478826,246932,102,2217.5553150177,-36.60862350463867,,46.029422760009766,0.0,-37.26808166503906,-37.20046615600586,-1.5337170362472534
97,/Users/cjpark/Desktop/ucla_courses/cs260r/assignment4/data/td3_agent_single_v12/td3,111,-1573.8810652407853,249932,103,2241.3762819767,-1.9580659866333008,,71.7998046875,0.0,-1.2368435859680176,-1.161820411682129,-0.7462872862815857
98,/Users/cjpark/Desktop/ucla_courses/cs260r/assignment4/data/td3_agent_single_v12/td3,111,-1241.0160416361111,252932,104,2264.814619064331,-15.204118728637695,,34.925331115722656,0.0,-15.405892372131348,-15.455927848815918,-0.7502952218055725
99,/Users/cjpark/Desktop/ucla_courses/cs260r/assignment4/data/td3_agent_single_v12/td3,111,-997.3735474276323,255932,105,2288.349145889282,-7.091876029968262,,119.4405517578125,0.0,-7.224516868591309,-7.024177074432373,-0.9426946043968201
100,/Users/cjpark/Desktop/ucla_courses/cs260r/assignment4/data/td3_agent_single_v12/td3,111,-675.6257340903877,258932,106,2312.274263858795,-19.19392204284668,,30.034358978271484,0.0,-18.31973648071289,-17.907480239868164,-0.7434943914413452
101,/Users/cjpark/Desktop/ucla_courses/cs260r/assignment4/data/td3_agent_single_v12/td3,112,-459.5500931044419,261517,107,2332.711230993271,-5.825376033782959,4.6783270835876465,32.3953971862793,0.0,-6.9133148193359375,-6.965421676635742,-0.16341666877269745
102,/Users/cjpark/Desktop/ucla_courses/cs260r/assignment4/data/td3_agent_single_v12/td3,112,-437.40499168151524,264517,108,2356.7594871520996,-8.976211547851562,4.749906539916992,29.498231887817383,0.0,-7.303658485412598,-7.2369184494018555,-0.35947805643081665
103,/Users/cjpark/Desktop/ucla_courses/cs260r/assignment4/data/td3_agent_single_v12/td3,112,-437.21237495584165,267517,109,2383.2077000141144,-8.762674331665039,7.111992835998535,26.943275451660156,0.0,-9.040092468261719,-8.976892471313477,-0.9395362734794617
104,/Users/cjpark/Desktop/ucla_courses/cs260r/assignment4/data/td3_agent_single_v12/td3,112,-437.1516483249414,270517,110,2407.310469865799,-6.369704246520996,4.723692893981934,41.49516296386719,0.0,-6.5254950523376465,-5.9065446853637695,-0.7512117028236389
105,/Users/cjpark/Desktop/ucla_courses/cs260r/assignment4/data/td3_agent_single_v12/td3,107,-436.2745520823514,273517,111,2544.8687200546265,-13.552949905395508,11.542768478393555,48.32481002807617,0.0,-13.695539474487305,-13.689451217651367,-0.9389081597328186
106,/Users/cjpark/Desktop/ucla_courses/cs260r/assignment4/data/td3_agent_single_v12/td3,107,-265.8901985605533,276517,112,2568.242434978485,-5.567784786224365,2.1347978115081787,28.772350311279297,0.0,-5.161566257476807,-6.003871917724609,-0.7460908889770508
107,/Users/cjpark/Desktop/ucla_courses/cs260r/assignment4/data/td3_agent_single_v12/td3,107,-265.4972277210073,279517,113,2610.826756954193,6.976508140563965,-8.358282089233398,34.420928955078125,0.0,7.004887580871582,6.880739212036133,-0.3484143316745758
108,/Users/cjpark/Desktop/ucla_courses/cs260r/assignment4/data/td3_agent_single_v12/td3,107,-264.7492378670994,282517,114,2634.527718067169,9.917922973632812,-13.210043907165527,57.94677734375,0.0,10.174163818359375,10.128751754760742,-1.1426862478256226
109,/Users/cjpark/Desktop/ucla_courses/cs260r/assignment4/data/td3_agent_single_v12/td3,99,-263.59553909943423,285517,115,2877.061814069748,2.691272735595703,-5.324289321899414,23.042022705078125,0.0,3.155330181121826,2.6458749771118164,-0.543590784072876
110,/Users/cjpark/Desktop/ucla_courses/cs260r/assignment4/data/td3_agent_single_v12/td3,99,-262.5766430430859,288517,116,2899.7535650730133,10.940189361572266,-12.541091918945312,47.18062210083008,0.0,10.370238304138184,10.569345474243164,-0.7554298043251038
111,/Users/cjpark/Desktop/ucla_courses/cs260r/assignment4/data/td3_agent_single_v12/td3,96,-261.28846806148715,291517,117,3026.0057139396667,1.6227308511734009,-4.085192680358887,22.61276626586914,0.0,1.1529691219329834,1.5415568351745605,-0.5489131808280945
112,/Users/cjpark/Desktop/ucla_courses/cs260r/assignment4/data/td3_agent_single_v12/td3,96,-260.1176779269115,294517,118,3049.9167029857635,-2.165771007537842,0.8083429336547852,18.032703399658203,0.0,-2.3670809268951416,-1.7042336463928223,-0.3602147400379181
113,/Users/cjpark/Desktop/ucla_courses/cs260r/assignment4/data/td3_agent_single_v12/td3,96,-259.4507175155859,297517,119,3073.8965830802917,7.784657001495361,-9.35235595703125,67.44908142089844,0.0,7.619446754455566,8.12548542022705,-0.7496746778488159
114,/Users/cjpark/Desktop/ucla_courses/cs260r/assignment4/data/td3_agent_single_v12/td3,97,-258.5465809239118,300517,120,3097.927617073059,-0.304288387298584,-1.9418493509292603,46.91973876953125,0.0,-0.2500491142272949,0.04180335998535156,-1.3288215398788452
115,/Users/cjpark/Desktop/ucla_courses/cs260r/assignment4/data/td3_agent_single_v12/td3,90,-257.42998802415224,303517,121,3365.866933107376,14.320051193237305,-15.449491500854492,25.320941925048828,0.0,14.91407585144043,15.017333030700684,-0.3545864522457123
116,/Users/cjpark/Desktop/ucla_courses/cs260r/assignment4/data/td3_agent_single_v12/td3,90,-257.0255662255922,306517,122,3390.0801508426666,8.176751136779785,-11.19916820526123,33.73024368286133,0.0,9.209623336791992,8.41506290435791,-0.1572386920452118
117,/Users/cjpark/Desktop/ucla_courses/cs260r/assignment4/data/td3_agent_single_v12/td3,90,-256.65760756601975,309517,123,3414.3762431144714,11.67980670928955,-13.15735149383545,46.57939910888672,0.0,11.948884010314941,12.589496612548828,-0.5563619136810303
118,/Users/cjpark/Desktop/ucla_courses/cs260r/assignment4/data/td3_agent_single_v12/td3,90,-256.083684662029,312517,124,3438.4165439605713,13.81003475189209,-14.879287719726562,69.85726928710938,0.0,12.522307395935059,12.071964263916016,-0.7481436133384705
119,/Users/cjpark/Desktop/ucla_courses/cs260r/assignment4/data/td3_agent_single_v12/td3,91,-255.85418435569886,315517,125,3462.258558988571,-7.45474100112915,6.55894660949707,17.96198272705078,0.0,-6.96193265914917,-6.521942138671875,-0.5573137998580933
120,/Users/cjpark/Desktop/ucla_courses/cs260r/assignment4/data/td3_agent_single_v12/td3,91,-255.44308863356855,318517,126,3486.1509840488434,7.0572710037231445,-7.723210334777832,12.964327812194824,0.0,6.0162482261657715,5.252530097961426,-0.3509600758552551
121,/Users/cjpark/Desktop/ucla_courses/cs260r/assignment4/data/td3_agent_single_v12/td3,91,-159.41372590435168,321517,127,3510.113641023636,-12.546207427978516,11.902864456176758,101.62313842773438,0.0,-13.166266441345215,-13.315666198730469,-0.9459003806114197
122,/Users/cjpark/Desktop/ucla_courses/cs260r/assignment4/data/td3_agent_single_v12/td3,91,-158.32457852810808,324517,128,3534.2980539798737,-1.1049308776855469,0.731934666633606,24.368579864501953,0.0,-2.4443461894989014,-2.593039035797119,-0.35876017808914185
123,/Users/cjpark/Desktop/ucla_courses/cs260r/assignment4/data/td3_agent_single_v12/td3,92,-157.34163346015595,327517,129,3558.425588130951,5.291000843048096,-7.791656017303467,29.734760284423828,0.0,6.933347702026367,6.040287017822266,0.033133137971162796
124,/Users/cjpark/Desktop/ucla_courses/cs260r/assignment4/data/td3_agent_single_v12/td3,92,-156.4299017785184,330517,130,3583.7793831825256,-8.590100288391113,6.7543511390686035,37.208282470703125,0.0,-9.10634994506836,-8.928443908691406,-0.7535360455513
125,/Users/cjpark/Desktop/ucla_courses/cs260r/assignment4/data/td3_agent_single_v12/td3,92,-155.70321912572388,333517,131,3608.7040469646454,-9.026174545288086,8.579927444458008,13.808476448059082,0.0,-9.912324905395508,-9.911296844482422,0.04607545584440231
126,/Users/cjpark/Desktop/ucla_courses/cs260r/assignment4/data/td3_agent_single_v12/td3,92,-63.62078615466274,336517,132,3633.3298819065094,-17.7914981842041,15.69027042388916,91.07403564453125,0.0,-16.58667755126953,-16.631671905517578,-0.5528910756111145
127,/Users/cjpark/Desktop/ucla_courses/cs260r/assignment4/data/td3_agent_single_v12/td3,92,-63.340874640154425,339517,133,3658.2745900154114,-12.971036911010742,11.833600997924805,12.506561279296875,0.0,-13.194418907165527,-13.3372220993042,-0.15850694477558136
128,/Users/cjpark/Desktop/ucla_courses/cs260r/assignment4/data/td3_agent_single_v12/td3,92,-62.99152636842623,342517,134,3683.9723830223083,-14.674920082092285,14.60704231262207,25.10190200805664,0.0,-16.17214584350586,-14.920639038085938,-0.5495187640190125
129,/Users/cjpark/Desktop/ucla_courses/cs260r/assignment4/data/td3_agent_single_v12/td3,93,-91.48300113682237,345517,135,3709.53698015213,-33.745582580566406,32.003353118896484,34.341678619384766,0.0,-33.749263763427734,-34.65126037597656,-0.5424279570579529
130,/Users/cjpark/Desktop/ucla_courses/cs260r/assignment4/data/td3_agent_single_v12/td3,93,-90.25339404037044,348517,136,3735.1856248378754,-31.55088996887207,31.5512752532959,26.02691650390625,0.0,-32.61056900024414,-32.23587417602539,-0.7491321563720703
131,/Users/cjpark/Desktop/ucla_courses/cs260r/assignment4/data/td3_agent_single_v12/td3,93,-89.72528658752981,351517,137,3760.803619861603,-26.13603973388672,25.7452392578125,15.244440078735352,0.0,-26.39372444152832,-27.005159378051758,-0.15579813718795776
132,/Users/cjpark/Desktop/ucla_courses/cs260r/assignment4/data/td3_agent_single_v12/td3,93,-89.51994539903261,354517,138,3786.4235050678253,-29.537527084350586,28.035804748535156,55.2322998046875,0.0,-29.26371192932129,-29.505271911621094,-0.36123964190483093
133,/Users/cjpark/Desktop/ucla_courses/cs260r/assignment4/data/td3_agent_single_v12/td3,93,-89.26804299695915,357517,139,3812.201097011566,-37.983604431152344,36.654232025146484,36.808013916015625,0.0,-37.725589752197266,-37.7120475769043,-0.34917891025543213
134,/Users/cjpark/Desktop/ucla_courses/cs260r/assignment4/data/td3_agent_single_v12/td3,93,-89.06437283812808,360517,140,3839.47824382782,-33.915225982666016,34.17121124267578,15.115264892578125,0.0,-33.97855758666992,-32.8639030456543,-0.16516120731830597
135,/Users/cjpark/Desktop/ucla_courses/cs260r/assignment4/data/td3_agent_single_v12/td3,94,-88.47079207681956,363517,141,3865.82524394989,-28.877574920654297,28.458864212036133,58.591670989990234,0.0,-28.714353561401367,-29.642698287963867,-0.7516266703605652
136,/Users/cjpark/Desktop/ucla_courses/cs260r/assignment4/data/td3_agent_single_v12/td3,94,-87.91946453342989,366517,142,3893.296245098114,-44.51844024658203,42.04487228393555,51.48686981201172,0.0,-43.55721664428711,-44.993324279785156,-0.751532793045044
137,/Users/cjpark/Desktop/ucla_courses/cs260r/assignment4/data/td3_agent_single_v12/td3,94,-87.41234382902796,369517,143,3919.2172927856445,-42.08507537841797,40.19327926635742,80.28422546386719,0.0,-41.08588409423828,-41.59386444091797,-0.9339732527732849
138,/Users/cjpark/Desktop/ucla_courses/cs260r/assignment4/data/td3_agent_single_v12/td3,94,-86.69098651419257,372517,144,3946.345076084137,-29.474403381347656,28.85647201538086,65.86944580078125,0.0,-30.449552536010742,-30.169876098632812,-0.5394432544708252
139,/Users/cjpark/Desktop/ucla_courses/cs260r/assignment4/data/td3_agent_single_v12/td3,94,-86.40615428941622,375517,145,3973.3977308273315,-20.406118392944336,18.362581253051758,10.167202949523926,0.0,-19.938674926757812,-20.012428283691406,-0.1617729216814041
140,/Users/cjpark/Desktop/ucla_courses/cs260r/assignment4/data/td3_agent_single_v12/td3,94,-88.11882888923681,378517,146,3996.221050977707,-36.76277160644531,34.86744689941406,23.777912139892578,0.0,-36.29506301879883,-36.4100456237793,-0.5393730401992798
141,/Users/cjpark/Desktop/ucla_courses/cs260r/assignment4/data/td3_agent_single_v12/td3,95,-88.4844184089918,381517,147,4013.6842498779297,-32.88100051879883,31.003658294677734,65.52412414550781,0.0,-31.877647399902344,-31.941177368164062,-0.7407108545303345
142,/Users/cjpark/Desktop/ucla_courses/cs260r/assignment4/data/td3_agent_single_v12/td3,95,-89.01800205375817,384517,148,4031.0685980319977,-34.97654342651367,34.58616638183594,18.730527877807617,0.0,-34.55443572998047,-33.533145904541016,-0.3520961403846741
143,/Users/cjpark/Desktop/ucla_courses/cs260r/assignment4/data/td3_agent_single_v12/td3,95,-88.80340827304968,387517,149,4048.4846930503845,-53.165306091308594,52.104087829589844,46.144866943359375,0.0,-53.4932746887207,-54.041263580322266,-0.533906877040863
144,/Users/cjpark/Desktop/ucla_courses/cs260r/assignment4/data/td3_agent_single_v12/td3,96,-87.98523916713822,390517,150,4066.006206035614,-25.55267333984375,23.815866470336914,36.447410583496094,0.0,-25.43547248840332,-25.873762130737305,-0.16769394278526306
145,/Users/cjpark/Desktop/ucla_courses/cs260r/assignment4/data/td3_agent_single_v12/td3,96,-86.76041700142326,393517,151,4083.401622772217,-28.58017349243164,28.162216186523438,13.855530738830566,0.0,-28.57744789123535,-28.07791519165039,-0.3504287004470825
146,/Users/cjpark/Desktop/ucla_courses/cs260r/assignment4/data/td3_agent_single_v12/td3,96,-86.28574749037493,396517,152,4100.940370082855,-37.91067123413086,36.40031814575195,66.84954071044922,0.0,-37.934486389160156,-37.38580322265625,-0.7450428009033203
147,/Users/cjpark/Desktop/ucla_courses/cs260r/assignment4/data/td3_agent_single_v12/td3,97,-85.45602412591889,399517,153,4118.278912067413,-21.40364646911621,19.638713836669922,61.149871826171875,0.0,-20.234111785888672,-20.428272247314453,-0.5551930069923401
148,/Users/cjpark/Desktop/ucla_courses/cs260r/assignment4/data/td3_agent_single_v12/td3,97,-84.77191942055632,402517,154,4135.67161989212,-38.73160171508789,37.43770980834961,31.326343536376953,0.0,-38.17728805541992,-38.38009262084961,-0.7481997013092041
149,/Users/cjpark/Desktop/ucla_courses/cs260r/assignment4/data/td3_agent_single_v12/td3,97,-83.98676549672403,405517,155,4152.966464996338,-44.13443374633789,42.40194320678711,30.463001251220703,0.0,-43.66731262207031,-44.259368896484375,-0.5427582859992981
150,/Users/cjpark/Desktop/ucla_courses/cs260r/assignment4/data/td3_agent_single_v12/td3,97,-83.0766634198639,408517,156,4170.329441785812,-49.87892150878906,48.70671844482422,48.60676574707031,0.0,-49.131141662597656,-49.318790435791016,-0.5498101115226746
151,/Users/cjpark/Desktop/ucla_courses/cs260r/assignment4/data/td3_agent_single_v12/td3,98,-82.25844229796374,411517,157,4187.847368001938,-30.4854736328125,29.121713638305664,239.08056640625,0.0,-29.843700408935547,-29.06593894958496,-0.156673401594162
152,/Users/cjpark/Desktop/ucla_courses/cs260r/assignment4/data/td3_agent_single_v12/td3,98,-81.7281175218994,414517,158,4205.4251589775085,-17.976486206054688,16.167484283447266,62.4821891784668,0.0,-16.579246520996094,-18.57339096069336,-0.3545386791229248
153,/Users/cjpark/Desktop/ucla_courses/cs260r/assignment4/data/td3_agent_single_v12/td3,98,-81.32133245862283,417517,159,4222.939538002014,-25.004554748535156,24.69610595703125,23.133338928222656,0.0,-26.005353927612305,-26.061235427856445,0.04374845325946808
154,/Users/cjpark/Desktop/ucla_courses/cs260r/assignment4/data/td3_agent_single_v12/td3,99,-80.7701810757782,420517,160,4240.5351638793945,-20.24958038330078,19.46441078186035,476.46173095703125,0.0,-21.15961265563965,-20.327651977539062,-0.5487170219421387
155,/Users/cjpark/Desktop/ucla_courses/cs260r/assignment4/data/td3_agent_single_v12/td3,99,-80.26268652141232,423517,161,4258.02201294899,-20.618316650390625,19.91656494140625,47.419677734375,0.0,-21.129009246826172,-21.466453552246094,-0.5539188981056213
156,/Users/cjpark/Desktop/ucla_courses/cs260r/assignment4/data/td3_agent_single_v12/td3,99,-79.87155628624129,426517,162,4275.332620859146,-37.26072692871094,36.45487594604492,600.0758056640625,0.0,-38.49745559692383,-38.44634246826172,-0.16082610189914703
157,/Users/cjpark/Desktop/ucla_courses/cs260r/assignment4/data/td3_agent_single_v12/td3,100,-79.71850568916804,429517,163,4292.860977888107,-17.650007247924805,16.290077209472656,25.973411560058594,0.0,-17.246938705444336,-18.339941024780273,-0.34497320652008057
158,/Users/cjpark/Desktop/ucla_courses/cs260r/assignment4/data/td3_agent_single_v12/td3,100,-79.24714085096923,432517,164,4310.184463977814,-20.63849449157715,20.63734245300293,12.779190063476562,0.0,-21.269065856933594,-20.097110748291016,-0.151888906955719
159,/Users/cjpark/Desktop/ucla_courses/cs260r/assignment4/data/td3_agent_single_v12/td3,100,-78.71116682137155,435517,165,4327.873518943787,-17.903562545776367,17.404098510742188,17.76938247680664,0.0,-18.034818649291992,-16.834747314453125,-0.16271328926086426
160,/Users/cjpark/Desktop/ucla_courses/cs260r/assignment4/data/td3_agent_single_v12/td3,100,-78.3020495334193,438517,166,4345.285469055176,-25.2226505279541,25.29948616027832,109.4373779296875,0.0,-25.708131790161133,-25.199438095092773,-0.15802887082099915
161,/Users/cjpark/Desktop/ucla_courses/cs260r/assignment4/data/td3_agent_single_v12/td3,101,-77.80668758028975,441517,167,4362.781522035599,-28.083110809326172,27.32903480529785,25.94261932373047,0.0,-28.27485466003418,-27.388652801513672,-0.5503132939338684
162,/Users/cjpark/Desktop/ucla_courses/cs260r/assignment4/data/td3_agent_single_v12/td3,101,-77.66006505145218,444517,168,4380.276961803436,-21.60411834716797,20.70853042602539,49.644187927246094,0.0,-21.623205184936523,-22.31911277770996,-0.35384708642959595
163,/Users/cjpark/Desktop/ucla_courses/cs260r/assignment4/data/td3_agent_single_v12/td3,101,-77.26243615265501,447517,169,4397.610967874527,-36.45548629760742,34.469783782958984,25.283042907714844,0.0,-36.51760482788086,-36.413124084472656,-0.5413796901702881
164,/Users/cjpark/Desktop/ucla_courses/cs260r/assignment4/data/td3_agent_single_v12/td3,102,-77.33472532048062,450517,170,4415.368288040161,-15.872642517089844,14.732234954833984,25.610912322998047,0.0,-15.334888458251953,-15.672418594360352,0.037235088646411896
165,/Users/cjpark/Desktop/ucla_courses/cs260r/assignment4/data/td3_agent_single_v12/td3,102,-76.56678610494656,453517,171,4432.9746379852295,-25.331058502197266,24.038455963134766,49.358856201171875,0.0,-25.543567657470703,-25.131328582763672,-0.35555213689804077
166,/Users/cjpark/Desktop/ucla_courses/cs260r/assignment4/data/td3_agent_single_v12/td3,102,-75.98029786127523,456517,172,4450.562633037567,-19.01679039001465,18.473655700683594,57.30512237548828,0.0,-19.4909725189209,-18.68353271484375,-0.3529273271560669
167,/Users/cjpark/Desktop/ucla_courses/cs260r/assignment4/data/td3_agent_single_v12/td3,102,-75.19317599210446,459517,173,4467.864753961563,-23.005393981933594,21.608322143554688,53.47768020629883,0.0,-23.040876388549805,-22.845884323120117,-0.35501089692115784
168,/Users/cjpark/Desktop/ucla_courses/cs260r/assignment4/data/td3_agent_single_v12/td3,103,-74.70488146789494,462517,174,4485.376420974731,-20.6245059967041,19.119911193847656,61.34574890136719,0.0,-20.61056137084961,-20.881023406982422,-0.3509535491466522
169,/Users/cjpark/Desktop/ucla_courses/cs260r/assignment4/data/td3_agent_single_v12/td3,103,-74.30356735347338,465517,175,4502.918688058853,-29.471166610717773,28.314361572265625,35.65827560424805,0.0,-30.114328384399414,-30.739595413208008,-0.15303221344947815
170,/Users/cjpark/Desktop/ucla_courses/cs260r/assignment4/data/td3_agent_single_v12/td3,103,-84.61790792806757,468517,176,4520.427395820618,-10.648648262023926,9.83126163482666,14.22200870513916,0.0,-9.860389709472656,-8.802600860595703,0.03388764709234238
171,/Users/cjpark/Desktop/ucla_courses/cs260r/assignment4/data/td3_agent_single_v12/td3,103,-84.00092451382493,471517,177,4537.7281658649445,-31.258285522460938,30.07496452331543,392.39990234375,0.0,-33.231937408447266,-32.80397415161133,-0.9453819990158081
172,/Users/cjpark/Desktop/ucla_courses/cs260r/assignment4/data/td3_agent_single_v12/td3,104,-82.88333254147416,474517,178,4555.293030977249,-33.868927001953125,32.4901237487793,43.0174560546875,0.0,-33.81108474731445,-34.20894241333008,-0.7408308386802673
173,/Users/cjpark/Desktop/ucla_courses/cs260r/assignment4/data/td3_agent_single_v12/td3,104,-82.2938681143124,477517,179,4572.753572940826,-24.83243179321289,23.67559814453125,17.44125747680664,0.0,-23.6610050201416,-23.572338104248047,-0.147710382938385
174,/Users/cjpark/Desktop/ucla_courses/cs260r/assignment4/data/td3_agent_single_v12/td3,95,-81.4040454786485,480517,180,5056.849221944809,-17.75860595703125,17.56389808654785,85.00804138183594,0.0,-19.00447654724121,-18.301776885986328,0.03894912451505661
175,/Users/cjpark/Desktop/ucla_courses/cs260r/assignment4/data/td3_agent_single_v12/td3,95,-79.96931637556897,483517,181,5074.660128116608,-30.13214683532715,28.298599243164062,22.55280303955078,0.0,-29.692466735839844,-30.624305725097656,-0.3414076268672943
176,/Users/cjpark/Desktop/ucla_courses/cs260r/assignment4/data/td3_agent_single_v12/td3,95,-78.91079620216989,486517,182,5092.2493278980255,-28.371294021606445,26.761272430419922,200.98175048828125,0.0,-29.24312400817871,-29.332794189453125,-0.5510455965995789
177,/Users/cjpark/Desktop/ucla_courses/cs260r/assignment4/data/td3_agent_single_v12/td3,95,-217.53416434490086,489517,183,5109.896932840347,-23.607898712158203,23.09491729736328,50.48322296142578,0.0,-23.65804100036621,-23.214706420898438,-0.7413660287857056
178,/Users/cjpark/Desktop/ucla_courses/cs260r/assignment4/data/td3_agent_single_v12/td3,96,-216.23177747049843,492517,184,5127.668586015701,-22.519508361816406,20.960514068603516,27.82329750061035,0.0,-21.9698543548584,-22.3131046295166,-0.5477569699287415
179,/Users/cjpark/Desktop/ucla_courses/cs260r/assignment4/data/td3_agent_single_v12/td3,96,-215.1382756802825,495517,185,5145.254576921463,-17.682167053222656,15.869224548339844,14.754472732543945,0.0,-17.52469253540039,-18.04656982421875,-0.35274261236190796
180,/Users/cjpark/Desktop/ucla_courses/cs260r/assignment4/data/td3_agent_single_v12/td3,96,-213.9473663936713,498517,186,5163.077676773071,-39.30256652832031,37.361473083496094,62.141292572021484,0.0,-38.59969711303711,-38.733856201171875,-0.7413591146469116
181,/Users/cjpark/Desktop/ucla_courses/cs260r/assignment4/data/td3_agent_single_v12/td3,96,-213.00002721977563,501517,187,5180.774969816208,-36.187713623046875,35.05794143676758,27.972660064697266,0.0,-36.88908767700195,-36.55255889892578,-0.7412508726119995
182,/Users/cjpark/Desktop/ucla_courses/cs260r/assignment4/data/td3_agent_single_v12/td3,97,-211.71008533766758,504517,188,5198.425234079361,-20.64931869506836,19.213233947753906,82.9547119140625,0.0,-19.207178115844727,-19.407257080078125,-0.9356734752655029
183,/Users/cjpark/Desktop/ucla_courses/cs260r/assignment4/data/td3_agent_single_v12/td3,97,-210.47767705119338,507517,189,5215.947988986969,-23.96217155456543,22.816408157348633,18.136159896850586,0.0,-23.28719711303711,-23.385356903076172,0.034760940819978714
184,/Users/cjpark/Desktop/ucla_courses/cs260r/assignment4/data/td3_agent_single_v12/td3,97,-71.97987646058232,510517,190,5233.470252990723,-26.840755462646484,24.795642852783203,51.04390335083008,0.0,-25.583818435668945,-27.112459182739258,-0.16063527762889862
185,/Users/cjpark/Desktop/ucla_courses/cs260r/assignment4/data/td3_agent_single_v12/td3,97,-71.29543828487371,513517,191,5250.838762044907,-31.410808563232422,30.74625015258789,15.90313720703125,0.0,-31.829238891601562,-31.107513427734375,-0.15766246616840363
186,/Users/cjpark/Desktop/ucla_courses/cs260r/assignment4/data/td3_agent_single_v12/td3,98,-70.84221319426996,516517,192,5268.654802083969,-51.60514831542969,51.40305709838867,104.94576263427734,0.0,-51.91094207763672,-51.600791931152344,-0.9238308072090149
187,/Users/cjpark/Desktop/ucla_courses/cs260r/assignment4/data/td3_agent_single_v12/td3,98,-52.82960746797523,519517,193,5285.992551088333,-30.659456253051758,30.290298461914062,34.170188903808594,0.0,-30.574323654174805,-30.098161697387695,-0.15773166716098785
188,/Users/cjpark/Desktop/ucla_courses/cs260r/assignment4/data/td3_agent_single_v12/td3,98,-51.33422635131325,522517,194,5303.875238895416,-26.256710052490234,26.145132064819336,13.510075569152832,0.0,-26.68893814086914,-26.87181854248047,0.03384637087583542
189,/Users/cjpark/Desktop/ucla_courses/cs260r/assignment4/data/td3_agent_single_v12/td3,98,-50.43553248340794,525517,195,5321.22114109993,-25.670679092407227,25.972179412841797,62.18931579589844,0.0,-26.780807495117188,-25.476743698120117,-0.5484392642974854
190,/Users/cjpark/Desktop/ucla_courses/cs260r/assignment4/data/td3_agent_single_v12/td3,98,-48.551795113514764,528517,196,5339.42125082016,-38.29155349731445,37.96575164794922,36.253395080566406,0.0,-38.23277282714844,-38.53601837158203,-0.5460777878761292
191,/Users/cjpark/Desktop/ucla_courses/cs260r/assignment4/data/td3_agent_single_v12/td3,99,-46.94122461735031,531517,197,5357.940521001816,-33.15264129638672,32.72135925292969,40.479225158691406,0.0,-32.83732604980469,-32.913658142089844,-0.35754409432411194
192,/Users/cjpark/Desktop/ucla_courses/cs260r/assignment4/data/td3_agent_single_v12/td3,99,-46.0499384286386,534517,198,5376.256360054016,-34.70454406738281,33.67384719848633,25.075912475585938,0.0,-34.70128631591797,-34.78540802001953,-0.3582427203655243
193,/Users/cjpark/Desktop/ucla_courses/cs260r/assignment4/data/td3_agent_single_v12/td3,99,-45.179016782443185,537517,199,5393.723480939865,-35.599853515625,35.17704772949219,116.41407775878906,0.0,-36.75242614746094,-35.90504455566406,-0.5439732670783997
194,/Users/cjpark/Desktop/ucla_courses/cs260r/assignment4/data/td3_agent_single_v12/td3,99,-44.775735990348565,540517,200,5411.992899894714,-49.34720230102539,48.052886962890625,104.76213073730469,0.0,-49.83208465576172,-50.976139068603516,-0.14721575379371643
195,/Users/cjpark/Desktop/ucla_courses/cs260r/assignment4/data/td3_agent_single_v12/td3,100,-44.30468751608585,543517,201,5429.339241981506,-33.73209762573242,33.64946746826172,31.921491622924805,0.0,-35.149723052978516,-34.597354888916016,0.04514695331454277
196,/Users/cjpark/Desktop/ucla_courses/cs260r/assignment4/data/td3_agent_single_v12/td3,100,-43.66319928320958,546517,202,5446.946453094482,-28.49790382385254,28.668079376220703,12.584745407104492,0.0,-28.595630645751953,-28.498462677001953,0.03819090127944946
197,/Users/cjpark/Desktop/ucla_courses/cs260r/assignment4/data/td3_agent_single_v12/td3,100,-43.25119130061281,549517,203,5464.723841905594,-33.66410827636719,32.17768859863281,27.067703247070312,0.0,-32.33687973022461,-33.58668518066406,-0.34277796745300293
198,/Users/cjpark/Desktop/ucla_courses/cs260r/assignment4/data/td3_agent_single_v12/td3,100,-42.58480623089839,552517,204,5482.174590110779,-39.68587875366211,38.714073181152344,16.16720199584961,0.0,-40.675865173339844,-41.088069915771484,-0.3455730378627777
199,/Users/cjpark/Desktop/ucla_courses/cs260r/assignment4/data/td3_agent_single_v12/td3,101,-41.56288968799823,555517,205,5499.8032150268555,-31.86639404296875,30.34712791442871,48.14962387084961,0.0,-30.52101707458496,-30.540422439575195,-0.7426083087921143
200,/Users/cjpark/Desktop/ucla_courses/cs260r/assignment4/data/td3_agent_single_v12/td3,101,-40.93896129278369,558517,206,5517.766535997391,-44.97018814086914,44.0478401184082,16.26390266418457,0.0,-44.78546905517578,-44.680274963378906,-0.14651267230510712
201,/Users/cjpark/Desktop/ucla_courses/cs260r/assignment4/data/td3_agent_single_v12/td3,101,-39.89393219229585,561517,207,5535.175008058548,-39.13909912109375,37.919334411621094,90.06300354003906,0.0,-39.67289733886719,-40.06306457519531,-0.3508516848087311
202,/Users/cjpark/Desktop/ucla_courses/cs260r/assignment4/data/td3_agent_single_v12/td3,101,-39.44010555905226,564517,208,5552.117102861404,-26.18390655517578,25.180879592895508,23.482696533203125,0.0,-25.69058609008789,-25.664955139160156,-0.3487143814563751
203,/Users/cjpark/Desktop/ucla_courses/cs260r/assignment4/data/td3_agent_single_v12/td3,101,-39.0732957404342,567517,209,5569.465965986252,-40.55175018310547,39.7414436340332,29.00699234008789,0.0,-40.8758430480957,-39.586936950683594,-0.5457304120063782
204,/Users/cjpark/Desktop/ucla_courses/cs260r/assignment4/data/td3_agent_single_v12/td3,102,-38.4388614383042,570517,210,5587.3711948394775,-27.77499008178711,26.78816795349121,24.25836181640625,0.0,-27.48654556274414,-27.74724578857422,0.04722791165113449
205,/Users/cjpark/Desktop/ucla_courses/cs260r/assignment4/data/td3_agent_single_v12/td3,102,-38.76162399234211,573517,211,5605.046761035919,-35.77226257324219,35.23823165893555,29.77455711364746,0.0,-36.07459259033203,-34.972415924072266,-0.5413259267807007
206,/Users/cjpark/Desktop/ucla_courses/cs260r/assignment4/data/td3_agent_single_v12/td3,102,-38.44100067438542,576517,212,5622.646784067154,-37.625526428222656,36.30214309692383,18.711139678955078,0.0,-37.33369064331055,-37.169620513916016,-0.15149778127670288
207,/Users/cjpark/Desktop/ucla_courses/cs260r/assignment4/data/td3_agent_single_v12/td3,102,-38.51716511630397,579517,213,5640.085629940033,-41.135498046875,40.85723876953125,16.90582847595215,0.0,-41.29575729370117,-41.167755126953125,-0.35214972496032715
208,/Users/cjpark/Desktop/ucla_courses/cs260r/assignment4/data/td3_agent_single_v12/td3,102,-38.358292613819394,582517,214,5658.0700051784515,-30.16487693786621,29.799076080322266,22.510395050048828,0.0,-31.711950302124023,-31.262447357177734,-0.14612320065498352
209,/Users/cjpark/Desktop/ucla_courses/cs260r/assignment4/data/td3_agent_single_v12/td3,103,-38.0810228398751,585517,215,5675.3892550468445,-40.79615020751953,40.03290557861328,63.50849151611328,0.0,-40.721275329589844,-40.72897720336914,-0.9370347261428833
210,/Users/cjpark/Desktop/ucla_courses/cs260r/assignment4/data/td3_agent_single_v12/td3,103,-37.57287607272522,588517,216,5693.058287858963,-34.9631233215332,33.44805145263672,29.066650390625,0.0,-34.34294128417969,-34.76002502441406,-0.7305388450622559
211,/Users/cjpark/Desktop/ucla_courses/cs260r/assignment4/data/td3_agent_single_v12/td3,103,-37.399291014104485,591517,217,5711.107670068741,-33.46245574951172,32.852901458740234,17.764020919799805,0.0,-34.06809997558594,-33.79354476928711,-0.3380202353000641
212,/Users/cjpark/Desktop/ucla_courses/cs260r/assignment4/data/td3_agent_single_v12/td3,103,-36.89440708717466,594517,218,5728.768668889999,-33.44868087768555,32.44361877441406,43.49213409423828,0.0,-33.84926986694336,-33.677024841308594,-0.5518840551376343
213,/Users/cjpark/Desktop/ucla_courses/cs260r/assignment4/data/td3_agent_single_v12/td3,103,-36.64676290989367,597517,219,5746.456781864166,-29.054519653320312,27.761411666870117,56.41722106933594,0.0,-27.535900115966797,-28.62613296508789,-0.3485005795955658
