cjunkin/reinforcement-learning/metaracer/data/td3_agent_single_decreased_lr/td3/progress.csv
,log_dir,frame_per_second,episode_reward,total_steps,total_episodes,total_time,target_q,actor_loss,critic_loss,success_rate,current_q1,current_q2,reward
0,/Users/cjpark/Desktop/ucla_courses/cs260r/assignment4/data/td3_agent_single_decreased_lr/td3,1358,-3667.402060508728,2999,1,2.207106113433838,,,,0.0,,,
1,/Users/cjpark/Desktop/ucla_courses/cs260r/assignment4/data/td3_agent_single_decreased_lr/td3,1276,-3244.541476249695,5999,2,4.700368165969849,,,,0.0,,,
2,/Users/cjpark/Desktop/ucla_courses/cs260r/assignment4/data/td3_agent_single_decreased_lr/td3,1283,-3753.4896268844604,8999,3,7.013244867324829,,,,0.0,,,
3,/Users/cjpark/Desktop/ucla_courses/cs260r/assignment4/data/td3_agent_single_decreased_lr/td3,480,-18561.836335897446,11999,4,24.9579598903656,-14.258949279785156,12.848769187927246,505.91192626953125,0.0,-13.015260696411133,-11.7626314163208,-5.654611587524414
4,/Users/cjpark/Desktop/ucla_courses/cs260r/assignment4/data/td3_agent_single_decreased_lr/td3,294,-19589.087154006957,14999,5,50.97784614562988,-48.431304931640625,45.83854675292969,658.0047607421875,0.0,-46.50441360473633,-46.29141616821289,-7.806245803833008
5,/Users/cjpark/Desktop/ucla_courses/cs260r/assignment4/data/td3_agent_single_decreased_lr/td3,232,-23623.61647764842,17999,6,77.39382410049438,-89.25811004638672,84.00862884521484,912.640869140625,0.0,-85.577392578125,-85.35577392578125,-11.517555236816406
6,/Users/cjpark/Desktop/ucla_courses/cs260r/assignment4/data/td3_agent_single_decreased_lr/td3,223,-24184.179108347213,18569,7,83.04827499389648,-93.32056427001953,92.87142181396484,661.743408203125,0.0,-94.10637664794922,-94.00392150878906,-8.002546310424805
7,/Users/cjpark/Desktop/ucla_courses/cs260r/assignment4/data/td3_agent_single_decreased_lr/td3,209,-20923.202822208405,19425,10,92.72659921646118,-112.32891845703125,110.69708251953125,959.7389526367188,0.0,-111.15216064453125,-111.11775207519531,-11.321525573730469
8,/Users/cjpark/Desktop/ucla_courses/cs260r/assignment4/data/td3_agent_single_decreased_lr/td3,181,-20990.605738199672,22814,13,125.79824304580688,-183.709228515625,,785.8017578125,0.0,-184.12571716308594,-183.87417602539062,-11.518355369567871
9,/Users/cjpark/Desktop/ucla_courses/cs260r/assignment4/data/td3_agent_single_decreased_lr/td3,167,-21266.086374759674,25814,14,154.18942213058472,-236.83255004882812,,681.854736328125,0.0,-238.27821350097656,-238.3960418701172,-9.761847496032715
10,/Users/cjpark/Desktop/ucla_courses/cs260r/assignment4/data/td3_agent_single_decreased_lr/td3,158,-24521.642053349813,28814,15,181.2494411468506,-297.8323059082031,,988.674072265625,0.0,-299.34405517578125,-299.32366943359375,-12.49549388885498
11,/Users/cjpark/Desktop/ucla_courses/cs260r/assignment4/data/td3_agent_single_decreased_lr/td3,152,-26095.311985969543,31814,16,208.24268412590027,-337.9600524902344,,1131.549072265625,0.0,-339.0955505371094,-339.1651916503906,-11.518978118896484
12,/Users/cjpark/Desktop/ucla_courses/cs260r/assignment4/data/td3_agent_single_decreased_lr/td3,147,-25330.732165448804,34814,17,236.08018398284912,-350.2769775390625,,707.9608154296875,0.0,-349.4831848144531,-349.6225891113281,-13.278182983398438
13,/Users/cjpark/Desktop/ucla_courses/cs260r/assignment4/data/td3_agent_single_decreased_lr/td3,144,-26192.830428494348,37814,18,262.0605471134186,-346.515625,,733.6162109375,0.0,-347.81561279296875,-347.7384338378906,-12.300283432006836
14,/Users/cjpark/Desktop/ucla_courses/cs260r/assignment4/data/td3_agent_single_decreased_lr/td3,140,-25298.46383129923,40814,19,290.64835000038147,-363.97930908203125,,698.0906982421875,0.0,-365.53680419921875,-365.5341491699219,-10.738357543945312
15,/Users/cjpark/Desktop/ucla_courses/cs260r/assignment4/data/td3_agent_single_decreased_lr/td3,137,-25913.4560213089,43814,20,318.524197101593,-367.1543884277344,,782.5853271484375,0.0,-364.22613525390625,-364.2315673828125,-13.082792282104492
16,/Users/cjpark/Desktop/ucla_courses/cs260r/assignment4/data/td3_agent_single_decreased_lr/td3,135,-26555.595826648532,46814,21,344.76957416534424,-415.8893127441406,,827.083251953125,0.0,-415.23529052734375,-415.0888671875,-11.715666770935059
17,/Users/cjpark/Desktop/ucla_courses/cs260r/assignment4/data/td3_agent_single_decreased_lr/td3,133,-27000.717168114403,49814,22,372.5458459854126,-469.633544921875,,851.3104858398438,0.0,-467.10302734375,-467.17864990234375,-14.450606346130371
18,/Users/cjpark/Desktop/ucla_courses/cs260r/assignment4/data/td3_agent_single_decreased_lr/td3,132,-27657.156424480934,52814,23,400.0269310474396,-545.1558837890625,,901.81689453125,0.0,-543.1829833984375,-543.143310546875,-14.4505033493042
19,/Users/cjpark/Desktop/ucla_courses/cs260r/assignment4/data/td3_agent_single_decreased_lr/td3,130,-27985.954703768093,55814,24,426.8559191226959,-558.789306640625,,1059.4654541015625,0.0,-557.7100219726562,-557.763916015625,-13.27880573272705
20,/Users/cjpark/Desktop/ucla_courses/cs260r/assignment4/data/td3_agent_single_decreased_lr/td3,129,-28614.581644058228,58814,25,455.3574330806732,-569.148681640625,,730.5665283203125,0.0,-569.8724365234375,-570.0692749023438,-11.717604637145996
21,/Users/cjpark/Desktop/ucla_courses/cs260r/assignment4/data/td3_agent_single_decreased_lr/td3,127,-27514.39606797695,61814,26,483.72424817085266,-587.4594116210938,,1100.304931640625,0.0,-588.80078125,-588.43896484375,-10.153984069824219
22,/Users/cjpark/Desktop/ucla_courses/cs260r/assignment4/data/td3_agent_single_decreased_lr/td3,127,-26495.863670909846,64814,27,510.0607681274414,-594.3613891601562,,4598.05029296875,0.0,-596.7882690429688,-596.85693359375,-8.786237716674805
23,/Users/cjpark/Desktop/ucla_courses/cs260r/assignment4/data/td3_agent_single_decreased_lr/td3,126,-25550.104302465916,67814,28,537.2887899875641,-633.4568481445312,,11584.111328125,0.0,-639.2778930664062,-639.3131713867188,-10.350610733032227
24,/Users/cjpark/Desktop/ucla_courses/cs260r/assignment4/data/td3_agent_single_decreased_lr/td3,125,-24669.57102776396,70814,29,565.7607321739197,-629.4033203125,,1092.153076171875,0.0,-629.3429565429688,-629.4953002929688,-9.568561553955078
25,/Users/cjpark/Desktop/ucla_courses/cs260r/assignment4/data/td3_agent_single_decreased_lr/td3,124,-24356.02849340141,73814,30,591.6137430667877,-600.3427734375,,766.7451171875,0.0,-600.85546875,-601.0484619140625,-10.742398262023926
26,/Users/cjpark/Desktop/ucla_courses/cs260r/assignment4/data/td3_agent_single_decreased_lr/td3,123,-23949.845669536822,76814,31,620.3159401416779,-605.9641723632812,,925.579833984375,0.0,-607.40185546875,-607.3551025390625,-7.811789512634277
27,/Users/cjpark/Desktop/ucla_courses/cs260r/assignment4/data/td3_agent_single_decreased_lr/td3,121,-23486.237088607624,79814,32,655.3637940883636,-554.3718872070312,,866.323974609375,0.0,-554.4885864257812,-554.2341918945312,-9.179304122924805
28,/Users/cjpark/Desktop/ucla_courses/cs260r/assignment4/data/td3_agent_single_decreased_lr/td3,120,-23008.284661423077,82814,33,686.279746055603,-482.11968994140625,,968.2711181640625,0.0,-481.979248046875,-482.0437927246094,-6.640638828277588
29,/Users/cjpark/Desktop/ucla_courses/cs260r/assignment4/data/td3_agent_single_decreased_lr/td3,119,-22332.01957890216,85814,34,719.4919600486755,-585.2720947265625,,976.590576171875,0.0,-583.26416015625,-583.1605224609375,-9.57009220123291
30,/Users/cjpark/Desktop/ucla_courses/cs260r/assignment4/data/td3_agent_single_decreased_lr/td3,118,-21694.408024440494,88814,35,751.8759880065918,-572.2470703125,,999.5191650390625,0.0,-572.1162719726562,-572.1155395507812,-8.788664817810059
31,/Users/cjpark/Desktop/ucla_courses/cs260r/assignment4/data/td3_agent_single_decreased_lr/td3,116,-21092.197330176,91814,36,786.1531829833984,-571.6934814453125,,942.7140502929688,0.0,-570.3274536132812,-570.4957275390625,-8.593454360961914
32,/Users/cjpark/Desktop/ucla_courses/cs260r/assignment4/data/td3_agent_single_decreased_lr/td3,115,-20522.486947935176,94814,37,819.8286919593811,-560.1138305664062,,917.6953125,0.0,-559.48583984375,-559.4222412109375,-9.766138076782227
33,/Users/cjpark/Desktop/ucla_courses/cs260r/assignment4/data/td3_agent_single_decreased_lr/td3,114,-19982.73230820502,97814,38,854.535079240799,-389.3442077636719,,1210.66259765625,0.0,-386.4188537597656,-386.45379638671875,-5.860166549682617
34,/Users/cjpark/Desktop/ucla_courses/cs260r/assignment4/data/td3_agent_single_decreased_lr/td3,112,-19470.61210547273,100814,39,893.7480659484863,-441.69793701171875,,9668.16796875,0.0,-446.2012939453125,-446.3158874511719,-6.446552276611328
35,/Users/cjpark/Desktop/ucla_courses/cs260r/assignment4/data/td3_agent_single_decreased_lr/td3,111,-18984.062106304616,103814,40,928.8960719108582,-534.796630859375,,1230.946533203125,0.0,-535.533935546875,-535.435302734375,-8.39881706237793
36,/Users/cjpark/Desktop/ucla_courses/cs260r/assignment4/data/td3_agent_single_decreased_lr/td3,110,-18521.198572256944,106814,41,963.8147509098053,-489.11553955078125,,1337.3623046875,0.0,-489.864990234375,-490.10614013671875,-7.422637462615967
37,/Users/cjpark/Desktop/ucla_courses/cs260r/assignment4/data/td3_agent_single_decreased_lr/td3,109,-18080.39298789203,109814,42,999.1025991439819,-391.5870361328125,,13050.580078125,0.0,-396.28350830078125,-396.24267578125,-6.837006092071533
38,/Users/cjpark/Desktop/ucla_courses/cs260r/assignment4/data/td3_agent_single_decreased_lr/td3,109,-17660.134120968192,112814,43,1034.3853402137756,-460.31634521484375,,1149.747314453125,0.0,-460.49969482421875,-460.55084228515625,-7.032281398773193
39,/Users/cjpark/Desktop/ucla_courses/cs260r/assignment4/data/td3_agent_single_decreased_lr/td3,108,-17258.851077691397,115814,44,1068.2464199066162,-357.67803955078125,,1217.9755859375,0.0,-356.1073913574219,-356.1324157714844,-6.445781230926514
40,/Users/cjpark/Desktop/ucla_courses/cs260r/assignment4/data/td3_agent_single_decreased_lr/td3,108,-16875.4890236689,118814,45,1098.6919600963593,-373.2907409667969,,1173.5205078125,0.0,-372.4480895996094,-372.6912841796875,-6.447182655334473
41,/Users/cjpark/Desktop/ucla_courses/cs260r/assignment4/data/td3_agent_single_decreased_lr/td3,107,-16508.79604164867,121814,46,1130.5029380321503,-411.2144775390625,,1392.7001953125,0.0,-408.649658203125,-408.8596496582031,-7.031531810760498
42,/Users/cjpark/Desktop/ucla_courses/cs260r/assignment4/data/td3_agent_single_decreased_lr/td3,107,-16157.632157178,124814,47,1162.021478176117,-369.09490966796875,,1418.7021484375,0.0,-370.2036437988281,-370.30780029296875,-6.446378231048584
43,/Users/cjpark/Desktop/ucla_courses/cs260r/assignment4/data/td3_agent_single_decreased_lr/td3,106,-15821.084047232443,127814,48,1194.8550651073456,-335.4617614746094,,17941.3515625,0.0,-343.0458068847656,-342.86798095703125,-6.251692295074463
44,/Users/cjpark/Desktop/ucla_courses/cs260r/assignment4/data/td3_agent_single_decreased_lr/td3,106,-15498.384172657923,130814,49,1227.2077860832214,-304.3236389160156,,1409.11865234375,0.0,-303.09783935546875,-303.1278076171875,-5.860047340393066
45,/Users/cjpark/Desktop/ucla_courses/cs260r/assignment4/data/td3_agent_single_decreased_lr/td3,106,-15188.444018196464,133814,50,1260.1223289966583,-321.664794921875,,983.2371826171875,0.0,-320.4585266113281,-320.54229736328125,-7.227859020233154
46,/Users/cjpark/Desktop/ucla_courses/cs260r/assignment4/data/td3_agent_single_decreased_lr/td3,105,-14890.685086964977,136814,51,1290.865730047226,-337.2131652832031,,14186.943359375,0.0,-342.03936767578125,-342.2163391113281,-7.422920227050781
47,/Users/cjpark/Desktop/ucla_courses/cs260r/assignment4/data/td3_agent_single_decreased_lr/td3,105,-14604.402628535834,139814,52,1324.131577014923,-311.1374206542969,,1241.1865234375,0.0,-310.64898681640625,-310.74005126953125,-4.493383884429932
48,/Users/cjpark/Desktop/ucla_courses/cs260r/assignment4/data/td3_agent_single_decreased_lr/td3,105,-14328.915433707665,142814,53,1356.782870054245,-305.4028015136719,,1326.797119140625,0.0,-302.7409362792969,-302.8346862792969,-5.469188690185547
49,/Users/cjpark/Desktop/ucla_courses/cs260r/assignment4/data/td3_agent_single_decreased_lr/td3,104,-14063.585341280808,145814,54,1396.2560350894928,-217.0137939453125,,1368.02685546875,0.0,-216.22662353515625,-216.0450439453125,-3.9074745178222656
50,/Users/cjpark/Desktop/ucla_courses/cs260r/assignment4/data/td3_agent_single_decreased_lr/td3,103,-13814.29264469526,148814,55,1435.2044558525085,-247.58642578125,,1388.1614990234375,0.0,-245.7067413330078,-245.72219848632812,-6.055388450622559
51,/Users/cjpark/Desktop/ucla_courses/cs260r/assignment4/data/td3_agent_single_decreased_lr/td3,102,-13567.634856346995,151814,56,1473.9280560016632,-241.489990234375,,954.9974365234375,0.0,-239.1479034423828,-239.10772705078125,-5.86114501953125
52,/Users/cjpark/Desktop/ucla_courses/cs260r/assignment4/data/td3_agent_single_decreased_lr/td3,102,-13329.63017803692,154814,57,1516.9453110694885,-232.37596130371094,,818.6414184570312,0.0,-232.14540100097656,-232.19882202148438,-4.298255920410156
53,/Users/cjpark/Desktop/ucla_courses/cs260r/assignment4/data/td3_agent_single_decreased_lr/td3,100,-13099.83314095232,157814,58,1564.2006859779358,-158.1647491455078,,868.4771728515625,0.0,-158.2636260986328,-158.23719787597656,-3.9079055786132812
54,/Users/cjpark/Desktop/ucla_courses/cs260r/assignment4/data/td3_agent_single_decreased_lr/td3,99,-12877.82353695722,160814,59,1611.423676252365,-189.67298889160156,,814.2308349609375,0.0,-189.47691345214844,-189.66554260253906,-3.1261699199676514
55,/Users/cjpark/Desktop/ucla_courses/cs260r/assignment4/data/td3_agent_single_decreased_lr/td3,99,-12663.212641862532,163814,60,1654.4218261241913,-177.92047119140625,,1090.7423095703125,0.0,-178.11280822753906,-178.1012725830078,-3.516969919204712
56,/Users/cjpark/Desktop/ucla_courses/cs260r/assignment4/data/td3_agent_single_decreased_lr/td3,97,-12455.679594543624,166814,61,1703.209480047226,-248.4842071533203,,815.4052734375,0.0,-245.642333984375,-245.57626342773438,-5.470364570617676
57,/Users/cjpark/Desktop/ucla_courses/cs260r/assignment4/data/td3_agent_single_decreased_lr/td3,96,-12254.799793077573,169814,62,1752.6928749084473,-184.832275390625,,679.8621826171875,0.0,-185.77630615234375,-186.06552124023438,-4.6880998611450195
58,/Users/cjpark/Desktop/ucla_courses/cs260r/assignment4/data/td3_agent_single_decreased_lr/td3,96,-12060.299375325441,172814,63,1800.0647580623627,-193.82296752929688,,897.57958984375,0.0,-194.39215087890625,-194.5606689453125,-5.663876533508301
59,/Users/cjpark/Desktop/ucla_courses/cs260r/assignment4/data/td3_agent_single_decreased_lr/td3,95,-11871.876363489311,175814,64,1846.3401882648468,-171.93190002441406,,9652.7216796875,0.0,-176.23095703125,-176.5533905029297,-2.73544979095459
60,/Users/cjpark/Desktop/ucla_courses/cs260r/assignment4/data/td3_agent_single_decreased_lr/td3,94,-11689.25223428607,178814,65,1889.811604976654,-212.0454864501953,,806.6446533203125,0.0,-210.9014892578125,-210.718505859375,-5.469615459442139
61,/Users/cjpark/Desktop/ucla_courses/cs260r/assignment4/data/td3_agent_single_decreased_lr/td3,94,-11512.16318739138,181814,66,1932.1641561985016,-128.76458740234375,,427.46746826171875,0.0,-128.62828063964844,-128.55319213867188,-3.7121174335479736
62,/Users/cjpark/Desktop/ucla_courses/cs260r/assignment4/data/td3_agent_single_decreased_lr/td3,93,-11340.356080841217,184814,67,1976.3237941265106,-172.6139373779297,,584.7008666992188,0.0,-172.14871215820312,-172.449951171875,-2.735384941101074
63,/Users/cjpark/Desktop/ucla_courses/cs260r/assignment4/data/td3_agent_single_decreased_lr/td3,92,-11173.595733856015,187814,68,2022.9853649139404,-161.4943084716797,,636.7459716796875,0.0,-163.23997497558594,-163.28717041015625,-4.2984418869018555
64,/Users/cjpark/Desktop/ucla_courses/cs260r/assignment4/data/td3_agent_single_decreased_lr/td3,92,-11011.675219469744,190814,69,2073.6086440086365,-151.3936767578125,,542.989501953125,0.0,-150.08740234375,-150.02926635742188,-3.9068500995635986
65,/Users/cjpark/Desktop/ucla_courses/cs260r/assignment4/data/td3_agent_single_decreased_lr/td3,91,-10854.383568398867,193814,70,2118.5374178886414,-120.98285675048828,,716.166015625,0.0,-121.07928466796875,-121.11189270019531,-2.7350010871887207
66,/Users/cjpark/Desktop/ucla_courses/cs260r/assignment4/data/td3_agent_single_decreased_lr/td3,91,-10701.547071755353,196814,71,2162.325632095337,-170.0551300048828,,665.5469970703125,0.0,-170.72694396972656,-170.76893615722656,-5.079067707061768
67,/Users/cjpark/Desktop/ucla_courses/cs260r/assignment4/data/td3_agent_single_decreased_lr/td3,90,-10552.929448779672,199814,72,2207.6779131889343,-150.61312866210938,,545.505615234375,0.0,-149.315185546875,-149.30787658691406,-3.9071483612060547
68,/Users/cjpark/Desktop/ucla_courses/cs260r/assignment4/data/td3_agent_single_decreased_lr/td3,90,-10408.384509638156,202814,73,2250.5015439987183,-177.98583984375,,717.9820556640625,0.0,-179.2059326171875,-179.2384490966797,-4.297856330871582
69,/Users/cjpark/Desktop/ucla_courses/cs260r/assignment4/data/td3_agent_single_decreased_lr/td3,89,-10267.745509485538,205814,74,2290.9263439178467,-165.69696044921875,,393.865478515625,0.0,-166.4048309326172,-166.67019653320312,-3.321013927459717
70,/Users/cjpark/Desktop/ucla_courses/cs260r/assignment4/data/td3_agent_single_decreased_lr/td3,89,-10130.861162010431,208814,75,2331.9788842201233,-158.0255889892578,,409.6367492675781,0.0,-156.74420166015625,-156.37228393554688,-6.055421352386475
71,/Users/cjpark/Desktop/ucla_courses/cs260r/assignment4/data/td3_agent_single_decreased_lr/td3,89,-9997.581444605008,211814,76,2372.653407096863,-153.04275512695312,,332.90692138671875,0.0,-153.96163940429688,-154.28939819335938,-2.5391807556152344
72,/Users/cjpark/Desktop/ucla_courses/cs260r/assignment4/data/td3_agent_single_decreased_lr/td3,88,-9867.801592123586,214814,77,2414.108293056488,-145.1104278564453,,496.19073486328125,0.0,-146.70079040527344,-146.31271362304688,-4.102362632751465
73,/Users/cjpark/Desktop/ucla_courses/cs260r/assignment4/data/td3_agent_single_decreased_lr/td3,88,-9741.312267831885,217814,78,2455.5981550216675,-171.79037475585938,,821.6787719726562,0.0,-172.80311584472656,-172.49562072753906,-3.9063971042633057
74,/Users/cjpark/Desktop/ucla_courses/cs260r/assignment4/data/td3_agent_single_decreased_lr/td3,88,-9618.02346750113,220814,79,2498.021188020706,-132.09228515625,,344.07568359375,0.0,-131.31204223632812,-131.39962768554688,-4.298037528991699
75,/Users/cjpark/Desktop/ucla_courses/cs260r/assignment4/data/td3_agent_single_decreased_lr/td3,88,-9497.823770358786,223814,80,2538.6257610321045,-111.56843566894531,,357.4291076660156,0.0,-110.45996856689453,-110.69889831542969,-3.712027072906494
76,/Users/cjpark/Desktop/ucla_courses/cs260r/assignment4/data/td3_agent_single_decreased_lr/td3,87,-9380.579003784023,226814,81,2580.367933988571,-131.8511199951172,,419.1432800292969,0.0,-130.4147186279297,-130.49697875976562,-3.9065492153167725
77,/Users/cjpark/Desktop/ucla_courses/cs260r/assignment4/data/td3_agent_single_decreased_lr/td3,87,-9266.219121016744,229814,82,2620.969125032425,-156.6667022705078,,328.34521484375,0.0,-156.3496856689453,-156.3896484375,-4.883138179779053
78,/Users/cjpark/Desktop/ucla_courses/cs260r/assignment4/data/td3_agent_single_decreased_lr/td3,87,-9154.594406302795,232814,83,2660.9261960983276,-132.35543823242188,,5337.77734375,0.0,-136.6136016845703,-136.62078857421875,-3.1262717247009277
79,/Users/cjpark/Desktop/ucla_courses/cs260r/assignment4/data/td3_agent_single_decreased_lr/td3,87,-9045.625350466442,235814,84,2702.3899760246277,-160.28567504882812,,396.805908203125,0.0,-157.7645263671875,-157.8551025390625,-5.859835624694824
80,/Users/cjpark/Desktop/ucla_courses/cs260r/assignment4/data/td3_agent_single_decreased_lr/td3,87,-8939.218635516658,238814,85,2743.6225888729095,-128.19586181640625,,354.2639465332031,0.0,-130.29054260253906,-130.31040954589844,-2.344714641571045
81,/Users/cjpark/Desktop/ucla_courses/cs260r/assignment4/data/td3_agent_single_decreased_lr/td3,86,-8835.288532492379,241814,86,2783.5191190242767,-78.88360595703125,,330.4987487792969,0.0,-78.93522644042969,-79.06257629394531,-3.124643564224243
82,/Users/cjpark/Desktop/ucla_courses/cs260r/assignment4/data/td3_agent_single_decreased_lr/td3,86,-8733.748521971635,244814,87,2824.8863360881805,-81.0921859741211,,322.634765625,0.0,-80.86785888671875,-80.45563507080078,-2.1489319801330566
83,/Users/cjpark/Desktop/ucla_courses/cs260r/assignment4/data/td3_agent_single_decreased_lr/td3,86,-8634.518469357694,247814,88,2865.617990255356,-92.77058410644531,,325.6949157714844,0.0,-94.20753479003906,-93.99118041992188,-2.149296283721924
84,/Users/cjpark/Desktop/ucla_courses/cs260r/assignment4/data/td3_agent_single_decreased_lr/td3,86,-8552.691725883256,250814,89,2905.9877429008484,-92.71385955810547,,437.7237548828125,0.0,-91.27359771728516,-91.13029479980469,-2.9292094707489014
85,/Users/cjpark/Desktop/ucla_courses/cs260r/assignment4/data/td3_agent_single_decreased_lr/td3,86,-8459.898294493556,253814,90,2947.243727207184,-88.4622802734375,,189.63595581054688,0.0,-88.90375518798828,-88.91293334960938,-2.344036340713501
86,/Users/cjpark/Desktop/ucla_courses/cs260r/assignment4/data/td3_agent_single_decreased_lr/td3,85,-8425.742970573705,256814,91,2991.9652211666107,-119.69881439208984,,199.7130126953125,0.0,-119.2330551147461,-119.37255096435547,-3.32077956199646
87,/Users/cjpark/Desktop/ucla_courses/cs260r/assignment4/data/td3_agent_single_decreased_lr/td3,85,-8334.173639735125,259814,92,3033.0173251628876,-76.12107849121094,,143.33082580566406,0.0,-76.24019622802734,-76.43978881835938,-1.5635021924972534
88,/Users/cjpark/Desktop/ucla_courses/cs260r/assignment4/data/td3_agent_single_decreased_lr/td3,85,-8293.50271679477,262814,93,3071.3801131248474,-97.01973724365234,,181.50332641601562,0.0,-97.2554931640625,-96.94837951660156,-2.5403120517730713
89,/Users/cjpark/Desktop/ucla_courses/cs260r/assignment4/data/td3_agent_single_decreased_lr/td3,85,-8264.334705395584,265814,94,3109.7012841701508,-89.22567749023438,,451.789306640625,0.0,-87.66439819335938,-87.68514251708984,-4.102313995361328
90,/Users/cjpark/Desktop/ucla_courses/cs260r/assignment4/data/td3_agent_single_decreased_lr/td3,85,-8177.353395454194,268814,95,3148.207952260971,-145.4110565185547,,220.932861328125,0.0,-146.5610809326172,-146.44119262695312,-2.9303276538848877
91,/Users/cjpark/Desktop/ucla_courses/cs260r/assignment4/data/td3_agent_single_decreased_lr/td3,85,-8092.185666305013,271814,96,3185.6829900741577,-105.24382781982422,,267.66790771484375,0.0,-103.58311462402344,-103.40006256103516,-4.297837734222412
92,/Users/cjpark/Desktop/ucla_courses/cs260r/assignment4/data/td3_agent_single_decreased_lr/td3,85,-8008.773209878772,274814,97,3226.5408210754395,-71.60028076171875,,153.71337890625,0.0,-71.95745086669922,-72.09011840820312,-2.1493961811065674
93,/Users/cjpark/Desktop/ucla_courses/cs260r/assignment4/data/td3_agent_single_decreased_lr/td3,85,-7994.930995193975,277814,98,3266.3902599811554,-106.4834976196289,,339.65386962890625,0.0,-106.55209350585938,-106.51953125,-2.540196418762207
94,/Users/cjpark/Desktop/ucla_courses/cs260r/assignment4/data/td3_agent_single_decreased_lr/td3,84,-7976.828108539184,280814,99,3308.6562690734863,-109.977294921875,,155.07180786132812,0.0,-108.90829467773438,-108.74413299560547,-2.149247646331787
95,/Users/cjpark/Desktop/ucla_courses/cs260r/assignment4/data/td3_agent_single_decreased_lr/td3,84,-7897.07363081187,283814,100,3359.897445201874,-102.34576416015625,,267.7567138671875,0.0,-101.639404296875,-101.89329528808594,-3.711658477783203
96,/Users/cjpark/Desktop/ucla_courses/cs260r/assignment4/data/td3_agent_single_decreased_lr/td3,84,-7861.414055912197,286814,101,3406.3649752140045,-99.73005676269531,,237.86000061035156,0.0,-99.71769714355469,-99.51628112792969,-2.5399715900421143
97,/Users/cjpark/Desktop/ucla_courses/cs260r/assignment4/data/td3_agent_single_decreased_lr/td3,84,-7895.725181486308,289814,102,3449.7091069221497,-111.29257202148438,,193.79830932617188,0.0,-109.75765228271484,-109.82997131347656,-3.7117903232574463
98,/Users/cjpark/Desktop/ucla_courses/cs260r/assignment4/data/td3_agent_single_decreased_lr/td3,83,-7863.530461294353,292814,103,3491.0344851017,-130.54676818847656,,416.66168212890625,0.0,-130.09420776367188,-130.40235900878906,-3.515683889389038
99,/Users/cjpark/Desktop/ucla_courses/cs260r/assignment4/data/td3_agent_single_decreased_lr/td3,83,-7329.681057846248,295814,104,3532.158133983612,-95.40010070800781,,236.0042266845703,0.0,-94.02791595458984,-94.37939453125,-1.5633904933929443
100,/Users/cjpark/Desktop/ucla_courses/cs260r/assignment4/data/td3_agent_single_decreased_lr/td3,83,-7098.216785385311,298814,105,3574.6872429847717,-95.4439926147461,,470.4759521484375,0.0,-95.89872741699219,-95.9867935180664,-2.1492416858673096
101,/Users/cjpark/Desktop/ucla_courses/cs260r/assignment4/data/td3_agent_single_decreased_lr/td3,83,-6761.777221500575,301814,106,3617.2553222179413,-98.37982940673828,,186.10183715820312,0.0,-98.83574676513672,-98.8063735961914,-2.9303436279296875
102,/Users/cjpark/Desktop/ucla_courses/cs260r/assignment4/data/td3_agent_single_decreased_lr/td3,83,-6548.314457561672,304814,107,3658.1366200447083,-84.62274169921875,,180.41358947753906,0.0,-85.6270751953125,-85.60366821289062,-1.7588027715682983
103,/Users/cjpark/Desktop/ucla_courses/cs260r/assignment4/data/td3_agent_single_decreased_lr/td3,83,-6543.85416392535,307814,108,3700.82012796402,-89.21336364746094,,386.89154052734375,0.0,-89.42752838134766,-89.46127319335938,-2.1489548683166504
104,/Users/cjpark/Desktop/ucla_courses/cs260r/assignment4/data/td3_agent_single_decreased_lr/td3,83,-6515.901720287502,310814,109,3742.945037126541,-92.86473083496094,,164.90431213378906,0.0,-93.01141357421875,-93.2275390625,-2.3445887565612793
105,/Users/cjpark/Desktop/ucla_courses/cs260r/assignment4/data/td3_agent_single_decreased_lr/td3,82,-6350.952912857235,313814,110,3783.302714109421,-116.56266021728516,,5499.875,0.0,-120.69476318359375,-120.19783020019531,-2.7346835136413574
106,/Users/cjpark/Desktop/ucla_courses/cs260r/assignment4/data/td3_agent_single_decreased_lr/td3,82,-6287.004492389858,316814,111,3826.2525680065155,-88.67474365234375,,258.09808349609375,0.0,-87.82768249511719,-88.13062286376953,-3.126297950744629
107,/Users/cjpark/Desktop/ucla_courses/cs260r/assignment4/data/td3_agent_single_decreased_lr/td3,82,-6349.041037199199,319814,112,3879.1522920131683,-102.33499145507812,,223.454345703125,0.0,-102.09459686279297,-102.25129699707031,-2.343766212463379
108,/Users/cjpark/Desktop/ucla_courses/cs260r/assignment4/data/td3_agent_single_decreased_lr/td3,82,-5955.073736946285,322814,113,3932.779881954193,-99.80367279052734,,983.2354736328125,0.0,-102.14866638183594,-102.28471374511719,-1.7586619853973389
109,/Users/cjpark/Desktop/ucla_courses/cs260r/assignment4/data/td3_agent_single_decreased_lr/td3,81,-5785.12519090861,325814,114,3974.212387084961,-106.21784973144531,,570.9239501953125,0.0,-104.822265625,-104.76828002929688,-2.1486098766326904
110,/Users/cjpark/Desktop/ucla_courses/cs260r/assignment4/data/td3_agent_single_decreased_lr/td3,81,-5189.161409303844,328814,115,4016.569849014282,-132.4628448486328,,184.27789306640625,0.0,-132.2071533203125,-132.37950134277344,-3.126023292541504
111,/Users/cjpark/Desktop/ucla_courses/cs260r/assignment4/data/td3_agent_single_decreased_lr/td3,81,-4814.192941906154,331814,116,4057.3145141601562,-98.61314392089844,,280.3179016113281,0.0,-98.86433410644531,-98.99166870117188,-2.1492061614990234
112,/Users/cjpark/Desktop/ucla_courses/cs260r/assignment4/data/td3_agent_single_decreased_lr/td3,81,-4683.2635778066515,334814,117,4098.810112953186,-106.51394653320312,,326.27392578125,0.0,-106.43460083007812,-106.33723449707031,-2.1493027210235596
113,/Users/cjpark/Desktop/ucla_courses/cs260r/assignment4/data/td3_agent_single_decreased_lr/td3,81,-4274.811239969433,337814,118,4139.170971155167,-102.1473388671875,,184.50347900390625,0.0,-101.55902099609375,-101.27998352050781,-2.344486713409424
114,/Users/cjpark/Desktop/ucla_courses/cs260r/assignment4/data/td3_agent_single_decreased_lr/td3,81,-4265.3426674291495,340814,119,4181.738305091858,-95.67205047607422,,109.07963562011719,0.0,-96.64461517333984,-96.468017578125,-1.758058786392212
115,/Users/cjpark/Desktop/ucla_courses/cs260r/assignment4/data/td3_agent_single_decreased_lr/td3,81,-3889.3975362703204,343814,120,4222.961117267609,-104.09173583984375,,335.23834228515625,0.0,-104.29126739501953,-104.94549560546875,-2.7349753379821777
116,/Users/cjpark/Desktop/ucla_courses/cs260r/assignment4/data/td3_agent_single_decreased_lr/td3,81,-3495.4557095167042,346814,121,4265.062519073486,-109.28507995605469,,161.2325439453125,0.0,-110.07007598876953,-109.81105041503906,-2.3449487686157227
117,/Users/cjpark/Desktop/ucla_courses/cs260r/assignment4/data/td3_agent_single_decreased_lr/td3,81,-3131.9994204828145,349814,122,4307.554115056992,-111.93571472167969,,211.86058044433594,0.0,-112.07452392578125,-112.18868255615234,-3.125730514526367
118,/Users/cjpark/Desktop/ucla_courses/cs260r/assignment4/data/td3_agent_single_decreased_lr/td3,81,-2711.0248920366166,352814,123,4351.726718902588,-86.07686614990234,,121.36048126220703,0.0,-86.4700698852539,-86.41677856445312,-1.3680369853973389
119,/Users/cjpark/Desktop/ucla_courses/cs260r/assignment4/data/td3_agent_single_decreased_lr/td3,80,-2355.5774255201222,355814,124,4393.149578094482,-117.39863586425781,,181.2193145751953,0.0,-116.98851776123047,-117.10106658935547,-1.9537718296051025
120,/Users/cjpark/Desktop/ucla_courses/cs260r/assignment4/data/td3_agent_single_decreased_lr/td3,80,-1918.6009171506762,358814,125,4435.2882380485535,-129.71109008789062,,193.71609497070312,0.0,-130.03683471679688,-130.0904083251953,-2.1493468284606934
121,/Users/cjpark/Desktop/ucla_courses/cs260r/assignment4/data/td3_agent_single_decreased_lr/td3,80,-1918.5548586031794,361814,126,4478.312830924988,-95.32906341552734,,109.74070739746094,0.0,-95.27406311035156,-95.33013916015625,-1.3675888776779175
122,/Users/cjpark/Desktop/ucla_courses/cs260r/assignment4/data/td3_agent_single_decreased_lr/td3,80,-1918.4658582243324,364814,127,4519.588140964508,-104.81718444824219,,188.83404541015625,0.0,-104.96369934082031,-104.59774780273438,-2.5402162075042725
123,/Users/cjpark/Desktop/ucla_courses/cs260r/assignment4/data/td3_agent_single_decreased_lr/td3,80,-1918.3669438502193,367814,128,4560.786404132843,-82.24536895751953,,165.18287658691406,0.0,-81.72346496582031,-81.5374526977539,-1.5636968612670898
124,/Users/cjpark/Desktop/ucla_courses/cs260r/assignment4/data/td3_agent_single_decreased_lr/td3,80,-1918.2392124840617,370814,129,4602.478394031525,-113.42332458496094,,235.05282592773438,0.0,-113.73644256591797,-113.58464050292969,-2.5398001670837402
125,/Users/cjpark/Desktop/ucla_courses/cs260r/assignment4/data/td3_agent_single_decreased_lr/td3,80,-1765.656538861394,373814,130,4643.646419048309,-103.01773071289062,,212.19796752929688,0.0,-103.36629486083984,-103.3728256225586,-1.368619680404663
126,/Users/cjpark/Desktop/ucla_courses/cs260r/assignment4/data/td3_agent_single_decreased_lr/td3,80,-1648.0524602988362,376814,131,4685.181635141373,-124.77295684814453,,194.34088134765625,0.0,-125.19535827636719,-125.13276672363281,-1.563594102859497
127,/Users/cjpark/Desktop/ucla_courses/cs260r/assignment4/data/td3_agent_single_decreased_lr/td3,80,-1556.925579535067,379814,132,4725.909211158752,-123.1402816772461,,157.3455810546875,0.0,-123.72265625,-123.86692810058594,-1.9538103342056274
128,/Users/cjpark/Desktop/ucla_courses/cs260r/assignment4/data/td3_agent_single_decreased_lr/td3,80,-1479.8225955078005,382814,133,4767.885695934296,-137.19960021972656,,248.01348876953125,0.0,-136.63287353515625,-136.4242706298828,-3.907165765762329
129,/Users/cjpark/Desktop/ucla_courses/cs260r/assignment4/data/td3_agent_single_decreased_lr/td3,80,-1479.7131658014655,385814,134,4808.436264038086,-117.72409057617188,,297.95526123046875,0.0,-117.53567504882812,-117.32127380371094,-2.735229253768921
130,/Users/cjpark/Desktop/ucla_courses/cs260r/assignment4/data/td3_agent_single_decreased_lr/td3,80,-1479.5943367096781,388814,135,4849.962944030762,-125.66897583007812,,762.3731079101562,0.0,-124.3194351196289,-124.28961181640625,-2.344590902328491
131,/Users/cjpark/Desktop/ucla_courses/cs260r/assignment4/data/td3_agent_single_decreased_lr/td3,80,-1479.4849111795425,391814,136,4890.871743917465,-114.39022064208984,,152.19451904296875,0.0,-113.65940856933594,-113.42462921142578,-2.1492857933044434
132,/Users/cjpark/Desktop/ucla_courses/cs260r/assignment4/data/td3_agent_single_decreased_lr/td3,80,-1479.4073025250434,394814,137,4933.328807115555,-110.42250061035156,,218.09780883789062,0.0,-109.84471893310547,-109.52833557128906,-2.5400290489196777
133,/Users/cjpark/Desktop/ucla_courses/cs260r/assignment4/data/td3_agent_single_decreased_lr/td3,79,-1479.32004342556,397814,138,4974.823412895203,-138.7770538330078,,222.81314086914062,0.0,-137.54891967773438,-137.92784118652344,-2.73521089553833
134,/Users/cjpark/Desktop/ucla_courses/cs260r/assignment4/data/td3_agent_single_decreased_lr/td3,79,-1479.2585374450684,400814,139,5016.239891052246,-134.05157470703125,,226.90997314453125,0.0,-132.31369018554688,-132.59153747558594,-3.9074063301086426
135,/Users/cjpark/Desktop/ucla_courses/cs260r/assignment4/data/td3_agent_single_decreased_lr/td3,79,-1479.1952666854859,403814,140,5057.976754903793,-138.21131896972656,,92.39468383789062,0.0,-138.6016845703125,-138.55950927734375,-1.5636670589447021
136,/Users/cjpark/Desktop/ucla_courses/cs260r/assignment4/data/td3_agent_single_decreased_lr/td3,79,-1479.1563014221192,406814,141,5101.3979279994965,-111.5892562866211,,263.8240966796875,0.0,-110.69820404052734,-110.34659576416016,-2.3445630073547363
137,/Users/cjpark/Desktop/ucla_courses/cs260r/assignment4/data/td3_agent_single_decreased_lr/td3,79,-1479.1256810951234,409814,142,5144.206299066544,-137.50479125976562,,148.23043823242188,0.0,-138.09542846679688,-137.95346069335938,-2.3448870182037354
138,/Users/cjpark/Desktop/ucla_courses/cs260r/assignment4/data/td3_agent_single_decreased_lr/td3,79,-1479.0542238140106,412814,143,5189.949401140213,-134.8790740966797,,223.322509765625,0.0,-134.71925354003906,-134.864990234375,-2.149367570877075
139,/Users/cjpark/Desktop/ucla_courses/cs260r/assignment4/data/td3_agent_single_decreased_lr/td3,67,-1479.0425769519807,415814,144,6157.441048145294,-126.69928741455078,,137.4147491455078,0.0,-127.01859283447266,-126.77992248535156,-1.5634713172912598
140,/Users/cjpark/Desktop/ucla_courses/cs260r/assignment4/data/td3_agent_single_decreased_lr/td3,67,-1478.986785826683,418814,145,6202.787230968475,-148.577880859375,,164.53982543945312,0.0,-148.6765899658203,-149.14797973632812,-2.539885997772217
141,/Users/cjpark/Desktop/ucla_courses/cs260r/assignment4/data/td3_agent_single_decreased_lr/td3,67,-1478.9314692735672,421814,146,6248.38095998764,-118.41568756103516,,188.24734497070312,0.0,-119.11473083496094,-118.99978637695312,-1.7586358785629272
142,/Users/cjpark/Desktop/ucla_courses/cs260r/assignment4/data/td3_agent_single_decreased_lr/td3,67,-1478.9191098451615,424814,147,6290.825699090958,-133.09591674804688,,174.842041015625,0.0,-133.39273071289062,-133.4234619140625,-2.1497459411621094
143,/Users/cjpark/Desktop/ucla_courses/cs260r/assignment4/data/td3_agent_single_decreased_lr/td3,67,-1478.9094401597977,427814,148,6333.85170507431,-131.81228637695312,,153.06434631347656,0.0,-131.11793518066406,-130.84056091308594,-1.95421302318573
144,/Users/cjpark/Desktop/ucla_courses/cs260r/assignment4/data/td3_agent_single_decreased_lr/td3,67,-1478.844118452072,430814,149,6375.852524995804,-146.68405151367188,,195.41795349121094,0.0,-145.6853485107422,-145.68838500976562,-2.73525071144104
145,/Users/cjpark/Desktop/ucla_courses/cs260r/assignment4/data/td3_agent_single_decreased_lr/td3,67,-1478.8543920230866,433814,150,6418.679456949234,-148.54046630859375,,160.7333984375,0.0,-148.77252197265625,-148.72329711914062,-1.9543813467025757
146,/Users/cjpark/Desktop/ucla_courses/cs260r/assignment4/data/td3_agent_single_decreased_lr/td3,67,-1478.8470098400117,436814,151,6461.890047073364,-142.0584716796875,,138.38851928710938,0.0,-141.9915313720703,-141.7406005859375,-1.9540349245071411
147,/Users/cjpark/Desktop/ucla_courses/cs260r/assignment4/data/td3_agent_single_decreased_lr/td3,67,-1478.829496679306,439814,152,6503.810286998749,-159.7421417236328,,308.71514892578125,0.0,-160.61593627929688,-160.5884246826172,-1.5633927583694458
148,/Users/cjpark/Desktop/ucla_courses/cs260r/assignment4/data/td3_agent_single_decreased_lr/td3,67,-1478.8151652812958,442814,153,6544.651170969009,-151.13156127929688,,242.42825317382812,0.0,-151.82398986816406,-151.92269897460938,-0.7817695140838623
149,/Users/cjpark/Desktop/ucla_courses/cs260r/assignment4/data/td3_agent_single_decreased_lr/td3,67,-1478.8264868736267,445814,154,6585.579905033112,-166.4991455078125,,157.69677734375,0.0,-167.40869140625,-167.40493774414062,-1.563133955001831
150,/Users/cjpark/Desktop/ucla_courses/cs260r/assignment4/data/td3_agent_single_decreased_lr/td3,67,-1475.3296941184997,448814,155,6625.992147922516,-161.9351043701172,,176.40196228027344,0.0,-162.1185302734375,-161.8548583984375,-2.3446640968322754
151,/Users/cjpark/Desktop/ucla_courses/cs260r/assignment4/data/td3_agent_single_decreased_lr/td3,67,-1475.3303098106385,451814,156,6667.738044977188,-138.0050048828125,,142.36749267578125,0.0,-137.26898193359375,-137.54859924316406,-1.7583805322647095
152,/Users/cjpark/Desktop/ucla_courses/cs260r/assignment4/data/td3_agent_single_decreased_lr/td3,67,-1475.3342176437377,454814,157,6709.344432115555,-123.70747375488281,,112.4969482421875,0.0,-124.02204895019531,-124.05057525634766,-1.368150234222412
153,/Users/cjpark/Desktop/ucla_courses/cs260r/assignment4/data/td3_agent_single_decreased_lr/td3,67,-1475.3411129665374,457814,158,6751.456434965134,-159.11036682128906,,134.71829223632812,0.0,-160.57582092285156,-160.64987182617188,-1.56339430809021
154,/Users/cjpark/Desktop/ucla_courses/cs260r/assignment4/data/td3_agent_single_decreased_lr/td3,67,-1475.340625553131,460814,159,6793.766837120056,-145.48377990722656,,119.58379364013672,0.0,-145.282958984375,-145.42942810058594,-1.563178300857544
155,/Users/cjpark/Desktop/ucla_courses/cs260r/assignment4/data/td3_agent_single_decreased_lr/td3,67,-1475.3435054206848,463814,160,6836.649458885193,-162.89138793945312,,209.24346923828125,0.0,-162.5972900390625,-163.08799743652344,-1.5633528232574463
156,/Users/cjpark/Desktop/ucla_courses/cs260r/assignment4/data/td3_agent_single_decreased_lr/td3,67,-1475.3223807525635,466814,161,6880.096371889114,-170.99685668945312,,148.2513427734375,0.0,-169.90003967285156,-170.02810668945312,-2.7348549365997314
157,/Users/cjpark/Desktop/ucla_courses/cs260r/assignment4/data/td3_agent_single_decreased_lr/td3,67,-1475.3251262569427,469814,162,6922.916976213455,-149.0773468017578,,121.13365936279297,0.0,-148.66055297851562,-148.9524383544922,-1.3676174879074097
158,/Users/cjpark/Desktop/ucla_courses/cs260r/assignment4/data/td3_agent_single_decreased_lr/td3,67,-1475.3231169891358,472814,163,6966.890737056732,-148.56817626953125,,179.65261840820312,0.0,-148.07774353027344,-148.37530517578125,-2.344219923019409
159,/Users/cjpark/Desktop/ucla_courses/cs260r/assignment4/data/td3_agent_single_decreased_lr/td3,67,-1475.3238623046875,475814,164,7008.644726991653,-144.57615661621094,,192.2498779296875,0.0,-143.50807189941406,-143.24549865722656,-2.5403218269348145
160,/Users/cjpark/Desktop/ucla_courses/cs260r/assignment4/data/td3_agent_single_decreased_lr/td3,67,-1475.3235129261018,478814,165,7051.575690984726,-148.4654541015625,,227.65809631347656,0.0,-149.09649658203125,-148.9693603515625,-1.9538154602050781
161,/Users/cjpark/Desktop/ucla_courses/cs260r/assignment4/data/td3_agent_single_decreased_lr/td3,67,-1475.3240150928498,481814,166,7093.184433221817,-134.25140380859375,,162.29788208007812,0.0,-133.47207641601562,-133.48934936523438,-1.9536807537078857
162,/Users/cjpark/Desktop/ucla_courses/cs260r/assignment4/data/td3_agent_single_decreased_lr/td3,67,-1475.3255613803863,484814,167,7135.987118005753,-139.74801635742188,,120.23750305175781,0.0,-139.26687622070312,-139.13827514648438,-1.3684344291687012
163,/Users/cjpark/Desktop/ucla_courses/cs260r/assignment4/data/td3_agent_single_decreased_lr/td3,67,-1475.329225664139,487814,168,7178.882894039154,-135.09463500976562,,126.09423828125,0.0,-136.1645050048828,-136.03501892089844,-1.3685003519058228
164,/Users/cjpark/Desktop/ucla_courses/cs260r/assignment4/data/td3_agent_single_decreased_lr/td3,67,-1475.3271915531159,490814,169,7222.731372117996,-159.75315856933594,,302.868896484375,0.0,-159.2122802734375,-159.34246826171875,-1.7584939002990723
165,/Users/cjpark/Desktop/ucla_courses/cs260r/assignment4/data/td3_agent_single_decreased_lr/td3,67,-1475.3228678512573,493814,170,7265.993351221085,-158.82571411132812,,237.7567901611328,0.0,-158.30093383789062,-158.09835815429688,-1.7585546970367432
166,/Users/cjpark/Desktop/ucla_courses/cs260r/assignment4/data/td3_agent_single_decreased_lr/td3,67,-1475.3004914569856,496814,171,7310.337689161301,-157.08746337890625,,158.78097534179688,0.0,-157.8279571533203,-157.528076171875,-1.56302809715271
167,/Users/cjpark/Desktop/ucla_courses/cs260r/assignment4/data/td3_agent_single_decreased_lr/td3,67,-1475.3020496368408,499814,172,7353.110759973526,-140.07952880859375,,120.97767639160156,0.0,-140.02134704589844,-139.95248413085938,-1.758608341217041
168,/Users/cjpark/Desktop/ucla_courses/cs260r/assignment4/data/td3_agent_single_decreased_lr/td3,67,-1475.3003651332856,502814,173,7401.711097002029,-144.84230041503906,,211.46884155273438,0.0,-143.3411102294922,-143.54119873046875,-2.539193868637085
169,/Users/cjpark/Desktop/ucla_courses/cs260r/assignment4/data/td3_agent_single_decreased_lr/td3,65,-1475.3003501796723,505814,174,7690.301552057266,-149.94351196289062,,382.64520263671875,0.0,-150.96087646484375,-151.11029052734375,-1.9538787603378296
170,/Users/cjpark/Desktop/ucla_courses/cs260r/assignment4/data/td3_agent_single_decreased_lr/td3,58,-1475.2955217838287,508814,175,8690.351868867874,-138.00762939453125,,135.3907470703125,0.0,-137.91969299316406,-138.06982421875,-1.5628325939178467
171,/Users/cjpark/Desktop/ucla_courses/cs260r/assignment4/data/td3_agent_single_decreased_lr/td3,58,-1475.2878787612915,511814,176,8734.261322021484,-159.26927185058594,,152.69139099121094,0.0,-159.66342163085938,-159.42991638183594,-1.9540393352508545
172,/Users/cjpark/Desktop/ucla_courses/cs260r/assignment4/data/td3_agent_single_decreased_lr/td3,58,-1475.2580350494384,514814,177,8775.448873996735,-147.7877655029297,,152.35423278808594,0.0,-146.73953247070312,-146.68930053710938,-1.7582038640975952
173,/Users/cjpark/Desktop/ucla_courses/cs260r/assignment4/data/td3_agent_single_decreased_lr/td3,58,-1475.2475875377654,517814,178,8817.517138242722,-153.36441040039062,,145.81747436523438,0.0,-153.62075805664062,-153.8948974609375,-1.5628262758255005
174,/Users/cjpark/Desktop/ucla_courses/cs260r/assignment4/data/td3_agent_single_decreased_lr/td3,58,-1475.2387341403962,520814,179,8862.892489910126,-164.72882080078125,,223.28802490234375,0.0,-163.4949188232422,-163.19955444335938,-2.539116382598877
175,/Users/cjpark/Desktop/ucla_courses/cs260r/assignment4/data/td3_agent_single_decreased_lr/td3,58,-1475.2260030841828,523814,180,8909.259691953659,-143.35165405273438,,150.8548583984375,0.0,-143.12791442871094,-143.3496856689453,-1.9541475772857666
176,/Users/cjpark/Desktop/ucla_courses/cs260r/assignment4/data/td3_agent_single_decreased_lr/td3,58,-1475.223444738388,526814,181,8959.137386083603,-137.63504028320312,,160.49099731445312,0.0,-137.17868041992188,-137.1433563232422,-1.5629006624221802
177,/Users/cjpark/Desktop/ucla_courses/cs260r/assignment4/data/td3_agent_single_decreased_lr/td3,58,-1475.2009877300263,529814,182,9012.854457139969,-160.1107940673828,,189.25778198242188,0.0,-161.3184356689453,-161.35545349121094,-1.3680763244628906
178,/Users/cjpark/Desktop/ucla_courses/cs260r/assignment4/data/td3_agent_single_decreased_lr/td3,58,-1475.1963503742218,532814,183,9067.43129491806,-133.1824951171875,,131.18746948242188,0.0,-134.11087036132812,-133.7440643310547,-1.172970175743103
179,/Users/cjpark/Desktop/ucla_courses/cs260r/assignment4/data/td3_agent_single_decreased_lr/td3,57,-1475.1935911083222,535814,184,9259.658637046814,-141.1239471435547,,212.253173828125,0.0,-141.92935180664062,-141.80313110351562,-1.7582851648330688
180,/Users/cjpark/Desktop/ucla_courses/cs260r/assignment4/data/td3_agent_single_decreased_lr/td3,57,-1475.1944458389282,538814,185,9303.898234128952,-158.45266723632812,,144.60577392578125,0.0,-158.87022399902344,-158.69117736816406,-1.367374300956726
181,/Users/cjpark/Desktop/ucla_courses/cs260r/assignment4/data/td3_agent_single_decreased_lr/td3,57,-1475.1909270000458,541814,186,9345.638339042664,-118.24259948730469,,117.52587127685547,0.0,-117.8671875,-117.97119140625,-1.7578550577163696
182,/Users/cjpark/Desktop/ucla_courses/cs260r/assignment4/data/td3_agent_single_decreased_lr/td3,58,-1475.1840255355835,544814,187,9389.309571027756,-163.78314208984375,,209.73007202148438,0.0,-164.80728149414062,-165.17596435546875,-1.75885808467865
183,/Users/cjpark/Desktop/ucla_courses/cs260r/assignment4/data/td3_agent_single_decreased_lr/td3,58,-1475.1744966030121,547814,188,9432.1745159626,-137.91725158691406,,99.1505126953125,0.0,-137.50148010253906,-137.73873901367188,-1.368310809135437
184,/Users/cjpark/Desktop/ucla_courses/cs260r/assignment4/data/td3_agent_single_decreased_lr/td3,58,-1461.6661173534394,550814,189,9475.764294147491,-131.49932861328125,,120.21253967285156,0.0,-131.42071533203125,-131.6270751953125,-1.172044277191162
185,/Users/cjpark/Desktop/ucla_courses/cs260r/assignment4/data/td3_agent_single_decreased_lr/td3,58,-1459.6644733715057,553814,190,9519.105810165405,-146.83554077148438,,108.1069107055664,0.0,-146.62916564941406,-146.8167266845703,-1.3677144050598145
186,/Users/cjpark/Desktop/ucla_courses/cs260r/assignment4/data/td3_agent_single_decreased_lr/td3,58,-1406.1561859226226,556814,191,9564.846357107162,-154.1021270751953,,141.925537109375,0.0,-153.53598022460938,-153.32879638671875,-1.953644037246704
187,/Users/cjpark/Desktop/ucla_courses/cs260r/assignment4/data/td3_agent_single_decreased_lr/td3,58,-1406.1548102664947,559814,192,9610.945433139801,-155.3832550048828,,138.64849853515625,0.0,-155.6561279296875,-155.4348907470703,-1.9538012742996216
188,/Users/cjpark/Desktop/ucla_courses/cs260r/assignment4/data/td3_agent_single_decreased_lr/td3,58,-1360.646370229721,562814,193,9656.052551984787,-146.17259216308594,,87.0213623046875,0.0,-146.2061767578125,-146.06900024414062,-1.7586796283721924
189,/Users/cjpark/Desktop/ucla_courses/cs260r/assignment4/data/td3_agent_single_decreased_lr/td3,58,-1305.1392712783813,565814,194,9698.327685117722,-146.8606719970703,,97.2704086303711,0.0,-147.33343505859375,-147.36239624023438,-0.9773054122924805
190,/Users/cjpark/Desktop/ucla_courses/cs260r/assignment4/data/td3_agent_single_decreased_lr/td3,58,-1305.1362818717957,568814,195,9727.82791185379,-143.6346893310547,,280.5946350097656,0.0,-143.16160583496094,-143.18191528320312,-2.1491024494171143
191,/Users/cjpark/Desktop/ucla_courses/cs260r/assignment4/data/td3_agent_single_decreased_lr/td3,58,-1305.1335093975067,571814,196,9788.626125097275,-144.85848999023438,,222.11492919921875,0.0,-145.29257202148438,-145.66473388671875,-1.3677599430084229
192,/Users/cjpark/Desktop/ucla_courses/cs260r/assignment4/data/td3_agent_single_decreased_lr/td3,58,-1305.131675233841,574814,197,9846.827758073807,-157.54559326171875,,254.44503784179688,0.0,-155.7082061767578,-155.645263671875,-2.735319137573242
193,/Users/cjpark/Desktop/ucla_courses/cs260r/assignment4/data/td3_agent_single_decreased_lr/td3,58,-1238.6180853557587,577814,198,9871.91493010521,-135.40093994140625,,144.48828125,0.0,-135.73306274414062,-135.54629516601562,-1.1723800897598267
194,/Users/cjpark/Desktop/ucla_courses/cs260r/assignment4/data/td3_agent_single_decreased_lr/td3,58,-1176.6010729026793,580814,199,9897.189397096634,-121.47811126708984,,188.8282470703125,0.0,-121.6698226928711,-121.31822204589844,-1.5633302927017212
195,/Users/cjpark/Desktop/ucla_courses/cs260r/assignment4/data/td3_agent_single_decreased_lr/td3,58,-1176.5960946273804,583814,200,9922.74444103241,-156.82627868652344,,139.33538818359375,0.0,-157.65585327148438,-157.5445556640625,-1.1721296310424805
196,/Users/cjpark/Desktop/ucla_courses/cs260r/assignment4/data/td3_agent_single_decreased_lr/td3,58,-1175.5914650344848,586814,201,9948.10085606575,-131.6649932861328,,108.29728698730469,0.0,-132.13211059570312,-131.68618774414062,-1.95383620262146
197,/Users/cjpark/Desktop/ucla_courses/cs260r/assignment4/data/td3_agent_single_decreased_lr/td3,59,-1113.0734842777251,589814,202,9975.035077095032,-122.79049682617188,,115.87664794921875,0.0,-122.89415740966797,-122.67042541503906,-1.7583234310150146
198,/Users/cjpark/Desktop/ucla_courses/cs260r/assignment4/data/td3_agent_single_decreased_lr/td3,59,-1097.5680063724517,592814,203,10001.852731227875,-114.77777862548828,,218.56668090820312,0.0,-114.30580139160156,-114.32457733154297,-0.9773218035697937
199,/Users/cjpark/Desktop/ucla_courses/cs260r/assignment4/data/td3_agent_single_decreased_lr/td3,59,-1001.5590192127228,595814,204,10029.220268964767,-122.37094116210938,,346.2445068359375,0.0,-121.93690490722656,-122.21527862548828,-1.5632658004760742
200,/Users/cjpark/Desktop/ucla_courses/cs260r/assignment4/data/td3_agent_single_decreased_lr/td3,59,-996.0522133350372,598814,205,10055.839289188385,-122.21309661865234,,192.5218505859375,0.0,-124.2221908569336,-124.12818908691406,-1.3679356575012207
201,/Users/cjpark/Desktop/ucla_courses/cs260r/assignment4/data/td3_agent_single_decreased_lr/td3,59,-894.5402953529358,601814,206,10081.802394151688,-132.6850128173828,,108.72672271728516,0.0,-132.17710876464844,-132.18910217285156,-0.7822456955909729
202,/Users/cjpark/Desktop/ucla_courses/cs260r/assignment4/data/td3_agent_single_decreased_lr/td3,59,-832.5384254932403,604814,207,10107.854891061783,-129.47030639648438,,132.01068115234375,0.0,-130.3850860595703,-130.45510864257812,-0.7818444967269897
203,/Users/cjpark/Desktop/ucla_courses/cs260r/assignment4/data/td3_agent_single_decreased_lr/td3,59,-786.0335009670257,607814,208,10133.663736104965,-141.30398559570312,,91.646484375,0.0,-142.25015258789062,-142.360107421875,-1.3680248260498047
204,/Users/cjpark/Desktop/ucla_courses/cs260r/assignment4/data/td3_agent_single_decreased_lr/td3,60,-709.0229431629181,610814,209,10159.340721130371,-151.3834686279297,,105.80883026123047,0.0,-151.9290771484375,-152.0021514892578,-1.954182744026184
205,/Users/cjpark/Desktop/ucla_courses/cs260r/assignment4/data/td3_agent_single_decreased_lr/td3,60,-630.5065691280365,613814,210,10185.112029314041,-129.75588989257812,,228.94134521484375,0.0,-129.79901123046875,-129.74432373046875,-1.3679885864257812
206,/Users/cjpark/Desktop/ucla_courses/cs260r/assignment4/data/td3_agent_single_decreased_lr/td3,60,-571.9919089984894,616814,211,10210.974768161774,-135.61712646484375,,105.37883758544922,0.0,-135.37208557128906,-135.50852966308594,-0.9766638278961182
207,/Users/cjpark/Desktop/ucla_courses/cs260r/assignment4/data/td3_agent_single_decreased_lr/td3,60,-486.98098176956177,619814,212,10236.563960075378,-113.48497009277344,,141.9459228515625,0.0,-113.44525909423828,-113.74745178222656,-1.3682211637496948
208,/Users/cjpark/Desktop/ucla_courses/cs260r/assignment4/data/td3_agent_single_decreased_lr/td3,60,-389.9628413677216,622814,213,10262.244724988937,-149.7678985595703,,97.29487609863281,0.0,-149.3703155517578,-148.91639709472656,-0.7820228338241577
209,/Users/cjpark/Desktop/ucla_courses/cs260r/assignment4/data/td3_agent_single_decreased_lr/td3,60,-311.4461277008057,625814,214,10287.693541049957,-120.43998718261719,,104.20632934570312,0.0,-120.580810546875,-120.36963653564453,-1.3676904439926147
210,/Users/cjpark/Desktop/ucla_courses/cs260r/assignment4/data/td3_agent_single_decreased_lr/td3,60,-206.42772579193115,628814,215,10313.40383195877,-135.79916381835938,,147.07606506347656,0.0,-135.87298583984375,-135.84292602539062,-1.3678761720657349
211,/Users/cjpark/Desktop/ucla_courses/cs260r/assignment4/data/td3_agent_single_decreased_lr/td3,61,-84.40258896827697,631814,216,10338.706738233566,-113.24735260009766,,132.18191528320312,0.0,-113.2771987915039,-113.041015625,-0.5867946743965149
212,/Users/cjpark/Desktop/ucla_courses/cs260r/assignment4/data/td3_agent_single_decreased_lr/td3,61,-84.3656033706665,634814,217,10364.660788059235,-124.16217041015625,,158.23001098632812,0.0,-123.31394958496094,-122.9703369140625,-1.953920602798462
213,/Users/cjpark/Desktop/ucla_courses/cs260r/assignment4/data/td3_agent_single_decreased_lr/td3,61,-84.34669803619384,637814,218,10390.730560064316,-111.59562683105469,,155.92913818359375,0.0,-111.73533630371094,-111.48326110839844,-1.1725915670394897
214,/Users/cjpark/Desktop/ucla_courses/cs260r/assignment4/data/td3_agent_single_decreased_lr/td3,61,-1.8276629829406739,640814,219,10416.689793109894,-106.0578384399414,,130.03189086914062,0.0,-104.53106689453125,-104.75841522216797,-1.758338451385498
215,/Users/cjpark/Desktop/ucla_courses/cs260r/assignment4/data/td3_agent_single_decreased_lr/td3,61,-1.8012277030944823,643814,220,10442.654042243958,-124.6976318359375,,105.7132339477539,0.0,-124.66069030761719,-124.58097076416016,-0.9764634370803833
216,/Users/cjpark/Desktop/ucla_courses/cs260r/assignment4/data/td3_agent_single_decreased_lr/td3,61,-1.7725514125823976,646814,221,10468.969131946564,-142.55714416503906,,156.231201171875,0.0,-142.7539520263672,-142.81863403320312,-1.1726285219192505
217,/Users/cjpark/Desktop/ucla_courses/cs260r/assignment4/data/td3_agent_single_decreased_lr/td3,61,-1.759289836883545,649814,222,10495.04525899887,-130.1937255859375,,92.30726623535156,0.0,-129.0319366455078,-129.0905303955078,-1.758579969406128
218,/Users/cjpark/Desktop/ucla_courses/cs260r/assignment4/data/td3_agent_single_decreased_lr/td3,62,-1.7580916118621825,652814,223,10520.963912963867,-125.89599609375,,80.63218688964844,0.0,-125.60774230957031,-125.67626953125,-1.172490119934082
219,/Users/cjpark/Desktop/ucla_courses/cs260r/assignment4/data/td3_agent_single_decreased_lr/td3,62,-1.7307741451263428,655814,224,10547.489963054657,-125.11636352539062,,228.50662231445312,0.0,-124.65982055664062,-124.61597442626953,-1.3677091598510742
220,/Users/cjpark/Desktop/ucla_courses/cs260r/assignment4/data/td3_agent_single_decreased_lr/td3,62,-1.7045931911468506,658814,225,10573.793723106384,-131.0208740234375,,617.0413208007812,0.0,-132.19796752929688,-132.37130737304688,-1.9538120031356812
221,/Users/cjpark/Desktop/ucla_courses/cs260r/assignment4/data/td3_agent_single_decreased_lr/td3,62,-1.6659974479675292,661814,226,10599.726364135742,-121.15448760986328,,86.71087646484375,0.0,-121.27383422851562,-121.3236083984375,-1.3676731586456299
222,/Users/cjpark/Desktop/ucla_courses/cs260r/assignment4/data/td3_agent_single_decreased_lr/td3,62,-1.6256897735595703,664814,227,10625.83852314949,-144.56651306152344,,85.1362533569336,0.0,-144.5628662109375,-144.71817016601562,-1.5629818439483643
223,/Users/cjpark/Desktop/ucla_courses/cs260r/assignment4/data/td3_agent_single_decreased_lr/td3,62,-1.5914634227752686,667814,228,10652.168339014053,-112.47396850585938,,179.34005737304688,0.0,-111.26583862304688,-111.54957580566406,-1.7587401866912842
224,/Users/cjpark/Desktop/ucla_courses/cs260r/assignment4/data/td3_agent_single_decreased_lr/td3,62,-1.5825303840637206,670814,229,10678.670550107956,-118.76316833496094,,134.51092529296875,0.0,-117.78577423095703,-117.93586730957031,-2.7348921298980713
225,/Users/cjpark/Desktop/ucla_courses/cs260r/assignment4/data/td3_agent_single_decreased_lr/td3,62,-1.5436326694488525,673814,230,10704.93909907341,-106.0294189453125,,61.768272399902344,0.0,-106.06188201904297,-106.27483367919922,-0.7815571427345276
226,/Users/cjpark/Desktop/ucla_courses/cs260r/assignment4/data/td3_agent_single_decreased_lr/td3,63,-1.51503737449646,676814,231,10731.266919851303,-117.60675048828125,,82.71210479736328,0.0,-118.89842987060547,-118.82858276367188,-1.1727102994918823
227,/Users/cjpark/Desktop/ucla_courses/cs260r/assignment4/data/td3_agent_single_decreased_lr/td3,63,-1.511903305053711,679814,232,10757.391321182251,-115.57135772705078,,116.94973754882812,0.0,-115.32369995117188,-115.22850799560547,-1.5633267164230347
228,/Users/cjpark/Desktop/ucla_courses/cs260r/assignment4/data/td3_agent_single_decreased_lr/td3,63,-1.4902416419982911,682814,233,10783.30422616005,-88.35406494140625,,81.58979797363281,0.0,-89.21617889404297,-89.31205749511719,-0.5866692066192627
229,/Users/cjpark/Desktop/ucla_courses/cs260r/assignment4/data/td3_agent_single_decreased_lr/td3,63,-1.4582915019989013,685814,234,10811.697760105133,-131.0418701171875,,202.3305206298828,0.0,-130.85049438476562,-131.0301055908203,-1.9536206722259521
230,/Users/cjpark/Desktop/ucla_courses/cs260r/assignment4/data/td3_agent_single_decreased_lr/td3,63,-1.4358137702941896,688814,235,10844.205745220184,-108.44184875488281,,100.5746841430664,0.0,-108.2959976196289,-107.90685272216797,-1.5630125999450684
231,/Users/cjpark/Desktop/ucla_courses/cs260r/assignment4/data/td3_agent_single_decreased_lr/td3,63,-1.409454107284546,691814,236,10876.761812925339,-110.24005126953125,,78.34949493408203,0.0,-110.48606872558594,-110.79959106445312,-0.7817821502685547
232,/Users/cjpark/Desktop/ucla_courses/cs260r/assignment4/data/td3_agent_single_decreased_lr/td3,63,-1.3681504917144776,694814,237,10903.13817024231,-105.01151275634766,,77.63746643066406,0.0,-105.01678466796875,-105.30278015136719,-0.9774118661880493
233,/Users/cjpark/Desktop/ucla_courses/cs260r/assignment4/data/td3_agent_single_decreased_lr/td3,63,-1.3509987163543702,697814,238,10929.681522130966,-114.5452651977539,,128.00050354003906,0.0,-113.71406555175781,-113.71935272216797,-1.7584065198898315
234,/Users/cjpark/Desktop/ucla_courses/cs260r/assignment4/data/td3_agent_single_decreased_lr/td3,63,-1.3258036422729491,700814,239,10956.004364967346,-131.53672790527344,,175.50787353515625,0.0,-130.14569091796875,-130.06495666503906,-2.9299943447113037
235,/Users/cjpark/Desktop/ucla_courses/cs260r/assignment4/data/td3_agent_single_decreased_lr/td3,64,-1.3142000675201415,703814,240,10982.128474235535,-116.5724105834961,,101.65400695800781,0.0,-116.61235046386719,-116.6900634765625,-1.1725516319274902
236,/Users/cjpark/Desktop/ucla_courses/cs260r/assignment4/data/td3_agent_single_decreased_lr/td3,64,-1.2992176914215088,706814,241,11008.058264017105,-85.83071899414062,,46.78969955444336,0.0,-86.1905746459961,-86.28472137451172,-0.3909670114517212
237,/Users/cjpark/Desktop/ucla_courses/cs260r/assignment4/data/td3_agent_single_decreased_lr/td3,64,-1.266822099685669,709814,242,11034.586730003357,-108.0323257446289,,128.12380981445312,0.0,-108.47991943359375,-108.45418548583984,-0.977421224117279
238,/Users/cjpark/Desktop/ucla_courses/cs260r/assignment4/data/td3_agent_single_decreased_lr/td3,64,-1.258827533721924,712814,243,11060.688262224197,-95.90325164794922,,258.95849609375,0.0,-94.96278381347656,-95.06322479248047,-0.9771956205368042
239,/Users/cjpark/Desktop/ucla_courses/cs260r/assignment4/data/td3_agent_single_decreased_lr/td3,64,-1.2497392749786378,715814,244,11087.036632061005,-94.05612182617188,,55.5443115234375,0.0,-94.67015075683594,-94.44526672363281,-0.7821289300918579
240,/Users/cjpark/Desktop/ucla_courses/cs260r/assignment4/data/td3_agent_single_decreased_lr/td3,64,-1.24324481010437,718814,245,11113.243160009384,-107.00553894042969,,59.75847625732422,0.0,-106.8266372680664,-106.87351989746094,-1.172528624534607
241,/Users/cjpark/Desktop/ucla_courses/cs260r/assignment4/data/td3_agent_single_decreased_lr/td3,64,-1.2346127605438233,721814,246,11139.702854156494,-88.0196533203125,,186.06072998046875,0.0,-87.3413314819336,-87.67206573486328,-0.19597060978412628
242,/Users/cjpark/Desktop/ucla_courses/cs260r/assignment4/data/td3_agent_single_decreased_lr/td3,64,-1.2210390663146973,724814,247,11167.759890079498,-115.93217468261719,,79.99072265625,0.0,-115.9872817993164,-115.96788787841797,-0.3915316164493561
243,/Users/cjpark/Desktop/ucla_courses/cs260r/assignment4/data/td3_agent_single_decreased_lr/td3,65,-1.2102410697937012,727814,248,11196.951853990555,-111.1225814819336,,198.79412841796875,0.0,-111.19212341308594,-111.52954864501953,-1.5632492303848267
244,/Users/cjpark/Desktop/ucla_courses/cs260r/assignment4/data/td3_agent_single_decreased_lr/td3,65,-1.2009768772125244,730814,249,11227.690273046494,-115.54444885253906,,158.30809020996094,0.0,-115.24853515625,-115.0436019897461,-1.3680751323699951
245,/Users/cjpark/Desktop/ucla_courses/cs260r/assignment4/data/td3_agent_single_decreased_lr/td3,65,-1.189287509918213,733814,250,11261.102859020233,-108.8549575805664,,95.14964294433594,0.0,-108.68965911865234,-108.84330749511719,-0.976639449596405
246,/Users/cjpark/Desktop/ucla_courses/cs260r/assignment4/data/td3_agent_single_decreased_lr/td3,65,-1.1798989868164063,736814,251,11296.547223091125,-92.43408203125,,86.6332778930664,0.0,-92.31008911132812,-92.16985321044922,-1.172255277633667
247,/Users/cjpark/Desktop/ucla_courses/cs260r/assignment4/data/td3_agent_single_decreased_lr/td3,65,-1.1687247943878174,739814,252,11329.463467121124,-101.10311889648438,,98.08523559570312,0.0,-100.94010925292969,-100.84056091308594,-1.5631681680679321
248,/Users/cjpark/Desktop/ucla_courses/cs260r/assignment4/data/td3_agent_single_decreased_lr/td3,65,-1.1622712898254395,742814,253,11362.372221946716,-112.11317443847656,,72.49797058105469,0.0,-111.53224182128906,-111.50802612304688,-1.3678157329559326
249,/Users/cjpark/Desktop/ucla_courses/cs260r/assignment4/data/td3_agent_single_decreased_lr/td3,65,-1.154087209701538,745814,254,11394.475521087646,-77.53842163085938,,156.16748046875,0.0,-77.02915954589844,-76.97696685791016,-0.3912889361381531
250,/Users/cjpark/Desktop/ucla_courses/cs260r/assignment4/data/td3_agent_single_decreased_lr/td3,65,-1.139250955581665,748814,255,11425.960577011108,-100.36334991455078,,112.71871185302734,0.0,-100.28229522705078,-99.61827087402344,-1.5634053945541382
251,/Users/cjpark/Desktop/ucla_courses/cs260r/assignment4/data/td3_agent_single_decreased_lr/td3,65,-1.1355801105499268,751814,256,11460.123101949692,-100.52611541748047,,135.1561279296875,0.0,-100.637939453125,-100.65196228027344,-1.367531657218933
252,/Users/cjpark/Desktop/ucla_courses/cs260r/assignment4/data/td3_agent_single_decreased_lr/td3,65,-1.1303156757354735,754814,257,11492.737375974655,-100.75528717041016,,84.90544128417969,0.0,-101.0956802368164,-101.07921600341797,-0.9766073226928711
253,/Users/cjpark/Desktop/ucla_courses/cs260r/assignment4/data/td3_agent_single_decreased_lr/td3,65,-1.123715753555298,757814,258,11527.004414081573,-82.9034423828125,,244.0695037841797,0.0,-82.89469146728516,-83.13969421386719,-0.7818847298622131
254,/Users/cjpark/Desktop/ucla_courses/cs260r/assignment4/data/td3_agent_single_decreased_lr/td3,65,-1.1227121543884278,760814,259,11564.869768857956,-91.29899597167969,,96.49525451660156,0.0,-91.0935287475586,-91.11458587646484,-0.5865007042884827
255,/Users/cjpark/Desktop/ucla_courses/cs260r/assignment4/data/td3_agent_single_decreased_lr/td3,65,-1.1210195922851562,763814,260,11598.505885124207,-104.904541015625,,136.09530639648438,0.0,-105.00688171386719,-105.07185363769531,-1.1722666025161743
256,/Users/cjpark/Desktop/ucla_courses/cs260r/assignment4/data/td3_agent_single_decreased_lr/td3,65,-1.1191720294952392,766814,261,11629.22291302681,-107.25511932373047,,164.3633270263672,0.0,-107.05580139160156,-107.06317138671875,-1.562973976135254
257,/Users/cjpark/Desktop/ucla_courses/cs260r/assignment4/data/td3_agent_single_decreased_lr/td3,66,-1.1204586410522461,769814,262,11661.073270082474,-95.02925109863281,,116.25308227539062,0.0,-95.48640441894531,-95.54731750488281,-0.7817445397377014
258,/Users/cjpark/Desktop/ucla_courses/cs260r/assignment4/data/td3_agent_single_decreased_lr/td3,66,-1.1218004608154297,772814,263,11690.636856079102,-86.91291046142578,,80.83643341064453,0.0,-87.45464324951172,-87.44841003417969,-1.1722487211227417
259,/Users/cjpark/Desktop/ucla_courses/cs260r/assignment4/data/td3_agent_single_decreased_lr/td3,66,-1.1199907875061035,775814,264,11720.788043022156,-94.26830291748047,,125.533447265625,0.0,-94.45718383789062,-94.42643737792969,-1.1725536584854126
260,/Users/cjpark/Desktop/ucla_courses/cs260r/assignment4/data/td3_agent_single_decreased_lr/td3,66,-1.1204612255096436,778814,265,11751.567289113998,-98.98593139648438,,62.305320739746094,0.0,-98.55529022216797,-98.479736328125,-1.5632801055908203
261,/Users/cjpark/Desktop/ucla_courses/cs260r/assignment4/data/td3_agent_single_decreased_lr/td3,66,-1.118716049194336,781814,266,11783.191063165665,-95.71620178222656,,82.55876159667969,0.0,-95.8806381225586,-96.24593353271484,-0.7821605205535889
262,/Users/cjpark/Desktop/ucla_courses/cs260r/assignment4/data/td3_agent_single_decreased_lr/td3,66,-1.1195969104766845,784814,267,11817.111748218536,-105.81056213378906,,74.50502014160156,0.0,-107.08230590820312,-107.37333679199219,-0.7822710871696472
263,/Users/cjpark/Desktop/ucla_courses/cs260r/assignment4/data/td3_agent_single_decreased_lr/td3,66,-1.1216679191589356,787814,268,11850.47033905983,-84.72770690917969,,106.77146911621094,0.0,-84.87452697753906,-84.75357818603516,-1.3679194450378418
264,/Users/cjpark/Desktop/ucla_courses/cs260r/assignment4/data/td3_agent_single_decreased_lr/td3,66,-1.126459436416626,790814,269,11883.347383975983,-95.2203369140625,,121.90752410888672,0.0,-94.67239379882812,-95.12357330322266,-1.5631868839263916
265,/Users/cjpark/Desktop/ucla_courses/cs260r/assignment4/data/td3_agent_single_decreased_lr/td3,66,-1.128572826385498,793814,270,11914.050153970718,-90.31816101074219,,166.3172607421875,0.0,-90.14275360107422,-89.943603515625,-1.1729243993759155
266,/Users/cjpark/Desktop/ucla_courses/cs260r/assignment4/data/td3_agent_single_decreased_lr/td3,66,-1.1333187484741212,796814,271,11946.358421087265,-91.16045379638672,,101.90461730957031,0.0,-91.39112854003906,-91.47660827636719,-1.3680260181427002
267,/Users/cjpark/Desktop/ucla_courses/cs260r/assignment4/data/td3_agent_single_decreased_lr/td3,66,-1.1314113903045655,799814,272,11978.02266907692,-79.1627426147461,,34.747432708740234,0.0,-80.0276107788086,-79.85912322998047,-0.19642513990402222
268,/Users/cjpark/Desktop/ucla_courses/cs260r/assignment4/data/td3_agent_single_decreased_lr/td3,66,-1.1332025623321533,802814,273,12015.596362113953,-99.43701171875,,44.63416290283203,0.0,-99.16433715820312,-98.98583221435547,-0.39128515124320984
269,/Users/cjpark/Desktop/ucla_courses/cs260r/assignment4/data/td3_agent_single_decreased_lr/td3,66,-1.1362624454498291,805814,274,12055.98431110382,-88.83586120605469,,220.7140350341797,0.0,-87.37522888183594,-87.54244232177734,-1.3680249452590942
270,/Users/cjpark/Desktop/ucla_courses/cs260r/assignment4/data/td3_agent_single_decreased_lr/td3,66,-1.1383859252929687,808814,275,12093.172284126282,-98.96729278564453,,55.395511627197266,0.0,-99.54310607910156,-99.78693389892578,-0.5866736769676208
271,/Users/cjpark/Desktop/ucla_courses/cs260r/assignment4/data/td3_agent_single_decreased_lr/td3,66,-1.1431347942352295,811814,276,12126.177292108536,-92.37228393554688,,86.15071105957031,0.0,-91.75263977050781,-91.4480209350586,-1.5634922981262207
272,/Users/cjpark/Desktop/ucla_courses/cs260r/assignment4/data/td3_agent_single_decreased_lr/td3,67,-1.1406883430480956,814814,277,12156.680519104004,-89.88609313964844,,90.27433776855469,0.0,-90.37287902832031,-90.57677459716797,-0.19581612944602966
273,/Users/cjpark/Desktop/ucla_courses/cs260r/assignment4/data/td3_agent_single_decreased_lr/td3,67,-1.1471692180633546,817814,278,12187.713688135147,-93.04557037353516,,121.8883056640625,0.0,-93.0450439453125,-92.6891860961914,-1.7579395771026611
274,/Users/cjpark/Desktop/ucla_courses/cs260r/assignment4/data/td3_agent_single_decreased_lr/td3,67,-1.1550236701965333,820814,279,12219.22125697136,-90.37205505371094,,67.59849548339844,0.0,-89.51432800292969,-89.52442169189453,-1.758196234703064
275,/Users/cjpark/Desktop/ucla_courses/cs260r/assignment4/data/td3_agent_single_decreased_lr/td3,67,-1.1618559646606446,823814,280,12253.154006004333,-80.37382507324219,,103.70867156982422,0.0,-79.77144622802734,-79.81014251708984,-1.173245906829834
276,/Users/cjpark/Desktop/ucla_courses/cs260r/assignment4/data/td3_agent_single_decreased_lr/td3,67,-1.1682508563995362,826814,281,12289.5053191185,-74.4111557006836,,151.54275512695312,0.0,-75.53814697265625,-75.4871826171875,-0.5866909623146057
277,/Users/cjpark/Desktop/ucla_courses/cs260r/assignment4/data/td3_agent_single_decreased_lr/td3,67,-1.1734646129608155,829814,282,12321.367959976196,-93.29781341552734,,101.159423828125,0.0,-94.38628387451172,-94.31134033203125,-0.7816949486732483
278,/Users/cjpark/Desktop/ucla_courses/cs260r/assignment4/data/td3_agent_single_decreased_lr/td3,67,-1.1731198501586915,832814,283,12358.48697400093,-103.96086120605469,,180.5382843017578,0.0,-102.9541015625,-103.23796844482422,-0.7810598611831665
279,/Users/cjpark/Desktop/ucla_courses/cs260r/assignment4/data/td3_agent_single_decreased_lr/td3,67,-1.177179012298584,835814,284,12393.618165969849,-106.98051452636719,,195.36656188964844,0.0,-107.3752212524414,-107.56471252441406,-1.367600679397583
280,/Users/cjpark/Desktop/ucla_courses/cs260r/assignment4/data/td3_agent_single_decreased_lr/td3,67,-1.1799457168579102,838814,285,12428.856033086777,-89.74700927734375,,94.00347900390625,0.0,-89.4990005493164,-89.43575286865234,-0.7816915512084961
281,/Users/cjpark/Desktop/ucla_courses/cs260r/assignment4/data/td3_agent_single_decreased_lr/td3,67,-1.1843237113952636,841814,286,12466.475357294083,-86.09999084472656,,103.78509521484375,0.0,-85.20751190185547,-85.13059997558594,-0.3911738097667694
282,/Users/cjpark/Desktop/ucla_courses/cs260r/assignment4/data/td3_agent_single_decreased_lr/td3,67,-1.1910346221923829,844814,287,12500.86712694168,-96.72459411621094,,107.92341613769531,0.0,-97.01842498779297,-96.66661834716797,-1.5627195835113525
283,/Users/cjpark/Desktop/ucla_courses/cs260r/assignment4/data/td3_agent_single_decreased_lr/td3,67,-1.1964688110351562,847814,288,12535.843640089035,-92.16665649414062,,154.20562744140625,0.0,-91.60538482666016,-91.86123657226562,-0.5868918895721436
284,/Users/cjpark/Desktop/ucla_courses/cs260r/assignment4/data/td3_agent_single_decreased_lr/td3,67,-1.1983140754699706,850814,289,12570.24728012085,-96.75059509277344,,116.21006774902344,0.0,-95.85284423828125,-95.77703094482422,-2.34405255317688
285,/Users/cjpark/Desktop/ucla_courses/cs260r/assignment4/data/td3_agent_single_decreased_lr/td3,67,-1.199923210144043,853814,290,12609.145792007446,-75.57855987548828,,80.55892181396484,0.0,-75.83519744873047,-75.85504150390625,-0.19591225683689117
286,/Users/cjpark/Desktop/ucla_courses/cs260r/assignment4/data/td3_agent_single_decreased_lr/td3,67,-1.2053107738494873,856814,291,12644.74632024765,-88.21694946289062,,110.78099060058594,0.0,-87.91597747802734,-87.76664733886719,-1.5629925727844238
287,/Users/cjpark/Desktop/ucla_courses/cs260r/assignment4/data/td3_agent_single_decreased_lr/td3,67,-1.2050708866119384,859814,292,12682.714524269104,-84.48875427246094,,109.76695251464844,0.0,-83.69427490234375,-83.9006118774414,-0.9776079654693604
288,/Users/cjpark/Desktop/ucla_courses/cs260r/assignment4/data/td3_agent_single_decreased_lr/td3,67,-1.2084094047546388,862814,293,12719.451574087143,-100.36827850341797,,79.39280700683594,0.0,-99.99669647216797,-100.04340362548828,-1.5629911422729492
289,/Users/cjpark/Desktop/ucla_courses/cs260r/assignment4/data/td3_agent_single_decreased_lr/td3,67,-1.2109197902679443,865814,294,12757.057064056396,-99.36742401123047,,69.6467514038086,0.0,-99.48194122314453,-99.46722412109375,-0.7817925214767456
290,/Users/cjpark/Desktop/ucla_courses/cs260r/assignment4/data/td3_agent_single_decreased_lr/td3,67,-1.216982250213623,868814,295,12795.859580993652,-88.3732681274414,,134.7457275390625,0.0,-88.44197082519531,-88.39558410644531,-1.1726857423782349
291,/Users/cjpark/Desktop/ucla_courses/cs260r/assignment4/data/td3_agent_single_decreased_lr/td3,67,-1.22010009765625,871814,296,12836.066986083984,-88.6231460571289,,165.23818969726562,0.0,-89.18992614746094,-89.38249206542969,-0.7819364070892334
292,/Users/cjpark/Desktop/ucla_courses/cs260r/assignment4/data/td3_agent_single_decreased_lr/td3,67,-1.2235534477233887,874814,297,12877.543438196182,-102.56269836425781,,92.55760192871094,0.0,-103.26588439941406,-103.25051879882812,-0.9767504930496216
293,/Users/cjpark/Desktop/ucla_courses/cs260r/assignment4/data/td3_agent_single_decreased_lr/td3,67,-1.2270296001434327,877814,298,12916.282820224762,-87.27955627441406,,207.61476135253906,0.0,-87.3035888671875,-86.99349975585938,-1.17232346534729
294,/Users/cjpark/Desktop/ucla_courses/cs260r/assignment4/data/td3_agent_single_decreased_lr/td3,67,-1.2290802574157715,880814,299,12956.392007112503,-79.82176971435547,,104.76094818115234,0.0,-79.60798645019531,-79.27114868164062,-0.7812957763671875
295,/Users/cjpark/Desktop/ucla_courses/cs260r/assignment4/data/td3_agent_single_decreased_lr/td3,68,-1.2318347263336182,883814,300,12994.999240875244,-86.79351043701172,,52.421783447265625,0.0,-87.7220230102539,-87.87047576904297,-0.1959046572446823
296,/Users/cjpark/Desktop/ucla_courses/cs260r/assignment4/data/td3_agent_single_decreased_lr/td3,67,-1.2308009052276612,886814,301,13045.724661111832,-99.34902954101562,,57.98613739013672,0.0,-99.41279602050781,-99.55003356933594,-1.17215096950531
297,/Users/cjpark/Desktop/ucla_courses/cs260r/assignment4/data/td3_agent_single_decreased_lr/td3,67,-1.2351219081878662,889814,302,13119.691794157028,-100.58558654785156,,118.68356323242188,0.0,-100.31212615966797,-100.36365509033203,-1.9539583921432495
298,/Users/cjpark/Desktop/ucla_courses/cs260r/assignment4/data/td3_agent_single_decreased_lr/td3,67,-1.2343058395385742,892814,303,13159.78363609314,-63.58230972290039,,52.80305480957031,0.0,-63.17009735107422,-62.90616989135742,-0.586215615272522
299,/Users/cjpark/Desktop/ucla_courses/cs260r/assignment4/data/td3_agent_single_decreased_lr/td3,67,-1.235764513015747,895814,304,13187.780779123306,-103.13597106933594,,89.23027801513672,0.0,-104.22712707519531,-103.82412719726562,-0.586701512336731
300,/Users/cjpark/Desktop/ucla_courses/cs260r/assignment4/data/td3_agent_single_decreased_lr/td3,68,-1.238923101425171,898814,305,13215.049216032028,-90.21417999267578,,87.80424499511719,0.0,-89.87499237060547,-89.8211441040039,-1.3675823211669922
301,/Users/cjpark/Desktop/ucla_courses/cs260r/assignment4/data/td3_agent_single_decreased_lr/td3,68,-1.2415928363800048,901814,306,13243.316210269928,-104.42652893066406,,124.11943054199219,0.0,-104.72770690917969,-104.65086364746094,-1.1721537113189697
302,/Users/cjpark/Desktop/ucla_courses/cs260r/assignment4/data/td3_agent_single_decreased_lr/td3,68,-1.244257879257202,904814,307,13271.624397039413,-85.1514663696289,,121.7013168334961,0.0,-84.81132507324219,-84.63988494873047,-1.3678721189498901
303,/Users/cjpark/Desktop/ucla_courses/cs260r/assignment4/data/td3_agent_single_decreased_lr/td3,68,-1.2478211116790772,907814,308,13298.735687971115,-69.21118927001953,,50.742095947265625,0.0,-68.29341125488281,-68.509521484375,-0.7821300625801086
304,/Users/cjpark/Desktop/ucla_courses/cs260r/assignment4/data/td3_agent_single_decreased_lr/td3,68,-1.2486411094665528,910814,309,13332.186451911926,-92.88035583496094,,84.35737609863281,0.0,-92.9209213256836,-92.96955871582031,-0.9770725965499878
305,/Users/cjpark/Desktop/ucla_courses/cs260r/assignment4/data/td3_agent_single_decreased_lr/td3,68,-1.2518519401550292,913814,310,13361.515480995178,-88.11592102050781,,61.3848876953125,0.0,-88.25241088867188,-88.28446960449219,-1.367824912071228
306,/Users/cjpark/Desktop/ucla_courses/cs260r/assignment4/data/td3_agent_single_decreased_lr/td3,68,-1.2515779781341552,916814,311,13397.072725057602,-90.76799011230469,,81.87786102294922,0.0,-91.23236846923828,-91.21143341064453,-0.9770166873931885
307,/Users/cjpark/Desktop/ucla_courses/cs260r/assignment4/data/td3_agent_single_decreased_lr/td3,68,-1.252536153793335,919814,312,13426.92660188675,-83.81078338623047,,92.46875,0.0,-83.06024169921875,-82.91058349609375,-1.1727111339569092
308,/Users/cjpark/Desktop/ucla_courses/cs260r/assignment4/data/td3_agent_single_decreased_lr/td3,68,-1.2569547653198243,922814,313,13454.949220180511,-83.34529113769531,,94.57977294921875,0.0,-83.1302261352539,-83.2387466430664,-0.5864287614822388
309,/Users/cjpark/Desktop/ucla_courses/cs260r/assignment4/data/td3_agent_single_decreased_lr/td3,68,-1.2609973335266114,925814,314,13482.752055168152,-103.04092407226562,,111.16641235351562,0.0,-102.59901428222656,-102.6233901977539,-1.953932762145996
310,/Users/cjpark/Desktop/ucla_courses/cs260r/assignment4/data/td3_agent_single_decreased_lr/td3,68,-1.2620524120330812,928814,315,13511.432030916214,-102.53177642822266,,74.42823791503906,0.0,-103.79122161865234,-103.49049377441406,-0.7819446325302124
311,/Users/cjpark/Desktop/ucla_courses/cs260r/assignment4/data/td3_agent_single_decreased_lr/td3,68,-1.2646562767028808,931814,316,13539.807157993317,-90.78942108154297,,96.84722900390625,0.0,-89.84965515136719,-89.88102722167969,-1.7585792541503906
312,/Users/cjpark/Desktop/ucla_courses/cs260r/assignment4/data/td3_agent_single_decreased_lr/td3,68,-1.2696929454803467,934814,317,13569.421530008316,-84.90855407714844,,198.7148895263672,0.0,-84.50677490234375,-84.57630157470703,-1.5627983808517456
313,/Users/cjpark/Desktop/ucla_courses/cs260r/assignment4/data/td3_agent_single_decreased_lr/td3,68,-1.2687964916229248,937814,318,13598.161264181137,-84.81468200683594,,162.31353759765625,0.0,-85.01299285888672,-85.24803161621094,-1.5633550882339478
314,/Users/cjpark/Desktop/ucla_courses/cs260r/assignment4/data/td3_agent_single_decreased_lr/td3,69,-1.2701823234558105,940814,319,13627.139243125916,-85.02041625976562,,195.2082061767578,0.0,-85.03561401367188,-84.92720794677734,-0.9769542813301086
315,/Users/cjpark/Desktop/ucla_courses/cs260r/assignment4/data/td3_agent_single_decreased_lr/td3,69,-1.2716090774536133,943814,320,13655.947665214539,-75.98320007324219,,87.77627563476562,0.0,-75.87394714355469,-76.0275650024414,-0.9773463606834412
316,/Users/cjpark/Desktop/ucla_courses/cs260r/assignment4/data/td3_agent_single_decreased_lr/td3,69,-1.271292610168457,946814,321,13685.642306089401,-93.7515640258789,,71.75585174560547,0.0,-93.95809936523438,-93.66748809814453,-1.3674633502960205
317,/Users/cjpark/Desktop/ucla_courses/cs260r/assignment4/data/td3_agent_single_decreased_lr/td3,69,-1.2709934711456299,949814,322,13714.659389972687,-98.944091796875,,99.5522232055664,0.0,-98.11270141601562,-97.9900894165039,-1.7585011720657349
318,/Users/cjpark/Desktop/ucla_courses/cs260r/assignment4/data/td3_agent_single_decreased_lr/td3,69,-1.2716928672790528,952814,323,13748.419681072235,-93.38777160644531,,128.46864318847656,0.0,-93.79167938232422,-93.5989990234375,-0.7815423011779785
319,/Users/cjpark/Desktop/ucla_courses/cs260r/assignment4/data/td3_agent_single_decreased_lr/td3,69,-1.2772383880615235,955814,324,13783.012768030167,-84.51852416992188,,57.1436767578125,0.0,-84.50785827636719,-84.56272888183594,-0.9772812128067017
320,/Users/cjpark/Desktop/ucla_courses/cs260r/assignment4/data/td3_agent_single_decreased_lr/td3,69,-1.2758763694763184,958814,325,13815.528813123703,-89.1032943725586,,65.3819351196289,0.0,-90.05175018310547,-89.94146728515625,-0.5862524509429932
321,/Users/cjpark/Desktop/ucla_courses/cs260r/assignment4/data/td3_agent_single_decreased_lr/td3,69,-1.2761018466949463,961814,326,13846.165850162506,-86.40936279296875,,57.42625427246094,0.0,-86.67825317382812,-86.62538146972656,-0.9771385788917542
322,/Users/cjpark/Desktop/ucla_courses/cs260r/assignment4/data/td3_agent_single_decreased_lr/td3,69,-1.2779866695404052,964814,327,13877.26969909668,-84.2641830444336,,117.8105697631836,0.0,-84.9979248046875,-84.63348388671875,-1.172746181488037
323,/Users/cjpark/Desktop/ucla_courses/cs260r/assignment4/data/td3_agent_single_decreased_lr/td3,69,-1.2747002506256104,967814,328,13907.130652189255,-85.68216705322266,,57.67919921875,0.0,-86.34283447265625,-86.18590545654297,-1.172234058380127
324,/Users/cjpark/Desktop/ucla_courses/cs260r/assignment4/data/td3_agent_single_decreased_lr/td3,69,-1.279240837097168,970814,329,13937.621772050858,-87.74706268310547,,44.482826232910156,0.0,-87.88587951660156,-87.87109375,-0.9772385358810425
325,/Users/cjpark/Desktop/ucla_courses/cs260r/assignment4/data/td3_agent_single_decreased_lr/td3,69,-1.2803074550628661,973814,330,13968.670680046082,-79.53961944580078,,57.68447494506836,0.0,-78.9100341796875,-79.31584930419922,-0.1962060183286667
326,/Users/cjpark/Desktop/ucla_courses/cs260r/assignment4/data/td3_agent_single_decreased_lr/td3,69,-1.2817000007629396,976814,331,14000.381563186646,-83.48252868652344,,86.93487548828125,0.0,-83.29014587402344,-83.14996337890625,-0.9769577980041504
327,/Users/cjpark/Desktop/ucla_courses/cs260r/assignment4/data/td3_agent_single_decreased_lr/td3,69,-1.2794320106506347,979814,332,14041.16253209114,-81.2619857788086,,113.85987854003906,0.0,-81.06780242919922,-81.14558410644531,-1.1722121238708496
328,/Users/cjpark/Desktop/ucla_courses/cs260r/assignment4/data/td3_agent_single_decreased_lr/td3,69,-1.2802546787261964,982814,333,14083.040632009506,-87.76639556884766,,58.43373107910156,0.0,-86.72982025146484,-86.84578704833984,-0.7806686162948608
329,/Users/cjpark/Desktop/ucla_courses/cs260r/assignment4/data/td3_agent_single_decreased_lr/td3,69,-1.2818927001953124,985814,334,14117.988551139832,-71.2457046508789,,38.65843963623047,0.0,-70.8018569946289,-70.93523406982422,-0.3913651704788208
330,/Users/cjpark/Desktop/ucla_courses/cs260r/assignment4/data/td3_agent_single_decreased_lr/td3,69,-1.280148458480835,988814,335,14157.257194042206,-74.88373565673828,,67.11433410644531,0.0,-75.34809875488281,-75.58256530761719,-0.39125606417655945
331,/Users/cjpark/Desktop/ucla_courses/cs260r/assignment4/data/td3_agent_single_decreased_lr/td3,69,-1.2815274429321288,991814,336,14194.707606077194,-87.6350326538086,,52.45716857910156,0.0,-87.73011779785156,-87.96013641357422,-0.7821648716926575
332,/Users/cjpark/Desktop/ucla_courses/cs260r/assignment4/data/td3_agent_single_decreased_lr/td3,69,-1.287316837310791,994814,337,14232.087657928467,-82.57988739013672,,77.97471618652344,0.0,-82.12517547607422,-82.57658386230469,-0.781901478767395
333,/Users/cjpark/Desktop/ucla_courses/cs260r/assignment4/data/td3_agent_single_decreased_lr/td3,69,-1.2869392585754396,997814,338,14269.685068130493,-94.9878921508789,,80.56089782714844,0.0,-94.80485534667969,-94.72235107421875,-1.5626126527786255
