cjunkin/reinforcement-learning/metaracer/data/td3_agent_single_overhaul/td3/progress.csv
,log_dir,frame_per_second,episode_reward,total_steps,total_episodes,total_time,target_q,actor_loss,critic_loss,success_rate,current_q1,current_q2,reward
0,/Users/cjpark/Desktop/ucla_courses/cs260r/assignment4/data/td3_agent_single_overhaul/td3,1462,29.407883644104004,2999,1,2.04998779296875,,,,0.0,,,
1,/Users/cjpark/Desktop/ucla_courses/cs260r/assignment4/data/td3_agent_single_overhaul/td3,571,-1567.2426981925964,5999,2,10.493886947631836,-0.9917742013931274,-0.6062685251235962,25.916135787963867,0.0,-0.8744534850120544,-0.8924074172973633,-0.3793988823890686
2,/Users/cjpark/Desktop/ucla_courses/cs260r/assignment4/data/td3_agent_single_overhaul/td3,277,-8311.157553354898,8999,3,32.454848766326904,-12.430041313171387,11.316202163696289,164.68557739257812,0.0,-11.756200790405273,-11.505727767944336,-3.2153491973876953
3,/Users/cjpark/Desktop/ucla_courses/cs260r/assignment4/data/td3_agent_single_overhaul/td3,222,-20420.749947071075,11999,4,53.85598802566528,-65.62640380859375,63.16468811035156,237.63262939453125,0.0,-64.20401763916016,-64.63154602050781,-7.3193488121032715
4,/Users/cjpark/Desktop/ucla_courses/cs260r/assignment4/data/td3_agent_single_overhaul/td3,197,-20666.363853263854,14999,5,75.9285819530487,-111.97012329101562,110.79544830322266,308.9089050292969,0.0,-112.04180145263672,-112.03533935546875,-6.734653949737549
5,/Users/cjpark/Desktop/ucla_courses/cs260r/assignment4/data/td3_agent_single_overhaul/td3,184,-24188.61038907369,17999,6,97.52065181732178,-202.29652404785156,204.0098876953125,503.7216796875,0.0,-206.84786987304688,-206.96917724609375,-7.709131240844727
6,/Users/cjpark/Desktop/ucla_courses/cs260r/assignment4/data/td3_agent_single_overhaul/td3,175,-23647.229620797294,20999,7,119.53821802139282,-273.81591796875,274.7840270996094,627.35400390625,0.0,-274.6766662597656,-274.237060546875,-7.41758394241333
7,/Users/cjpark/Desktop/ucla_courses/cs260r/assignment4/data/td3_agent_single_overhaul/td3,168,-23803.73238503933,23999,8,142.38058185577393,-274.930908203125,279.2955627441406,918.565673828125,0.0,-280.3590393066406,-280.3284912109375,-7.809416770935059
8,/Users/cjpark/Desktop/ucla_courses/cs260r/assignment4/data/td3_agent_single_overhaul/td3,163,-23614.311391936408,26999,9,165.08940482139587,-365.3247375488281,363.328125,852.9920654296875,0.0,-361.78033447265625,-362.8471984863281,-8.494543075561523
9,/Users/cjpark/Desktop/ucla_courses/cs260r/assignment4/data/td3_agent_single_overhaul/td3,160,-24052.813946056365,29999,10,187.03756976127625,-433.2112121582031,434.8570251464844,1134.186767578125,0.0,-436.33013916015625,-435.7600402832031,-8.49402904510498
10,/Users/cjpark/Desktop/ucla_courses/cs260r/assignment4/data/td3_agent_single_overhaul/td3,159,-28856.902246388523,32999,11,207.3350977897644,-519.7245483398438,518.7554321289062,1525.7430419921875,0.0,-521.6028442382812,-522.6885986328125,-10.740043640136719
11,/Users/cjpark/Desktop/ucla_courses/cs260r/assignment4/data/td3_agent_single_overhaul/td3,158,-28181.21354675293,35999,12,227.72130680084229,-530.939453125,530.8873291015625,1130.9989013671875,0.0,-530.2249145507812,-530.7325439453125,-8.68812370300293
12,/Users/cjpark/Desktop/ucla_courses/cs260r/assignment4/data/td3_agent_single_overhaul/td3,156,-29590.33841609955,38999,13,248.64523077011108,-593.6884765625,596.4105834960938,819.795166015625,0.0,-596.7255859375,-596.7413940429688,-9.276152610778809
13,/Users/cjpark/Desktop/ucla_courses/cs260r/assignment4/data/td3_agent_single_overhaul/td3,156,-28994.563553537642,41999,14,268.36677408218384,-652.6763916015625,648.4299926757812,1051.290771484375,0.0,-652.046630859375,-653.6390991210938,-9.178577423095703
14,/Users/cjpark/Desktop/ucla_courses/cs260r/assignment4/data/td3_agent_single_overhaul/td3,155,-28621.54509461721,44999,15,288.6224000453949,-615.4400024414062,609.6194458007812,1005.7232055664062,0.0,-610.84619140625,-611.966552734375,-8.885565757751465
15,/Users/cjpark/Desktop/ucla_courses/cs260r/assignment4/data/td3_agent_single_overhaul/td3,155,-28326.375456631184,47999,16,309.20968079566956,-693.0291748046875,695.6790161132812,8342.833984375,0.0,-697.6900634765625,-696.8734130859375,-8.88512134552002
16,/Users/cjpark/Desktop/ucla_courses/cs260r/assignment4/data/td3_agent_single_overhaul/td3,154,-29389.526098363538,50999,17,330.08183670043945,-727.1886596679688,725.1971435546875,1088.89599609375,0.0,-728.1626586914062,-726.9949951171875,-10.839122772216797
17,/Users/cjpark/Desktop/ucla_courses/cs260r/assignment4/data/td3_agent_single_overhaul/td3,153,-29245.620808442432,53999,18,350.8907537460327,-754.2688598632812,755.0778198242188,1048.214599609375,0.0,-756.321044921875,-755.2822875976562,-9.569095611572266
18,/Users/cjpark/Desktop/ucla_courses/cs260r/assignment4/data/td3_agent_single_overhaul/td3,153,-29195.825269950063,56999,19,371.61213970184326,-812.27587890625,811.838623046875,1197.149169921875,0.0,-815.3798828125,-815.607421875,-9.764450073242188
19,/Users/cjpark/Desktop/ucla_courses/cs260r/assignment4/data/td3_agent_single_overhaul/td3,153,-28810.98745832443,59999,20,391.947500705719,-868.5800170898438,870.6956176757812,1251.1328125,0.0,-870.8453369140625,-870.4088745117188,-10.057697296142578
20,/Users/cjpark/Desktop/ucla_courses/cs260r/assignment4/data/td3_agent_single_overhaul/td3,152,-28817.569914045787,62999,21,412.94488286972046,-852.71875,853.8468627929688,1616.71630859375,0.0,-847.95654296875,-846.8851928710938,-9.764230728149414
21,/Users/cjpark/Desktop/ucla_courses/cs260r/assignment4/data/td3_agent_single_overhaul/td3,152,-28705.368602882732,65999,22,432.96901679039,-778.0590209960938,778.6660766601562,1572.015869140625,0.0,-780.553955078125,-780.4099731445312,-8.592146873474121
22,/Users/cjpark/Desktop/ucla_courses/cs260r/assignment4/data/td3_agent_single_overhaul/td3,152,-28455.081844578617,68999,23,453.698942899704,-859.9147338867188,860.6583251953125,1264.293701171875,0.0,-861.3087158203125,-858.2686767578125,-9.276176452636719
23,/Users/cjpark/Desktop/ucla_courses/cs260r/assignment4/data/td3_agent_single_overhaul/td3,151,-28196.4962482055,71999,24,474.6822438240051,-968.9767456054688,968.1109008789062,1293.848876953125,0.0,-969.6669921875,-969.825439453125,-8.397592544555664
24,/Users/cjpark/Desktop/ucla_courses/cs260r/assignment4/data/td3_agent_single_overhaul/td3,151,-28100.613365478515,74999,25,495.04230403900146,-998.8512573242188,997.9695434570312,935.5377197265625,0.0,-997.5184326171875,-996.7435302734375,-9.667407989501953
25,/Users/cjpark/Desktop/ucla_courses/cs260r/assignment4/data/td3_agent_single_overhaul/td3,151,-27748.63210127904,77999,26,515.0712797641754,-956.026611328125,956.5286254882812,868.4439697265625,0.0,-956.3131103515625,-955.6181640625,-9.179000854492188
26,/Users/cjpark/Desktop/ucla_courses/cs260r/assignment4/data/td3_agent_single_overhaul/td3,151,-27894.94577768114,80999,27,535.6942648887634,-978.1483764648438,976.2828369140625,5086.765625,0.0,-977.868408203125,-978.6047973632812,-8.299760818481445
27,/Users/cjpark/Desktop/ucla_courses/cs260r/assignment4/data/td3_agent_single_overhaul/td3,151,-27889.74192898614,83999,28,555.2646939754486,-1079.0020751953125,1077.132080078125,1553.7978515625,0.0,-1079.501220703125,-1079.8609619140625,-8.2999849319458
28,/Users/cjpark/Desktop/ucla_courses/cs260r/assignment4/data/td3_agent_single_overhaul/td3,151,-27860.76661609781,86999,29,575.5377118587494,-1057.33251953125,1056.828369140625,1253.62646484375,0.0,-1059.5384521484375,-1058.374755859375,-8.006031036376953
29,/Users/cjpark/Desktop/ucla_courses/cs260r/assignment4/data/td3_agent_single_overhaul/td3,151,-27592.032692432404,89999,30,595.5287449359894,-1091.4219970703125,1096.68115234375,1702.5517578125,0.0,-1102.492431640625,-1103.930419921875,-10.057567596435547
30,/Users/cjpark/Desktop/ucla_courses/cs260r/assignment4/data/td3_agent_single_overhaul/td3,150,-28661.57839045986,92999,31,616.1580028533936,-1130.1531982421875,1123.84326171875,2956.595947265625,0.0,-1129.937744140625,-1134.235595703125,-10.740998268127441
31,/Users/cjpark/Desktop/ucla_courses/cs260r/assignment4/data/td3_agent_single_overhaul/td3,150,-28522.12108078599,95999,32,636.0899379253387,-1168.878662109375,1168.5107421875,1210.673095703125,0.0,-1167.9061279296875,-1167.2962646484375,-10.155451774597168
32,/Users/cjpark/Desktop/ucla_courses/cs260r/assignment4/data/td3_agent_single_overhaul/td3,150,-28372.94606361967,98999,33,656.171954870224,-1162.893310546875,1161.593505859375,1873.9295654296875,0.0,-1162.4306640625,-1163.57421875,-11.619669914245605
33,/Users/cjpark/Desktop/ucla_courses/cs260r/assignment4/data/td3_agent_single_overhaul/td3,150,-28256.06422808591,101999,34,675.907322883606,-1100.819091796875,1102.5177001953125,2009.8785400390625,0.0,-1101.4620361328125,-1100.283447265625,-10.155577659606934
34,/Users/cjpark/Desktop/ucla_courses/cs260r/assignment4/data/td3_agent_single_overhaul/td3,150,-28105.863341059005,104999,35,695.5268607139587,-1082.4232177734375,1080.8983154296875,958.4678955078125,0.0,-1081.586181640625,-1077.763916015625,-8.885988235473633
35,/Users/cjpark/Desktop/ucla_courses/cs260r/assignment4/data/td3_agent_single_overhaul/td3,150,-28043.188152101306,107999,36,715.6802728176117,-1117.9954833984375,1114.7169189453125,1187.127685546875,0.0,-1110.516845703125,-1111.4193115234375,-8.690688133239746
36,/Users/cjpark/Desktop/ucla_courses/cs260r/assignment4/data/td3_agent_single_overhaul/td3,150,-27839.28578920622,110999,37,736.2363736629486,-1218.8970947265625,1220.627685546875,1060.5406494140625,0.0,-1217.8037109375,-1216.9365234375,-10.839040756225586
37,/Users/cjpark/Desktop/ucla_courses/cs260r/assignment4/data/td3_agent_single_overhaul/td3,150,-27684.282162616128,113999,38,756.6744630336761,-1168.472412109375,1168.029052734375,2408.38525390625,0.0,-1173.416748046875,-1173.842041015625,-10.35070514678955
38,/Users/cjpark/Desktop/ucla_courses/cs260r/assignment4/data/td3_agent_single_overhaul/td3,150,-27594.914415408402,116999,39,776.9935507774353,-1129.06591796875,1124.4039306640625,1370.6102294921875,0.0,-1123.9866943359375,-1123.163818359375,-8.300331115722656
39,/Users/cjpark/Desktop/ucla_courses/cs260r/assignment4/data/td3_agent_single_overhaul/td3,150,-27426.263779973982,119999,40,797.0331609249115,-1091.951904296875,1093.1973876953125,8498.8984375,0.0,-1097.322509765625,-1095.56640625,-8.300102233886719
40,/Users/cjpark/Desktop/ucla_courses/cs260r/assignment4/data/td3_agent_single_overhaul/td3,150,-28312.18078052707,122999,41,817.0178709030151,-1221.75439453125,1222.1510009765625,2200.15478515625,0.0,-1228.1448974609375,-1226.559326171875,-9.179455757141113
41,/Users/cjpark/Desktop/ucla_courses/cs260r/assignment4/data/td3_agent_single_overhaul/td3,150,-28215.443740504128,125999,42,837.3189318180084,-1166.5535888671875,1162.3416748046875,1026.210693359375,0.0,-1161.12060546875,-1164.2041015625,-10.741209030151367
42,/Users/cjpark/Desktop/ucla_courses/cs260r/assignment4/data/td3_agent_single_overhaul/td3,150,-28055.75656469478,128999,43,857.5874729156494,-1191.031005859375,1187.9984130859375,948.9559936523438,0.0,-1191.27001953125,-1192.4888916015625,-10.05764389038086
43,/Users/cjpark/Desktop/ucla_courses/cs260r/assignment4/data/td3_agent_single_overhaul/td3,150,-27888.549948020416,131999,44,878.5591759681702,-1148.4114990234375,1148.860595703125,1294.9715576171875,0.0,-1145.2044677734375,-1144.496337890625,-9.569652557373047
44,/Users/cjpark/Desktop/ucla_courses/cs260r/assignment4/data/td3_agent_single_overhaul/td3,149,-27794.340904808043,134999,45,902.7290880680084,-1129.6778564453125,1133.1875,1099.68310546875,0.0,-1135.6385498046875,-1134.1893310546875,-8.88610553741455
45,/Users/cjpark/Desktop/ucla_courses/cs260r/assignment4/data/td3_agent_single_overhaul/td3,148,-27703.132818761078,137999,46,928.2027199268341,-1133.2525634765625,1127.9217529296875,1474.167724609375,0.0,-1127.1868896484375,-1129.4246826171875,-9.276500701904297
46,/Users/cjpark/Desktop/ucla_courses/cs260r/assignment4/data/td3_agent_single_overhaul/td3,148,-28007.31640907044,140999,47,952.4299037456512,-1184.46044921875,1183.7303466796875,929.3898315429688,0.0,-1182.319091796875,-1179.5242919921875,-9.569967269897461
47,/Users/cjpark/Desktop/ucla_courses/cs260r/assignment4/data/td3_agent_single_overhaul/td3,147,-27912.350484172504,143999,48,976.8175439834595,-1119.5098876953125,1119.99560546875,1379.735595703125,0.0,-1124.69189453125,-1120.38818359375,-8.984077453613281
48,/Users/cjpark/Desktop/ucla_courses/cs260r/assignment4/data/td3_agent_single_overhaul/td3,146,-27943.722590543784,146999,49,1001.1172590255737,-1185.5023193359375,1183.411865234375,667.8605346679688,0.0,-1180.08056640625,-1181.653076171875,-10.25318431854248
49,/Users/cjpark/Desktop/ucla_courses/cs260r/assignment4/data/td3_agent_single_overhaul/td3,146,-27808.840686359406,149999,50,1025.2972118854523,-1211.123291015625,1210.6685791015625,673.7926025390625,0.0,-1213.0791015625,-1212.1727294921875,-9.569280624389648
50,/Users/cjpark/Desktop/ucla_courses/cs260r/assignment4/data/td3_agent_single_overhaul/td3,145,-28086.104476386427,152999,51,1049.3509666919708,-1275.4942626953125,1269.7315673828125,1365.020263671875,0.0,-1275.364990234375,-1276.89794921875,-10.644307136535645
51,/Users/cjpark/Desktop/ucla_courses/cs260r/assignment4/data/td3_agent_single_overhaul/td3,145,-27969.038729209165,155999,52,1073.9458348751068,-1175.981201171875,1170.929931640625,1321.03076171875,0.0,-1176.4833984375,-1182.0625,-8.983907699584961
52,/Users/cjpark/Desktop/ucla_courses/cs260r/assignment4/data/td3_agent_single_overhaul/td3,144,-28156.37902738463,158999,53,1098.553535938263,-1212.59521484375,1210.953857421875,1052.884765625,0.0,-1207.6990966796875,-1203.872314453125,-8.983718872070312
53,/Users/cjpark/Desktop/ucla_courses/cs260r/assignment4/data/td3_agent_single_overhaul/td3,144,-28071.96901985451,161999,54,1123.004694700241,-1255.581787109375,1255.748291015625,2022.465087890625,0.0,-1254.143310546875,-1251.890380859375,-9.276322364807129
54,/Users/cjpark/Desktop/ucla_courses/cs260r/assignment4/data/td3_agent_single_overhaul/td3,143,-27967.006174191563,164999,55,1147.0285668373108,-1208.6746826171875,1208.2369384765625,1539.6336669921875,0.0,-1203.43994140625,-1203.2052001953125,-9.96033763885498
55,/Users/cjpark/Desktop/ucla_courses/cs260r/assignment4/data/td3_agent_single_overhaul/td3,143,-27839.001726014274,167999,56,1172.2310910224915,-1250.4534912109375,1248.894287109375,630.208740234375,0.0,-1247.6009521484375,-1246.26318359375,-8.593523025512695
56,/Users/cjpark/Desktop/ucla_courses/cs260r/assignment4/data/td3_agent_single_overhaul/td3,142,-27776.025988528603,170999,57,1196.4932758808136,-1244.6793212890625,1244.928466796875,769.64208984375,0.0,-1246.720458984375,-1242.896728515625,-8.495551109313965
57,/Users/cjpark/Desktop/ucla_courses/cs260r/assignment4/data/td3_agent_single_overhaul/td3,142,-27786.749992880326,173999,58,1220.833468914032,-1235.3206787109375,1233.87255859375,802.9365234375,0.0,-1235.579833984375,-1233.142333984375,-8.495389938354492
58,/Users/cjpark/Desktop/ucla_courses/cs260r/assignment4/data/td3_agent_single_overhaul/td3,142,-27738.658440719217,176999,59,1244.9704058170319,-1239.8592529296875,1238.021728515625,799.40869140625,0.0,-1240.8011474609375,-1239.3360595703125,-10.74176025390625
59,/Users/cjpark/Desktop/ucla_courses/cs260r/assignment4/data/td3_agent_single_overhaul/td3,141,-27734.66631070773,179999,60,1270.0894658565521,-1166.9210205078125,1164.4610595703125,1142.989990234375,0.0,-1169.1424560546875,-1171.3818359375,-7.519160747528076
60,/Users/cjpark/Desktop/ucla_courses/cs260r/assignment4/data/td3_agent_single_overhaul/td3,141,-27696.37523385345,182999,61,1295.0430798530579,-1254.8536376953125,1246.4599609375,897.663818359375,0.0,-1251.90576171875,-1256.39501953125,-8.983575820922852
61,/Users/cjpark/Desktop/ucla_courses/cs260r/assignment4/data/td3_agent_single_overhaul/td3,140,-27639.158106819275,185999,62,1319.487458705902,-1188.1893310546875,1185.1451416015625,837.29296875,0.0,-1185.7186279296875,-1186.748046875,-9.472084999084473
62,/Users/cjpark/Desktop/ucla_courses/cs260r/assignment4/data/td3_agent_single_overhaul/td3,140,-27565.502452683828,188999,63,1344.071287870407,-1302.6480712890625,1295.9708251953125,1114.617919921875,0.0,-1293.2999267578125,-1293.0982666015625,-10.839420318603516
63,/Users/cjpark/Desktop/ucla_courses/cs260r/assignment4/data/td3_agent_single_overhaul/td3,140,-27483.209770217538,191999,64,1368.5164790153503,-1206.6331787109375,1216.08251953125,1168.18701171875,0.0,-1209.8790283203125,-1200.072998046875,-8.788113594055176
64,/Users/cjpark/Desktop/ucla_courses/cs260r/assignment4/data/td3_agent_single_overhaul/td3,139,-27408.072545682466,194999,65,1392.9729688167572,-1201.052734375,1205.154541015625,5423.4365234375,0.0,-1207.5850830078125,-1206.578857421875,-8.788492202758789
65,/Users/cjpark/Desktop/ucla_courses/cs260r/assignment4/data/td3_agent_single_overhaul/td3,139,-27296.56983947754,197999,66,1417.248548746109,-1136.2193603515625,1134.0177001953125,936.1156616210938,0.0,-1135.988037109375,-1137.8447265625,-9.081334114074707
66,/Users/cjpark/Desktop/ucla_courses/cs260r/assignment4/data/td3_agent_single_overhaul/td3,139,-27221.975903041326,200999,67,1442.2866549491882,-1196.083740234375,1197.3792724609375,903.59716796875,0.0,-1193.140869140625,-1189.9525146484375,-9.960715293884277
67,/Users/cjpark/Desktop/ucla_courses/cs260r/assignment4/data/td3_agent_single_overhaul/td3,139,-27327.519979462904,203999,68,1467.0777926445007,-1162.0830078125,1161.513916015625,1126.732177734375,0.0,-1161.05908203125,-1162.8690185546875,-8.495336532592773
68,/Users/cjpark/Desktop/ucla_courses/cs260r/assignment4/data/td3_agent_single_overhaul/td3,138,-27213.333466087563,206999,69,1491.110587835312,-1203.509033203125,1203.59765625,777.0928955078125,0.0,-1203.432373046875,-1203.9349365234375,-9.862491607666016
69,/Users/cjpark/Desktop/ucla_courses/cs260r/assignment4/data/td3_agent_single_overhaul/td3,138,-27167.417978123256,209999,70,1515.6656787395477,-1215.62158203125,1217.2431640625,35744.08984375,0.0,-1222.31201171875,-1221.948974609375,-8.886143684387207
70,/Users/cjpark/Desktop/ucla_courses/cs260r/assignment4/data/td3_agent_single_overhaul/td3,138,-27703.065052126494,212999,71,1540.5313198566437,-1189.9129638671875,1190.5548095703125,709.907470703125,0.0,-1188.923583984375,-1190.1380615234375,-10.056852340698242
71,/Users/cjpark/Desktop/ucla_courses/cs260r/assignment4/data/td3_agent_single_overhaul/td3,138,-27591.892469975683,215999,72,1565.1968138217926,-1182.423583984375,1181.0423583984375,953.2802734375,0.0,-1178.1246337890625,-1180.1064453125,-9.472267150878906
72,/Users/cjpark/Desktop/ucla_courses/cs260r/assignment4/data/td3_agent_single_overhaul/td3,137,-27498.840907710874,218999,73,1590.2265348434448,-1286.281005859375,1282.4857177734375,693.693115234375,0.0,-1285.205810546875,-1288.250732421875,-10.644142150878906
73,/Users/cjpark/Desktop/ucla_courses/cs260r/assignment4/data/td3_agent_single_overhaul/td3,137,-27446.81885178025,221999,74,1614.6182618141174,-1168.8641357421875,1170.4764404296875,1315.16259765625,0.0,-1163.0081787109375,-1162.6220703125,-9.764971733093262
74,/Users/cjpark/Desktop/ucla_courses/cs260r/assignment4/data/td3_agent_single_overhaul/td3,137,-27554.85212387085,224999,75,1637.64461684227,-1112.2646484375,1108.23583984375,1228.7510986328125,0.0,-1111.35595703125,-1112.6795654296875,-7.616584300994873
75,/Users/cjpark/Desktop/ucla_courses/cs260r/assignment4/data/td3_agent_single_overhaul/td3,137,-27473.853166868812,227999,76,1658.38889670372,-1224.685546875,1219.6895751953125,921.3489379882812,0.0,-1228.65771484375,-1232.51806640625,-8.788775444030762
76,/Users/cjpark/Desktop/ucla_courses/cs260r/assignment4/data/td3_agent_single_overhaul/td3,137,-27450.156471673545,230999,77,1679.2148118019104,-1103.541259765625,1100.750732421875,839.8038330078125,0.0,-1096.797119140625,-1099.698486328125,-8.9838228225708
77,/Users/cjpark/Desktop/ucla_courses/cs260r/assignment4/data/td3_agent_single_overhaul/td3,137,-27388.60293574211,233999,78,1699.462243795395,-1178.1199951171875,1174.9288330078125,732.8546142578125,0.0,-1174.97607421875,-1176.744140625,-7.71415376663208
78,/Users/cjpark/Desktop/ucla_courses/cs260r/assignment4/data/td3_agent_single_overhaul/td3,137,-27551.407280982294,236999,79,1720.2275099754333,-1071.259765625,1074.423583984375,2380.218994140625,0.0,-1072.016357421875,-1070.0811767578125,-8.69063663482666
79,/Users/cjpark/Desktop/ucla_courses/cs260r/assignment4/data/td3_agent_single_overhaul/td3,137,-27492.630623960496,239999,80,1740.2761538028717,-1194.5072021484375,1192.799560546875,14996.697265625,0.0,-1197.40478515625,-1197.9407958984375,-9.17958927154541
80,/Users/cjpark/Desktop/ucla_courses/cs260r/assignment4/data/td3_agent_single_overhaul/td3,138,-27522.34971102962,242999,81,1760.5078768730164,-1188.668212890625,1191.732421875,796.0438232421875,0.0,-1188.7965087890625,-1183.6085205078125,-9.5702543258667
81,/Users/cjpark/Desktop/ucla_courses/cs260r/assignment4/data/td3_agent_single_overhaul/td3,138,-27419.013604978234,245999,82,1780.8497669696808,-1064.093505859375,1055.7823486328125,996.5869750976562,0.0,-1061.10302734375,-1062.5703125,-7.811591625213623
82,/Users/cjpark/Desktop/ucla_courses/cs260r/assignment4/data/td3_agent_single_overhaul/td3,138,-27393.470767745053,248999,83,1801.1959397792816,-1176.357177734375,1176.947509765625,1265.257080078125,0.0,-1175.561279296875,-1176.33642578125,-9.374378204345703
83,/Users/cjpark/Desktop/ucla_courses/cs260r/assignment4/data/td3_agent_single_overhaul/td3,138,-27359.015315986813,251999,84,1821.2035558223724,-1242.5673828125,1241.8172607421875,1260.599365234375,0.0,-1242.5711669921875,-1241.29931640625,-9.27632999420166
84,/Users/cjpark/Desktop/ucla_courses/cs260r/assignment4/data/td3_agent_single_overhaul/td3,138,-27315.36608216903,254999,85,1841.258454799652,-1058.053466796875,1062.283935546875,1369.513427734375,0.0,-1062.56396484375,-1060.9716796875,-7.323662757873535
85,/Users/cjpark/Desktop/ucla_courses/cs260r/assignment4/data/td3_agent_single_overhaul/td3,138,-27320.997592072155,257999,86,1861.2975797653198,-1198.9874267578125,1200.57421875,1258.891845703125,0.0,-1204.0328369140625,-1203.771728515625,-9.960416793823242
86,/Users/cjpark/Desktop/ucla_courses/cs260r/assignment4/data/td3_agent_single_overhaul/td3,138,-27310.40044235361,260999,87,1882.5645458698273,-1168.52783203125,1168.77685546875,951.3328247070312,0.0,-1172.69140625,-1173.761474609375,-9.081690788269043
87,/Users/cjpark/Desktop/ucla_courses/cs260r/assignment4/data/td3_agent_single_overhaul/td3,138,-27393.231657450848,263999,88,1903.9566979408264,-1198.6043701171875,1204.4820556640625,1290.7177734375,0.0,-1204.075439453125,-1201.4927978515625,-8.69096565246582
88,/Users/cjpark/Desktop/ucla_courses/cs260r/assignment4/data/td3_agent_single_overhaul/td3,138,-27375.880566521977,266999,89,1924.4469997882843,-1221.635009765625,1224.1773681640625,754.3955078125,0.0,-1221.5384521484375,-1214.21533203125,-8.788312911987305
89,/Users/cjpark/Desktop/ucla_courses/cs260r/assignment4/data/td3_agent_single_overhaul/td3,138,-27312.246349313526,269999,90,1944.2899007797241,-1223.156982421875,1219.005615234375,580.649169921875,0.0,-1222.15966796875,-1223.5531005859375,-9.667675971984863
90,/Users/cjpark/Desktop/ucla_courses/cs260r/assignment4/data/td3_agent_single_overhaul/td3,138,-27485.733286459366,272999,91,1966.156240940094,-1185.6505126953125,1187.08544921875,808.0521240234375,0.0,-1184.0753173828125,-1183.5201416015625,-9.081326484680176
91,/Users/cjpark/Desktop/ucla_courses/cs260r/assignment4/data/td3_agent_single_overhaul/td3,138,-27404.353944229042,275999,92,1986.2230677604675,-1150.178466796875,1153.128662109375,1101.141357421875,0.0,-1157.5355224609375,-1152.84326171875,-8.788397789001465
92,/Users/cjpark/Desktop/ucla_courses/cs260r/assignment4/data/td3_agent_single_overhaul/td3,139,-27545.16371237847,278999,93,2006.9974308013916,-1165.663330078125,1163.666748046875,1036.5933837890625,0.0,-1161.7008056640625,-1165.90283203125,-9.765331268310547
93,/Users/cjpark/Desktop/ucla_courses/cs260r/assignment4/data/td3_agent_single_overhaul/td3,139,-27479.24748839723,281999,94,2028.0997188091278,-1078.7520751953125,1077.4393310546875,464.7567138671875,0.0,-1078.4100341796875,-1080.370361328125,-8.300390243530273
94,/Users/cjpark/Desktop/ucla_courses/cs260r/assignment4/data/td3_agent_single_overhaul/td3,139,-27484.718595424452,284999,95,2048.140652656555,-1123.76123046875,1126.042724609375,896.2760009765625,0.0,-1129.187255859375,-1124.08154296875,-8.690437316894531
95,/Users/cjpark/Desktop/ucla_courses/cs260r/assignment4/data/td3_agent_single_overhaul/td3,139,-27558.304118067026,287999,96,2068.17392373085,-1132.03466796875,1131.268310546875,2701.2890625,0.0,-1128.5087890625,-1126.711669921875,-8.3004789352417
96,/Users/cjpark/Desktop/ucla_courses/cs260r/assignment4/data/td3_agent_single_overhaul/td3,139,-27536.556335783498,290999,97,2089.1463508605957,-1144.33349609375,1144.3541259765625,1123.0931396484375,0.0,-1146.0916748046875,-1146.500732421875,-9.081226348876953
97,/Users/cjpark/Desktop/ucla_courses/cs260r/assignment4/data/td3_agent_single_overhaul/td3,139,-27578.01642512302,293999,98,2109.4427778720856,-1121.8388671875,1125.0126953125,1826.57177734375,0.0,-1121.663818359375,-1124.6412353515625,-10.350973129272461
98,/Users/cjpark/Desktop/ucla_courses/cs260r/assignment4/data/td3_agent_single_overhaul/td3,139,-27572.6778074515,296999,99,2130.1909136772156,-1127.07275390625,1128.5006103515625,1261.480712890625,0.0,-1127.048828125,-1126.144775390625,-8.300426483154297
99,/Users/cjpark/Desktop/ucla_courses/cs260r/assignment4/data/td3_agent_single_overhaul/td3,139,-27555.440952005385,299999,100,2151.2288179397583,-1159.7298583984375,1154.8734130859375,706.2581787109375,0.0,-1160.6748046875,-1164.0762939453125,-8.886322021484375
100,/Users/cjpark/Desktop/ucla_courses/cs260r/assignment4/data/td3_agent_single_overhaul/td3,139,-27780.722083177567,302999,101,2172.8495240211487,-1224.2640380859375,1224.6292724609375,1087.647705078125,0.0,-1225.728515625,-1225.73486328125,-9.9606351852417
101,/Users/cjpark/Desktop/ucla_courses/cs260r/assignment4/data/td3_agent_single_overhaul/td3,139,-27990.075564346313,305999,102,2192.513790845871,-1233.416015625,1232.70166015625,1333.21728515625,0.0,-1230.645751953125,-1228.46923828125,-10.25326919555664
102,/Users/cjpark/Desktop/ucla_courses/cs260r/assignment4/data/td3_agent_single_overhaul/td3,139,-28031.57743488312,308999,103,2213.3070459365845,-1123.901123046875,1120.65673828125,938.968994140625,0.0,-1125.4642333984375,-1128.779296875,-8.495656967163086
103,/Users/cjpark/Desktop/ucla_courses/cs260r/assignment4/data/td3_agent_single_overhaul/td3,139,-27823.077700595855,311999,104,2234.199994802475,-1160.0994873046875,1153.7518310546875,943.48291015625,0.0,-1157.142578125,-1159.4522705078125,-9.081925392150879
104,/Users/cjpark/Desktop/ucla_courses/cs260r/assignment4/data/td3_agent_single_overhaul/td3,139,-28067.590025005342,314999,105,2254.528799057007,-1224.037109375,1225.5894775390625,827.1912841796875,0.0,-1224.5535888671875,-1224.1326904296875,-10.351083755493164
105,/Users/cjpark/Desktop/ucla_courses/cs260r/assignment4/data/td3_agent_single_overhaul/td3,139,-27938.084703044893,317999,106,2275.3009128570557,-1269.431884765625,1273.12841796875,1511.9349365234375,0.0,-1272.3731689453125,-1269.3953857421875,-10.546171188354492
106,/Users/cjpark/Desktop/ucla_courses/cs260r/assignment4/data/td3_agent_single_overhaul/td3,139,-28036.588604974746,320999,107,2295.489322900772,-1151.6546630859375,1151.16796875,994.8831176757812,0.0,-1156.5670166015625,-1156.197265625,-9.66752815246582
107,/Users/cjpark/Desktop/ucla_courses/cs260r/assignment4/data/td3_agent_single_overhaul/td3,139,-28069.58813416481,323999,108,2315.9974417686462,-1181.4117431640625,1186.316650390625,658.0662841796875,0.0,-1181.8277587890625,-1178.612548828125,-9.178942680358887
108,/Users/cjpark/Desktop/ucla_courses/cs260r/assignment4/data/td3_agent_single_overhaul/td3,139,-28254.09856452942,326999,109,2336.609550714493,-1131.640625,1130.352783203125,1115.522705078125,0.0,-1133.351318359375,-1131.0787353515625,-8.886015892028809
109,/Users/cjpark/Desktop/ucla_courses/cs260r/assignment4/data/td3_agent_single_overhaul/td3,139,-28204.601084098817,329999,110,2358.021253824234,-1162.4556884765625,1162.3914794921875,1015.6900634765625,0.0,-1165.4547119140625,-1166.2457275390625,-8.398087501525879
110,/Users/cjpark/Desktop/ucla_courses/cs260r/assignment4/data/td3_agent_single_overhaul/td3,139,-27680.11238304138,332999,111,2379.2524197101593,-1079.479248046875,1080.1409912109375,737.86474609375,0.0,-1079.547607421875,-1081.0643310546875,-8.30028247833252
111,/Users/cjpark/Desktop/ucla_courses/cs260r/assignment4/data/td3_agent_single_overhaul/td3,139,-27748.117930498123,335999,112,2400.2193338871,-1073.294677734375,1072.060546875,809.0936889648438,0.0,-1074.056396484375,-1073.657470703125,-8.984102249145508
112,/Users/cjpark/Desktop/ucla_courses/cs260r/assignment4/data/td3_agent_single_overhaul/td3,140,-27625.11917737007,338999,113,2420.9313428401947,-1126.92626953125,1128.8848876953125,701.0932006835938,0.0,-1127.818359375,-1125.0633544921875,-9.374410629272461
113,/Users/cjpark/Desktop/ucla_courses/cs260r/assignment4/data/td3_agent_single_overhaul/td3,139,-27603.614534540175,341999,114,2446.0256628990173,-1119.4854736328125,1117.404296875,1240.003173828125,0.0,-1107.2589111328125,-1106.462646484375,-10.546401977539062
114,/Users/cjpark/Desktop/ucla_courses/cs260r/assignment4/data/td3_agent_single_overhaul/td3,139,-27616.113501787186,344999,115,2470.485489845276,-1094.326171875,1092.2421875,655.4281005859375,0.0,-1094.1259765625,-1093.72607421875,-7.421679496765137
115,/Users/cjpark/Desktop/ucla_courses/cs260r/assignment4/data/td3_agent_single_overhaul/td3,139,-27612.613480911255,347999,116,2494.636962890625,-1270.4483642578125,1267.894775390625,1129.593994140625,0.0,-1267.5880126953125,-1268.40576171875,-11.523061752319336
116,/Users/cjpark/Desktop/ucla_courses/cs260r/assignment4/data/td3_agent_single_overhaul/td3,139,-27397.107194137574,350999,117,2519.4560437202454,-1158.901611328125,1157.63427734375,23455.349609375,0.0,-1161.044921875,-1161.796630859375,-10.93695068359375
117,/Users/cjpark/Desktop/ucla_courses/cs260r/assignment4/data/td3_agent_single_overhaul/td3,139,-27331.60305768013,353999,118,2543.807371854782,-1055.48974609375,1055.25537109375,787.5765380859375,0.0,-1055.7791748046875,-1054.6492919921875,-7.714203834533691
118,/Users/cjpark/Desktop/ucla_courses/cs260r/assignment4/data/td3_agent_single_overhaul/td3,138,-27622.085003271102,356999,119,2568.6441280841827,-1163.782470703125,1159.0762939453125,1150.7943115234375,0.0,-1156.0782470703125,-1156.0615234375,-10.35141658782959
119,/Users/cjpark/Desktop/ucla_courses/cs260r/assignment4/data/td3_agent_single_overhaul/td3,138,-27962.089478855134,359999,120,2592.6103258132935,-1181.8997802734375,1178.9876708984375,1232.57763671875,0.0,-1185.642822265625,-1185.7569580078125,-8.495633125305176
120,/Users/cjpark/Desktop/ucla_courses/cs260r/assignment4/data/td3_agent_single_overhaul/td3,138,-27882.585160923005,362999,121,2616.6447417736053,-1086.1981201171875,1086.720458984375,697.236328125,0.0,-1084.3902587890625,-1081.3092041015625,-9.56960678100586
121,/Users/cjpark/Desktop/ucla_courses/cs260r/assignment4/data/td3_agent_single_overhaul/td3,138,-28075.091740989687,365999,122,2640.3513600826263,-1141.5015869140625,1143.086181640625,1056.330810546875,0.0,-1146.9429931640625,-1145.1099853515625,-9.277225494384766
122,/Users/cjpark/Desktop/ucla_courses/cs260r/assignment4/data/td3_agent_single_overhaul/td3,138,-28068.09436208725,368999,123,2664.3595447540283,-1121.349853515625,1120.185302734375,586.332763671875,0.0,-1120.756103515625,-1120.2757568359375,-9.76528549194336
123,/Users/cjpark/Desktop/ucla_courses/cs260r/assignment4/data/td3_agent_single_overhaul/td3,138,-28030.59219918251,371999,124,2688.519578933716,-1117.6943359375,1115.6199951171875,605.0430908203125,0.0,-1118.89501953125,-1119.821044921875,-8.30010986328125
124,/Users/cjpark/Desktop/ucla_courses/cs260r/assignment4/data/td3_agent_single_overhaul/td3,138,-28046.588511276244,374999,125,2712.5568149089813,-1162.2738037109375,1160.81103515625,875.75341796875,0.0,-1162.99072265625,-1162.845947265625,-10.448310852050781
125,/Users/cjpark/Desktop/ucla_courses/cs260r/assignment4/data/td3_agent_single_overhaul/td3,138,-28184.59045552254,377999,126,2736.938300848007,-1150.0528564453125,1146.1402587890625,842.8390502929688,0.0,-1150.290283203125,-1154.4029541015625,-9.179146766662598
126,/Users/cjpark/Desktop/ucla_courses/cs260r/assignment4/data/td3_agent_single_overhaul/td3,137,-28100.09013121605,380999,127,2761.2650997638702,-1132.544189453125,1127.9345703125,658.93896484375,0.0,-1122.6539306640625,-1126.19189453125,-9.569875717163086
127,/Users/cjpark/Desktop/ucla_courses/cs260r/assignment4/data/td3_agent_single_overhaul/td3,137,-28073.58792025566,383999,128,2784.312769651413,-1178.7724609375,1176.703125,620.3814697265625,0.0,-1182.18115234375,-1178.224609375,-9.472478866577148
128,/Users/cjpark/Desktop/ucla_courses/cs260r/assignment4/data/td3_agent_single_overhaul/td3,137,-27983.080215921404,386999,129,2807.2226979732513,-1094.9095458984375,1094.2218017578125,737.53125,0.0,-1095.289306640625,-1095.3074951171875,-8.691152572631836
129,/Users/cjpark/Desktop/ucla_courses/cs260r/assignment4/data/td3_agent_single_overhaul/td3,137,-28026.58516819954,389999,130,2830.1971669197083,-1191.0526123046875,1194.511962890625,756.1868896484375,0.0,-1197.7470703125,-1194.363037109375,-8.593399047851562
130,/Users/cjpark/Desktop/ucla_courses/cs260r/assignment4/data/td3_agent_single_overhaul/td3,137,-27680.594975872038,392999,131,2853.366159915924,-1165.9730224609375,1162.9560546875,715.557373046875,0.0,-1164.224365234375,-1166.422119140625,-9.081607818603516
131,/Users/cjpark/Desktop/ucla_courses/cs260r/assignment4/data/td3_agent_single_overhaul/td3,137,-27890.603575115205,395999,132,2876.8909199237823,-1129.395263671875,1128.38720703125,739.3900146484375,0.0,-1126.748291015625,-1124.8428955078125,-9.277204513549805
132,/Users/cjpark/Desktop/ucla_courses/cs260r/assignment4/data/td3_agent_single_overhaul/td3,137,-27913.10101995468,398999,133,2900.557292699814,-1187.186279296875,1186.8118896484375,764.6314086914062,0.0,-1188.677001953125,-1187.835205078125,-9.374926567077637
133,/Users/cjpark/Desktop/ucla_courses/cs260r/assignment4/data/td3_agent_single_overhaul/td3,137,-27907.103926639556,401999,134,2923.398293733597,-1157.5069580078125,1155.7659912109375,9022.73046875,0.0,-1159.7154541015625,-1161.28857421875,-9.472270011901855
134,/Users/cjpark/Desktop/ucla_courses/cs260r/assignment4/data/td3_agent_single_overhaul/td3,137,-27956.107512006758,404999,135,2946.2712709903717,-1175.931396484375,1172.8250732421875,663.4974365234375,0.0,-1173.457275390625,-1174.7099609375,-10.253671646118164
135,/Users/cjpark/Desktop/ucla_courses/cs260r/assignment4/data/td3_agent_single_overhaul/td3,137,-27962.104695997237,407999,136,2969.209315776825,-1211.7811279296875,1211.3765869140625,734.0594482421875,0.0,-1208.9649658203125,-1211.2548828125,-10.155841827392578
136,/Users/cjpark/Desktop/ucla_courses/cs260r/assignment4/data/td3_agent_single_overhaul/td3,137,-28069.619066905976,410999,137,2993.7204370498657,-1099.193359375,1099.489013671875,827.4513549804688,0.0,-1100.51953125,-1099.929931640625,-8.495770454406738
137,/Users/cjpark/Desktop/ucla_courses/cs260r/assignment4/data/td3_agent_single_overhaul/td3,137,-28076.62157523155,413999,138,3016.7137179374695,-1088.59375,1085.403564453125,888.1758422851562,0.0,-1088.3272705078125,-1088.374755859375,-7.909265995025635
138,/Users/cjpark/Desktop/ucla_courses/cs260r/assignment4/data/td3_agent_single_overhaul/td3,137,-28051.12000204086,416999,139,3039.3769857883453,-1178.0477294921875,1180.079345703125,14984.306640625,0.0,-1184.2781982421875,-1188.92822265625,-9.081914901733398
139,/Users/cjpark/Desktop/ucla_courses/cs260r/assignment4/data/td3_agent_single_overhaul/td3,137,-28522.61681797981,419999,140,3062.1609258651733,-1172.5079345703125,1177.907958984375,1450.252685546875,0.0,-1187.6798095703125,-1178.973388671875,-8.69095516204834
140,/Users/cjpark/Desktop/ucla_courses/cs260r/assignment4/data/td3_agent_single_overhaul/td3,137,-28100.614935445785,422999,141,3085.1770129203796,-1059.1043701171875,1060.903076171875,648.9647827148438,0.0,-1056.709228515625,-1055.7645263671875,-8.593450546264648
141,/Users/cjpark/Desktop/ucla_courses/cs260r/assignment4/data/td3_agent_single_overhaul/td3,137,-28097.608303585053,425999,142,3107.894283056259,-1147.8040771484375,1149.2076416015625,2550.18994140625,0.0,-1155.0081787109375,-1149.08251953125,-9.374473571777344
142,/Users/cjpark/Desktop/ucla_courses/cs260r/assignment4/data/td3_agent_single_overhaul/td3,137,-28091.615295362473,428999,143,3130.9588208198547,-1139.3282470703125,1139.0614013671875,671.59814453125,0.0,-1141.642822265625,-1135.76708984375,-9.960172653198242
143,/Users/cjpark/Desktop/ucla_courses/cs260r/assignment4/data/td3_agent_single_overhaul/td3,137,-28163.620891809464,431999,144,3153.0852749347687,-1147.6004638671875,1144.2259521484375,662.2349853515625,0.0,-1146.5355224609375,-1151.5926513671875,-10.741943359375
144,/Users/cjpark/Desktop/ucla_courses/cs260r/assignment4/data/td3_agent_single_overhaul/td3,137,-28148.619588050842,434999,145,3171.9133927822113,-1118.313232421875,1112.8157958984375,600.9622802734375,0.0,-1111.974853515625,-1116.2122802734375,-10.253713607788086
145,/Users/cjpark/Desktop/ucla_courses/cs260r/assignment4/data/td3_agent_single_overhaul/td3,137,-28168.62097896576,437999,146,3190.9305679798126,-1216.2076416015625,1221.41064453125,1232.053955078125,0.0,-1223.8212890625,-1215.995361328125,-10.546398162841797
146,/Users/cjpark/Desktop/ucla_courses/cs260r/assignment4/data/td3_agent_single_overhaul/td3,137,-28033.618855485915,440999,147,3209.8683667182922,-1214.6395263671875,1216.3955078125,837.123291015625,0.0,-1213.85009765625,-1212.642578125,-9.56968879699707
147,/Users/cjpark/Desktop/ucla_courses/cs260r/assignment4/data/td3_agent_single_overhaul/td3,137,-28167.128879594802,443999,148,3229.4644527435303,-1203.2725830078125,1201.5487060546875,818.6864013671875,0.0,-1201.3671875,-1203.9261474609375,-10.546295166015625
148,/Users/cjpark/Desktop/ucla_courses/cs260r/assignment4/data/td3_agent_single_overhaul/td3,137,-28046.62835934639,446999,149,3248.6571037769318,-1088.6119384765625,1087.320556640625,651.45751953125,0.0,-1089.140380859375,-1089.285888671875,-8.495651245117188
149,/Users/cjpark/Desktop/ucla_courses/cs260r/assignment4/data/td3_agent_single_overhaul/td3,137,-28079.120995969774,449999,150,3268.7261068820953,-1191.3511962890625,1191.73974609375,1199.8643798828125,0.0,-1195.30419921875,-1192.2288818359375,-9.765491485595703
150,/Users/cjpark/Desktop/ucla_courses/cs260r/assignment4/data/td3_agent_single_overhaul/td3,137,-27879.117015275955,452999,151,3287.167009830475,-1078.08349609375,1078.6947021484375,658.21630859375,0.0,-1083.1507568359375,-1077.3839111328125,-8.397899627685547
151,/Users/cjpark/Desktop/ucla_courses/cs260r/assignment4/data/td3_agent_single_overhaul/td3,137,-27920.12138683319,455999,152,3305.8359990119934,-1119.159912109375,1120.4364013671875,572.2865600585938,0.0,-1121.518798828125,-1116.8916015625,-8.105334281921387
152,/Users/cjpark/Desktop/ucla_courses/cs260r/assignment4/data/td3_agent_single_overhaul/td3,137,-27763.13066919327,458999,153,3326.365085840225,-1078.020751953125,1074.9508056640625,592.5045166015625,0.0,-1076.28662109375,-1074.9716796875,-8.59351921081543
153,/Users/cjpark/Desktop/ucla_courses/cs260r/assignment4/data/td3_agent_single_overhaul/td3,137,-27750.139006853104,461999,154,3349.2725019454956,-1140.3740234375,1135.8111572265625,568.52734375,0.0,-1138.2669677734375,-1142.44140625,-9.9603853225708
154,/Users/cjpark/Desktop/ucla_courses/cs260r/assignment4/data/td3_agent_single_overhaul/td3,137,-27800.14487215042,464999,155,3371.6300978660583,-1168.5487060546875,1170.08740234375,1143.392333984375,0.0,-1171.06787109375,-1169.169921875,-8.789010047912598
155,/Users/cjpark/Desktop/ucla_courses/cs260r/assignment4/data/td3_agent_single_overhaul/td3,137,-28350.636704330445,467999,156,3394.3971207141876,-1143.1097412109375,1143.5499267578125,694.4885864257812,0.0,-1139.061767578125,-1140.348388671875,-9.56972885131836
156,/Users/cjpark/Desktop/ucla_courses/cs260r/assignment4/data/td3_agent_single_overhaul/td3,137,-28346.13301165581,470999,157,3416.568299770355,-1122.221435546875,1127.4967041015625,719.2977294921875,0.0,-1126.1414794921875,-1120.901123046875,-9.472373962402344
157,/Users/cjpark/Desktop/ucla_courses/cs260r/assignment4/data/td3_agent_single_overhaul/td3,137,-28258.637879371643,473999,158,3439.425338745117,-1165.42041015625,1165.402587890625,694.03369140625,0.0,-1166.503662109375,-1166.6627197265625,-9.86313533782959
158,/Users/cjpark/Desktop/ucla_courses/cs260r/assignment4/data/td3_agent_single_overhaul/td3,137,-28623.63358048439,476999,159,3462.042018890381,-1220.4833984375,1221.9705810546875,516.47509765625,0.0,-1221.581298828125,-1221.943115234375,-9.862883567810059
159,/Users/cjpark/Desktop/ucla_courses/cs260r/assignment4/data/td3_agent_single_overhaul/td3,137,-28541.127797260284,479999,160,3484.823559999466,-1041.40966796875,1039.97998046875,572.7337036132812,0.0,-1047.1407470703125,-1044.3370361328125,-8.788501739501953
160,/Users/cjpark/Desktop/ucla_courses/cs260r/assignment4/data/td3_agent_single_overhaul/td3,137,-28491.631134414674,482999,161,3507.1638946533203,-1130.9775390625,1134.836181640625,757.2713623046875,0.0,-1130.7237548828125,-1125.594970703125,-8.398345947265625
161,/Users/cjpark/Desktop/ucla_courses/cs260r/assignment4/data/td3_agent_single_overhaul/td3,137,-28519.13325352669,485999,162,3530.2962148189545,-1111.9720458984375,1109.038818359375,1007.656494140625,0.0,-1117.267333984375,-1119.811767578125,-8.202522277832031
162,/Users/cjpark/Desktop/ucla_courses/cs260r/assignment4/data/td3_agent_single_overhaul/td3,137,-28554.13408876419,488999,163,3553.5577957630157,-1107.3599853515625,1107.325927734375,605.517333984375,0.0,-1107.107421875,-1108.2108154296875,-7.616789817810059
163,/Users/cjpark/Desktop/ucla_courses/cs260r/assignment4/data/td3_agent_single_overhaul/td3,137,-28577.135644493104,491999,164,3575.52073597908,-1138.646728515625,1136.654541015625,1034.6845703125,0.0,-1138.2423095703125,-1138.72900390625,-9.472421646118164
164,/Users/cjpark/Desktop/ucla_courses/cs260r/assignment4/data/td3_agent_single_overhaul/td3,137,-28571.63545744896,494999,165,3597.5851089954376,-1238.7286376953125,1236.693115234375,1218.4251708984375,0.0,-1237.6162109375,-1237.144775390625,-10.8392972946167
165,/Users/cjpark/Desktop/ucla_courses/cs260r/assignment4/data/td3_agent_single_overhaul/td3,137,-28814.14644791603,497999,166,3621.6528787612915,-1150.499755859375,1148.1143798828125,675.4393310546875,0.0,-1143.26171875,-1148.1392822265625,-9.179023742675781
166,/Users/cjpark/Desktop/ucla_courses/cs260r/assignment4/data/td3_agent_single_overhaul/td3,137,-29316.14110212326,500999,167,3645.284415960312,-1132.493896484375,1132.535400390625,701.129638671875,0.0,-1130.800048828125,-1129.0030517578125,-8.39798641204834
167,/Users/cjpark/Desktop/ucla_courses/cs260r/assignment4/data/td3_agent_single_overhaul/td3,137,-29212.64251279831,503999,168,3667.8534808158875,-1154.49462890625,1154.048828125,560.6820678710938,0.0,-1153.7314453125,-1154.43017578125,-10.057952880859375
168,/Users/cjpark/Desktop/ucla_courses/cs260r/assignment4/data/td3_agent_single_overhaul/td3,137,-29269.146156187056,506999,169,3691.3603389263153,-1065.9993896484375,1068.1519775390625,3201.64306640625,0.0,-1067.4466552734375,-1067.0694580078125,-9.081493377685547
169,/Users/cjpark/Desktop/ucla_courses/cs260r/assignment4/data/td3_agent_single_overhaul/td3,137,-29381.637488613127,509999,170,3714.6485707759857,-1110.393310546875,1112.2127685546875,601.5625,0.0,-1105.373046875,-1102.72119140625,-8.788780212402344
170,/Users/cjpark/Desktop/ucla_courses/cs260r/assignment4/data/td3_agent_single_overhaul/td3,137,-28998.14912870407,512999,171,3737.6483278274536,-1172.0736083984375,1171.2701416015625,631.6619873046875,0.0,-1169.286376953125,-1171.7037353515625,-8.202497482299805
171,/Users/cjpark/Desktop/ucla_courses/cs260r/assignment4/data/td3_agent_single_overhaul/td3,137,-29064.156229019165,515999,172,3760.2848677635193,-1199.67578125,1201.2274169921875,553.9827880859375,0.0,-1204.1304931640625,-1203.130615234375,-9.472175598144531
172,/Users/cjpark/Desktop/ucla_courses/cs260r/assignment4/data/td3_agent_single_overhaul/td3,137,-29083.65584127426,518999,173,3784.1276166439056,-1120.050537109375,1122.283935546875,718.1221923828125,0.0,-1123.9725341796875,-1123.17431640625,-8.983918190002441
173,/Users/cjpark/Desktop/ucla_courses/cs260r/assignment4/data/td3_agent_single_overhaul/td3,137,-29097.65544023514,521999,174,3807.170933008194,-1153.2813720703125,1153.3779296875,735.81884765625,0.0,-1154.78759765625,-1150.047119140625,-8.007562637329102
174,/Users/cjpark/Desktop/ucla_courses/cs260r/assignment4/data/td3_agent_single_overhaul/td3,137,-28941.650292549133,524999,175,3830.006007671356,-1148.256103515625,1144.847412109375,1008.7127685546875,0.0,-1149.4013671875,-1153.8690185546875,-8.691268920898438
175,/Users/cjpark/Desktop/ucla_courses/cs260r/assignment4/data/td3_agent_single_overhaul/td3,137,-28972.15281159401,527999,176,3852.4950280189514,-1102.33984375,1102.671630859375,675.1124877929688,0.0,-1101.67578125,-1098.063720703125,-9.76514720916748
176,/Users/cjpark/Desktop/ucla_courses/cs260r/assignment4/data/td3_agent_single_overhaul/td3,137,-28984.15168671608,530999,177,3874.955577850342,-1183.2406005859375,1185.5419921875,16355.640625,0.0,-1191.4453125,-1187.48388671875,-9.276907920837402
177,/Users/cjpark/Desktop/ucla_courses/cs260r/assignment4/data/td3_agent_single_overhaul/td3,137,-28966.149667930604,533999,178,3897.539897918701,-1205.14208984375,1207.1263427734375,7876.09814453125,0.0,-1207.927978515625,-1207.138427734375,-10.253610610961914
178,/Users/cjpark/Desktop/ucla_courses/cs260r/assignment4/data/td3_agent_single_overhaul/td3,136,-28808.138322257997,536999,179,3920.869444847107,-1219.21533203125,1215.9879150390625,660.5730590820312,0.0,-1216.3548583984375,-1220.0302734375,-9.765460014343262
179,/Users/cjpark/Desktop/ucla_courses/cs260r/assignment4/data/td3_agent_single_overhaul/td3,137,-28873.1409526062,539999,180,3941.048185825348,-1181.720458984375,1184.622314453125,753.7880249023438,0.0,-1180.5718994140625,-1177.9368896484375,-10.155403137207031
180,/Users/cjpark/Desktop/ucla_courses/cs260r/assignment4/data/td3_agent_single_overhaul/td3,137,-28784.132332515717,542999,181,3960.5330188274384,-1137.133056640625,1133.777099609375,9165.736328125,0.0,-1138.299072265625,-1142.787841796875,-9.08172607421875
181,/Users/cjpark/Desktop/ucla_courses/cs260r/assignment4/data/td3_agent_single_overhaul/td3,137,-28826.130589151384,545999,182,3979.580754995346,-1231.3736572265625,1227.0826416015625,645.3572998046875,0.0,-1230.7718505859375,-1234.2867431640625,-10.936881065368652
182,/Users/cjpark/Desktop/ucla_courses/cs260r/assignment4/data/td3_agent_single_overhaul/td3,137,-28819.633349552154,548999,183,3998.5425837039948,-1113.1942138671875,1111.7965087890625,877.3857421875,0.0,-1112.6488037109375,-1116.9044189453125,-8.984247207641602
183,/Users/cjpark/Desktop/ucla_courses/cs260r/assignment4/data/td3_agent_single_overhaul/td3,137,-28818.135178232194,551999,184,4017.6365869045258,-1199.3182373046875,1193.201904296875,605.0272216796875,0.0,-1194.7235107421875,-1198.5263671875,-12.401649475097656
184,/Users/cjpark/Desktop/ucla_courses/cs260r/assignment4/data/td3_agent_single_overhaul/td3,137,-28849.64635526657,554999,185,4036.614909887314,-1221.5257568359375,1218.9149169921875,703.6065063476562,0.0,-1219.093017578125,-1222.70556640625,-10.839723587036133
185,/Users/cjpark/Desktop/ucla_courses/cs260r/assignment4/data/td3_agent_single_overhaul/td3,137,-28810.636767139436,557999,186,4055.688542842865,-1212.9874267578125,1211.5322265625,23481.548828125,0.0,-1216.3121337890625,-1221.232177734375,-10.156085014343262
186,/Users/cjpark/Desktop/ucla_courses/cs260r/assignment4/data/td3_agent_single_overhaul/td3,137,-28764.133495407106,560999,187,4074.7102427482605,-1221.69287109375,1217.0963134765625,793.151123046875,0.0,-1213.9840087890625,-1215.886962890625,-9.863241195678711
187,/Users/cjpark/Desktop/ucla_courses/cs260r/assignment4/data/td3_agent_single_overhaul/td3,137,-28635.128933057786,563999,188,4093.9391849040985,-1129.425048828125,1128.064697265625,507.59130859375,0.0,-1126.363037109375,-1127.720703125,-9.081440925598145
188,/Users/cjpark/Desktop/ucla_courses/cs260r/assignment4/data/td3_agent_single_overhaul/td3,137,-28603.626584205627,566999,189,4112.920404911041,-1143.6707763671875,1145.9344482421875,595.531005859375,0.0,-1147.1107177734375,-1146.864013671875,-9.472379684448242
189,/Users/cjpark/Desktop/ucla_courses/cs260r/assignment4/data/td3_agent_single_overhaul/td3,137,-28597.126980571746,569999,190,4131.647292852402,-1236.8851318359375,1237.6396484375,676.6865234375,0.0,-1240.677490234375,-1238.174560546875,-10.156083106994629
190,/Users/cjpark/Desktop/ucla_courses/cs260r/assignment4/data/td3_agent_single_overhaul/td3,138,-28386.119371013643,572999,191,4150.680292844772,-1191.971435546875,1195.637939453125,1468.4058837890625,0.0,-1194.92626953125,-1189.7939453125,-10.156037330627441
191,/Users/cjpark/Desktop/ucla_courses/cs260r/assignment4/data/td3_agent_single_overhaul/td3,138,-28387.117719964983,575999,192,4170.377044916153,-1141.318603515625,1142.8094482421875,678.8096923828125,0.0,-1142.8094482421875,-1139.16650390625,-8.690922737121582
192,/Users/cjpark/Desktop/ucla_courses/cs260r/assignment4/data/td3_agent_single_overhaul/td3,138,-28236.612505979538,578999,193,4189.311076879501,-1238.91162109375,1239.2647705078125,868.630126953125,0.0,-1244.1142578125,-1241.990478515625,-10.35142993927002
193,/Users/cjpark/Desktop/ucla_courses/cs260r/assignment4/data/td3_agent_single_overhaul/td3,138,-28396.12298546791,581999,194,4208.9039187431335,-1170.242919921875,1171.8065185546875,675.1728515625,0.0,-1175.359130859375,-1173.1712646484375,-10.15591049194336
194,/Users/cjpark/Desktop/ucla_courses/cs260r/assignment4/data/td3_agent_single_overhaul/td3,138,-28310.120087575913,584999,195,4228.262464046478,-1169.8563232421875,1176.9014892578125,680.6026000976562,0.0,-1176.25048828125,-1167.8465576171875,-10.448796272277832
195,/Users/cjpark/Desktop/ucla_courses/cs260r/assignment4/data/td3_agent_single_overhaul/td3,138,-28185.12339111328,587999,196,4247.083199977875,-1198.168701171875,1199.7744140625,591.6778564453125,0.0,-1206.634765625,-1199.2490234375,-9.17949104309082
196,/Users/cjpark/Desktop/ucla_courses/cs260r/assignment4/data/td3_agent_single_overhaul/td3,138,-28167.63202149391,590999,197,4266.376443862915,-1040.6866455078125,1035.92578125,25509.794921875,0.0,-1046.6932373046875,-1050.4886474609375,-7.6167802810668945
197,/Users/cjpark/Desktop/ucla_courses/cs260r/assignment4/data/td3_agent_single_overhaul/td3,138,-28072.124686546325,593999,198,4286.0886306762695,-1168.6038818359375,1169.653564453125,890.6624755859375,0.0,-1175.803466796875,-1174.3035888671875,-8.105052947998047
198,/Users/cjpark/Desktop/ucla_courses/cs260r/assignment4/data/td3_agent_single_overhaul/td3,138,-28603.604855480193,596999,199,4305.883091926575,-1102.5294189453125,1098.283447265625,702.982177734375,0.0,-1105.478515625,-1104.7734375,-8.202705383300781
199,/Users/cjpark/Desktop/ucla_courses/cs260r/assignment4/data/td3_agent_single_overhaul/td3,138,-28578.603692712783,599999,200,4325.02050280571,-1213.5064697265625,1209.52197265625,811.784912109375,0.0,-1213.0606689453125,-1212.3682861328125,-10.351057052612305
200,/Users/cjpark/Desktop/ucla_courses/cs260r/assignment4/data/td3_agent_single_overhaul/td3,138,-28588.60481798172,602999,201,4343.727423906326,-1103.972412109375,1097.9100341796875,666.7734375,0.0,-1103.4530029296875,-1107.554931640625,-8.59353256225586
201,/Users/cjpark/Desktop/ucla_courses/cs260r/assignment4/data/td3_agent_single_overhaul/td3,138,-28583.104545497896,605999,202,4362.311167955399,-1184.6844482421875,1182.6929931640625,2416.58935546875,0.0,-1186.0079345703125,-1189.197265625,-8.202781677246094
202,/Users/cjpark/Desktop/ucla_courses/cs260r/assignment4/data/td3_agent_single_overhaul/td3,139,-28589.103398857118,608999,203,4381.159363746643,-1160.10595703125,1157.0938720703125,2527.599853515625,0.0,-1160.7369384765625,-1160.55810546875,-10.253777503967285
203,/Users/cjpark/Desktop/ucla_courses/cs260r/assignment4/data/td3_agent_single_overhaul/td3,139,-28488.607656202315,611999,204,4399.91147685051,-1228.087646484375,1224.7427978515625,838.14453125,0.0,-1227.9979248046875,-1233.05322265625,-10.448875427246094
204,/Users/cjpark/Desktop/ucla_courses/cs260r/assignment4/data/td3_agent_single_overhaul/td3,139,-28221.596245880126,614999,205,4418.790452003479,-1135.8621826171875,1127.9241943359375,686.7109375,0.0,-1131.5174560546875,-1135.881103515625,-8.885869979858398
205,/Users/cjpark/Desktop/ucla_courses/cs260r/assignment4/data/td3_agent_single_overhaul/td3,139,-28156.592628526687,617999,206,4438.021827697754,-1174.3909912109375,1167.2916259765625,692.3446655273438,0.0,-1169.5938720703125,-1176.354736328125,-9.570128440856934
206,/Users/cjpark/Desktop/ucla_courses/cs260r/assignment4/data/td3_agent_single_overhaul/td3,139,-28097.587493085863,620999,207,4457.273793697357,-1130.7696533203125,1124.8768310546875,483.60443115234375,0.0,-1126.62548828125,-1129.255126953125,-9.276823997497559
207,/Users/cjpark/Desktop/ucla_courses/cs260r/assignment4/data/td3_agent_single_overhaul/td3,139,-28103.09106895447,623999,208,4476.771291971207,-1126.5126953125,1124.6307373046875,762.271240234375,0.0,-1117.074462890625,-1120.87646484375,-9.179424285888672
208,/Users/cjpark/Desktop/ucla_courses/cs260r/assignment4/data/td3_agent_single_overhaul/td3,139,-27896.07871931076,626999,209,4495.940557718277,-1207.2982177734375,1204.4111328125,861.6112670898438,0.0,-1205.080078125,-1207.285888671875,-9.667743682861328
209,/Users/cjpark/Desktop/ucla_courses/cs260r/assignment4/data/td3_agent_single_overhaul/td3,139,-27865.06899271965,629999,210,4515.3438448905945,-1065.6473388671875,1067.1378173828125,1587.9697265625,0.0,-1065.071044921875,-1065.7137451171875,-8.39786148071289
210,/Users/cjpark/Desktop/ucla_courses/cs260r/assignment4/data/td3_agent_single_overhaul/td3,139,-27947.567713489534,632999,211,4534.330764770508,-1149.053466796875,1148.070556640625,554.1773071289062,0.0,-1145.9853515625,-1147.953369140625,-9.960654258728027
211,/Users/cjpark/Desktop/ucla_courses/cs260r/assignment4/data/td3_agent_single_overhaul/td3,139,-28086.575276765823,635999,212,4553.191781759262,-1137.4249267578125,1135.3787841796875,630.031494140625,0.0,-1140.931640625,-1141.7967529296875,-8.006935119628906
212,/Users/cjpark/Desktop/ucla_courses/cs260r/assignment4/data/td3_agent_single_overhaul/td3,139,-27951.56451593399,638999,213,4572.0447607040405,-1191.8214111328125,1191.2545166015625,563.1639404296875,0.0,-1197.1470947265625,-1195.5604248046875,-9.570209503173828
213,/Users/cjpark/Desktop/ucla_courses/cs260r/assignment4/data/td3_agent_single_overhaul/td3,139,-28344.56097653389,641999,214,4593.794816732407,-1174.129150390625,1176.307373046875,549.8850708007812,0.0,-1172.4720458984375,-1171.362548828125,-9.472271919250488
214,/Users/cjpark/Desktop/ucla_courses/cs260r/assignment4/data/td3_agent_single_overhaul/td3,139,-28306.058073101045,644999,215,4616.1225028038025,-1141.47802734375,1138.9324951171875,571.5906372070312,0.0,-1142.1749267578125,-1145.87255859375,-9.47241497039795
215,/Users/cjpark/Desktop/ucla_courses/cs260r/assignment4/data/td3_agent_single_overhaul/td3,139,-28346.064283533095,647999,216,4637.976438045502,-1130.061767578125,1123.8580322265625,617.7900390625,0.0,-1131.9814453125,-1131.176025390625,-9.374570846557617
216,/Users/cjpark/Desktop/ucla_courses/cs260r/assignment4/data/td3_agent_single_overhaul/td3,139,-28892.550236434938,650999,217,4659.731103897095,-1120.5950927734375,1119.9932861328125,549.632568359375,0.0,-1118.091064453125,-1121.24853515625,-9.374199867248535
217,/Users/cjpark/Desktop/ucla_courses/cs260r/assignment4/data/td3_agent_single_overhaul/td3,139,-28933.064159030913,653999,218,4681.762101888657,-1102.7811279296875,1101.367431640625,579.4532470703125,0.0,-1098.652587890625,-1099.9849853515625,-8.788368225097656
218,/Users/cjpark/Desktop/ucla_courses/cs260r/assignment4/data/td3_agent_single_overhaul/td3,139,-28576.078082990647,656999,219,4703.548262834549,-1126.7335205078125,1122.0313720703125,2567.304931640625,0.0,-1124.962890625,-1132.613037109375,-9.764808654785156
219,/Users/cjpark/Desktop/ucla_courses/cs260r/assignment4/data/td3_agent_single_overhaul/td3,139,-28688.07105117798,659999,220,4725.27821803093,-1178.255615234375,1178.070068359375,526.146484375,0.0,-1180.14501953125,-1177.3245849609375,-9.179369926452637
220,/Users/cjpark/Desktop/ucla_courses/cs260r/assignment4/data/td3_agent_single_overhaul/td3,139,-28698.07174498558,662999,221,4747.151414871216,-1178.346435546875,1180.8153076171875,584.4901123046875,0.0,-1175.5828857421875,-1174.517578125,-8.788784980773926
221,/Users/cjpark/Desktop/ucla_courses/cs260r/assignment4/data/td3_agent_single_overhaul/td3,139,-28439.059102067946,665999,222,4769.218504905701,-1103.37060546875,1104.4560546875,605.2633666992188,0.0,-1105.369140625,-1102.8946533203125,-8.398077011108398
222,/Users/cjpark/Desktop/ucla_courses/cs260r/assignment4/data/td3_agent_single_overhaul/td3,139,-28501.561871204376,668999,223,4791.474944829941,-1112.0789794921875,1109.1268310546875,637.583984375,0.0,-1112.841064453125,-1117.9210205078125,-8.886533737182617
223,/Users/cjpark/Desktop/ucla_courses/cs260r/assignment4/data/td3_agent_single_overhaul/td3,139,-28512.56351696968,671999,224,4813.260125875473,-1100.64697265625,1103.1578369140625,638.0137939453125,0.0,-1103.08349609375,-1098.5970458984375,-8.3003511428833
224,/Users/cjpark/Desktop/ucla_courses/cs260r/assignment4/data/td3_agent_single_overhaul/td3,139,-28509.56728773117,674999,225,4835.586581707001,-1107.130859375,1109.175048828125,740.23876953125,0.0,-1109.099365234375,-1106.387939453125,-8.397944450378418
225,/Users/cjpark/Desktop/ucla_courses/cs260r/assignment4/data/td3_agent_single_overhaul/td3,139,-28413.064476823805,677999,226,4857.388993740082,-1161.2333984375,1159.588134765625,833.2095947265625,0.0,-1162.5712890625,-1161.84619140625,-8.20285415649414
